;FLAVOR:Marlin
;TIME:16831
;Filament used: 11.3576m
;Layer height: 0.16
;MINX:49.364
;MINY:49.364
;MINZ:0.2
;MAXX:170.636
;MAXY:170.636
;MAXZ:9
;Generated with Cura_SteamEngine 4.2.1
M140 S60
M105
M190 S60
M104 S200
M105
M109 S200
M82 ;absolute extrusion mode
M201 X500.00 Y500.00 Z100.00 E5000.00 ;Setup machine max acceleration
M203 X500.00 Y500.00 Z10.00 E50.00 ;Setup machine max feedrate
M204 P500.00 R1000.00 T500.00 ;Setup Print/Retract/Travel acceleration
M205 X8.00 Y8.00 Z0.40 E5.00 ;Setup Jerk
M220 S100 ;Reset Feedrate
M221 S100 ;Reset Flowrate

G28 ;Home

G92 E0 ;Reset Extruder
G1 Z2.0 F3000 ;Move Z Axis up
G1 X10.1 Y20 Z0.28 F5000.0 ;Move to start position
G1 X10.1 Y200.0 Z0.28 F1500.0 E15 ;Draw the first line
G1 X10.4 Y200.0 Z0.28 F5000.0 ;Move to side a little
G1 X10.4 Y20 Z0.28 F1500.0 E30 ;Draw the second line
G92 E0 ;Reset Extruder
G1 Z2.0 F3000 ;Move Z Axis up

G92 E0
G92 E0
G1 F3000 E-5
;LAYER_COUNT:46
;LAYER:0
M107
G0 F6000 X68.304 Y65.973 Z0.2
;TYPE:SKIRT
G1 F3000 E0
G1 F1200 X68.678 Y65.622 E0.01877
G1 X71.153 Y63.441 E0.13946
G1 X71.547 Y63.115 E0.15817
G1 X74.152 Y61.095 E0.27877
G1 X74.564 Y60.796 E0.2974
G1 X77.293 Y58.941 E0.41812
G1 X77.724 Y58.667 E0.43681
G1 X80.562 Y56.988 E0.55745
G1 X81.013 Y56.74 E0.57628
G1 X83.953 Y55.243 E0.69698
G1 X84.413 Y55.027 E0.71558
G1 X87.439 Y53.717 E0.83621
G1 X87.918 Y53.528 E0.85505
G1 X91.023 Y52.411 E0.97578
G1 X91.506 Y52.254 E0.99436
G1 X94.671 Y51.334 E1.11495
G1 X95.166 Y51.206 E1.13366
G1 X98.385 Y50.486 E1.25434
G1 X98.889 Y50.39 E1.27311
G1 X102.147 Y49.874 E1.39379
G1 X102.655 Y49.81 E1.41252
G1 X105.939 Y49.5 E1.53321
G1 X106.447 Y49.468 E1.55183
G1 X109.743 Y49.364 E1.67248
G1 X110.257 Y49.364 E1.69128
G1 X113.553 Y49.468 E1.81193
G1 X114.061 Y49.5 E1.83055
G1 X117.345 Y49.81 E1.95124
G1 X117.853 Y49.874 E1.96997
G1 X121.112 Y50.39 E2.09069
G1 X121.614 Y50.486 E2.10939
G1 X124.831 Y51.205 E2.22999
G1 X125.327 Y51.332 E2.24872
G1 X128.493 Y52.252 E2.36934
G1 X128.98 Y52.41 E2.38808
G1 X132.085 Y53.528 E2.50882
G1 X132.561 Y53.717 E2.52755
G1 X135.587 Y55.027 E2.64819
G1 X136.047 Y55.243 E2.66678
G1 X138.987 Y56.74 E2.78749
G1 X139.438 Y56.988 E2.80632
G1 X142.276 Y58.667 E2.92696
G1 X142.706 Y58.941 E2.94562
G1 X145.434 Y60.795 E3.06629
G1 X145.847 Y61.095 E3.08497
G1 X148.453 Y63.116 E3.20562
G1 X148.847 Y63.441 E3.22431
G1 X151.321 Y65.621 E3.34495
G1 X151.695 Y65.972 E3.36371
G1 X154.027 Y68.304 E3.48437
G1 X154.378 Y68.678 E3.50314
G1 X156.558 Y71.152 E3.62378
G1 X156.883 Y71.546 E3.64246
G1 X158.904 Y74.152 E3.76312
G1 X159.204 Y74.564 E3.78177
G1 X161.059 Y77.293 E3.90249
G1 X161.333 Y77.724 E3.92118
G1 X163.012 Y80.562 E4.04182
G1 X163.26 Y81.013 E4.06065
G1 X164.757 Y83.953 E4.18135
G1 X164.973 Y84.413 E4.19995
G1 X166.283 Y87.439 E4.32058
G1 X166.472 Y87.917 E4.33939
G1 X167.589 Y91.021 E4.46008
G1 X167.747 Y91.506 E4.47875
G1 X168.667 Y94.672 E4.59937
G1 X168.794 Y95.166 E4.61803
G1 X169.514 Y98.384 E4.73867
G1 X169.61 Y98.888 E4.75745
G1 X170.126 Y102.146 E4.87813
G1 X170.19 Y102.654 E4.89686
G1 X170.5 Y105.938 E5.01754
G1 X170.532 Y106.446 E5.03617
G1 X170.636 Y109.742 E5.15682
G1 X170.636 Y110.256 E5.17562
G1 X170.532 Y113.553 E5.29631
G1 X170.5 Y114.061 E5.31493
G1 X170.19 Y117.345 E5.43561
G1 X170.126 Y117.853 E5.45434
G1 X169.61 Y121.111 E5.57503
G1 X169.514 Y121.615 E5.5938
G1 X168.794 Y124.834 E5.71448
G1 X168.666 Y125.329 E5.73318
G1 X167.746 Y128.494 E5.85377
G1 X167.589 Y128.977 E5.87235
G1 X166.472 Y132.082 E5.99308
G1 X166.283 Y132.561 E6.01192
G1 X164.973 Y135.587 E6.13256
G1 X164.757 Y136.046 E6.15112
G1 X163.261 Y138.985 E6.27177
G1 X163.012 Y139.437 E6.29065
G1 X161.332 Y142.276 E6.41135
G1 X161.059 Y142.706 E6.42998
G1 X159.205 Y145.434 E6.55066
G1 X158.905 Y145.847 E6.56933
G1 X156.884 Y148.453 E6.68999
G1 X156.559 Y148.847 E6.70867
G1 X154.379 Y151.321 E6.82931
G1 X154.028 Y151.695 E6.84808
G1 X151.696 Y154.027 E6.96874
G1 X151.322 Y154.378 E6.9875
G1 X148.848 Y156.558 E7.10814
G1 X148.454 Y156.883 E7.12683
G1 X145.848 Y158.904 E7.24748
G1 X145.436 Y159.204 E7.26613
G1 X142.707 Y161.059 E7.38686
G1 X142.276 Y161.333 E7.40554
G1 X139.438 Y163.012 E7.52618
G1 X138.987 Y163.26 E7.54501
G1 X136.047 Y164.757 E7.66572
G1 X135.587 Y164.973 E7.68431
G1 X132.561 Y166.283 E7.80495
G1 X132.082 Y166.472 E7.82379
G1 X128.977 Y167.589 E7.94452
G1 X128.494 Y167.746 E7.9631
G1 X125.329 Y168.666 E8.08369
G1 X124.834 Y168.794 E8.10239
G1 X121.615 Y169.514 E8.22307
G1 X121.111 Y169.61 E8.24184
G1 X117.853 Y170.126 E8.36253
G1 X117.345 Y170.19 E8.38126
G1 X114.061 Y170.5 E8.50194
G1 X113.553 Y170.532 E8.52057
G1 X110.257 Y170.636 E8.64121
G1 X109.743 Y170.636 E8.66002
G1 X106.447 Y170.532 E8.78067
G1 X105.939 Y170.5 E8.79929
G1 X102.655 Y170.19 E8.91997
G1 X102.147 Y170.126 E8.9387
G1 X98.888 Y169.61 E9.05942
G1 X98.386 Y169.514 E9.07812
G1 X95.169 Y168.795 E9.19872
G1 X94.673 Y168.668 E9.21746
G1 X91.507 Y167.748 E9.33808
G1 X91.02 Y167.59 E9.35681
G1 X87.915 Y166.472 E9.47755
G1 X87.439 Y166.283 E9.49629
G1 X84.413 Y164.973 E9.61693
G1 X83.953 Y164.757 E9.63552
G1 X81.013 Y163.26 E9.75622
G1 X80.562 Y163.012 E9.77506
G1 X77.724 Y161.333 E9.8957
G1 X77.293 Y161.059 E9.91438
G1 X74.564 Y159.204 E10.03511
G1 X74.152 Y158.904 E10.05375
G1 X71.546 Y156.883 E10.17441
G1 X71.152 Y156.558 E10.1931
G1 X68.678 Y154.378 E10.31374
G1 X68.304 Y154.027 E10.3325
G1 X65.972 Y151.695 E10.45316
G1 X65.621 Y151.321 E10.47193
G1 X63.441 Y148.847 E10.59257
G1 X63.116 Y148.453 E10.61125
G1 X61.095 Y145.847 E10.73191
G1 X60.795 Y145.434 E10.75058
G1 X58.941 Y142.706 E10.87126
G1 X58.668 Y142.276 E10.88989
G1 X56.988 Y139.437 E11.01058
G1 X56.739 Y138.985 E11.02946
G1 X55.243 Y136.046 E11.15012
G1 X55.027 Y135.587 E11.16868
G1 X53.717 Y132.561 E11.28932
G1 X53.528 Y132.082 E11.30816
G1 X52.411 Y128.977 E11.42888
G1 X52.254 Y128.494 E11.44747
G1 X51.334 Y125.329 E11.56805
G1 X51.206 Y124.834 E11.58676
G1 X50.486 Y121.615 E11.70744
G1 X50.39 Y121.111 E11.72621
G1 X49.874 Y117.853 E11.84689
G1 X49.81 Y117.345 E11.86563
G1 X49.5 Y114.061 E11.98631
G1 X49.468 Y113.553 E12.00493
G1 X49.364 Y110.258 E12.12554
G1 X49.364 Y109.744 E12.14435
G1 X49.468 Y106.447 E12.26503
G1 X49.5 Y105.939 E12.28366
G1 X49.81 Y102.655 E12.40434
G1 X49.874 Y102.147 E12.42307
G1 X50.39 Y98.889 E12.54376
G1 X50.486 Y98.385 E12.56253
G1 X51.206 Y95.166 E12.68321
G1 X51.334 Y94.671 E12.70191
G1 X52.254 Y91.506 E12.8225
G1 X52.411 Y91.023 E12.84108
G1 X53.528 Y87.918 E12.96181
G1 X53.717 Y87.439 E12.98065
G1 X55.027 Y84.413 E13.10129
G1 X55.243 Y83.954 E13.11985
G1 X56.739 Y81.015 E13.2405
G1 X56.988 Y80.563 E13.25938
G1 X58.668 Y77.724 E13.38008
G1 X58.941 Y77.294 E13.39871
G1 X60.795 Y74.566 E13.51939
G1 X61.095 Y74.153 E13.53806
G1 X63.116 Y71.547 E13.65872
G1 X63.441 Y71.153 E13.6774
G1 X65.621 Y68.679 E13.79804
G1 X65.972 Y68.305 E13.81681
G1 X68.304 Y65.973 E13.93747
G0 F6000 X68.615 Y66.284
G1 F1200 X68.969 Y65.952 E13.95522
G1 X71.444 Y63.771 E14.07592
G1 X71.817 Y63.463 E14.09361
G1 X74.422 Y61.443 E14.21422
G1 X74.811 Y61.16 E14.23182
G1 X77.54 Y59.305 E14.35254
G1 X77.948 Y59.046 E14.37022
G1 X80.786 Y57.367 E14.49086
G1 X81.213 Y57.132 E14.5087
G1 X84.153 Y55.635 E14.6294
G1 X84.588 Y55.431 E14.64698
G1 X87.614 Y54.121 E14.76762
G1 X88.067 Y53.942 E14.78544
G1 X91.172 Y52.825 E14.90617
G1 X91.629 Y52.676 E14.92375
G1 X94.794 Y51.756 E15.04434
G1 X95.262 Y51.636 E15.06202
G1 X98.481 Y50.916 E15.1827
G1 X98.957 Y50.825 E15.20043
G1 X102.215 Y50.309 E15.32111
G1 X102.696 Y50.248 E15.33885
G1 X105.98 Y49.938 E15.45953
G1 X106.461 Y49.908 E15.47716
G1 X109.757 Y49.804 E15.59781
G1 X110.243 Y49.804 E15.61559
G1 X113.539 Y49.908 E15.73624
G1 X114.02 Y49.938 E15.75387
G1 X117.304 Y50.248 E15.87456
G1 X117.784 Y50.309 E15.89226
G1 X121.043 Y50.825 E16.01298
G1 X121.519 Y50.915 E16.0307
G1 X124.736 Y51.634 E16.1513
G1 X125.205 Y51.755 E16.16902
G1 X128.371 Y52.675 E16.28965
G1 X128.831 Y52.824 E16.30734
G1 X131.936 Y53.942 E16.42808
G1 X132.386 Y54.121 E16.4458
G1 X135.412 Y55.431 E16.56643
G1 X135.847 Y55.635 E16.58401
G1 X138.787 Y57.132 E16.70472
G1 X139.214 Y57.367 E16.72255
G1 X142.052 Y59.046 E16.84319
G1 X142.459 Y59.305 E16.86084
G1 X145.187 Y61.159 E16.98152
G1 X145.578 Y61.442 E16.99917
G1 X148.184 Y63.463 E17.11983
G1 X148.556 Y63.771 E17.1375
G1 X151.03 Y65.951 E17.25814
G1 X151.384 Y66.283 E17.2759
G1 X153.716 Y68.615 E17.39655
G1 X154.048 Y68.969 E17.41431
G1 X156.228 Y71.443 E17.53495
G1 X156.536 Y71.815 E17.55262
G1 X158.557 Y74.421 E17.67328
G1 X158.84 Y74.811 E17.69091
G1 X160.695 Y77.54 E17.81163
G1 X160.954 Y77.948 E17.82931
G1 X162.633 Y80.786 E17.94995
G1 X162.868 Y81.213 E17.96779
G1 X164.365 Y84.153 E18.08849
G1 X164.569 Y84.588 E18.10607
G1 X165.879 Y87.614 E18.22671
G1 X166.058 Y88.066 E18.24449
G1 X167.175 Y91.17 E18.36519
G1 X167.324 Y91.628 E18.38281
G1 X168.244 Y94.794 E18.50343
G1 X168.364 Y95.262 E18.52111
G1 X169.084 Y98.48 E18.64175
G1 X169.175 Y98.956 E18.65948
G1 X169.691 Y102.214 E18.78016
G1 X169.752 Y102.695 E18.7979
G1 X170.062 Y105.979 E18.91859
G1 X170.092 Y106.46 E18.93622
G1 X170.196 Y109.756 E19.05687
G1 X170.196 Y110.242 E19.07465
G1 X170.092 Y113.539 E19.19533
G1 X170.062 Y114.02 E19.21296
G1 X169.752 Y117.304 E19.33365
G1 X169.691 Y117.785 E19.35139
G1 X169.175 Y121.043 E19.47207
G1 X169.084 Y121.519 E19.4898
G1 X168.364 Y124.738 E19.61048
G1 X168.244 Y125.206 E19.62816
G1 X167.324 Y128.371 E19.74875
G1 X167.175 Y128.828 E19.76633
G1 X166.058 Y131.933 E19.88706
G1 X165.879 Y132.386 E19.90488
G1 X164.569 Y135.412 E20.02552
G1 X164.365 Y135.846 E20.04306
G1 X162.869 Y138.785 E20.16372
G1 X162.634 Y139.213 E20.18158
G1 X160.954 Y142.052 E20.30227
G1 X160.695 Y142.459 E20.31992
G1 X158.841 Y145.187 E20.4406
G1 X158.558 Y145.578 E20.45826
G1 X156.537 Y148.184 E20.57891
G1 X156.229 Y148.556 E20.59658
G1 X154.049 Y151.03 E20.71722
G1 X153.717 Y151.384 E20.73498
G1 X151.385 Y153.716 E20.85564
G1 X151.031 Y154.048 E20.87339
G1 X148.557 Y156.228 E20.99403
G1 X148.185 Y156.536 E21.0117
G1 X145.579 Y158.557 E21.13236
G1 X145.189 Y158.84 E21.14999
G1 X142.46 Y160.695 E21.27071
G1 X142.052 Y160.954 E21.28839
G1 X139.214 Y162.633 E21.40904
G1 X138.787 Y162.868 E21.42687
G1 X135.847 Y164.365 E21.54757
G1 X135.412 Y164.569 E21.56515
G1 X132.386 Y165.879 E21.68579
G1 X131.933 Y166.058 E21.70361
G1 X128.828 Y167.175 E21.82434
G1 X128.371 Y167.324 E21.84192
G1 X125.206 Y168.244 E21.96251
G1 X124.738 Y168.364 E21.98019
G1 X121.519 Y169.084 E22.10087
G1 X121.043 Y169.175 E22.1186
G1 X117.785 Y169.691 E22.23928
G1 X117.304 Y169.752 E22.25702
G1 X114.02 Y170.062 E22.3777
G1 X113.539 Y170.092 E22.39534
G1 X110.243 Y170.196 E22.51598
G1 X109.757 Y170.196 E22.53377
G1 X106.461 Y170.092 E22.65441
G1 X105.98 Y170.062 E22.67205
G1 X102.696 Y169.752 E22.79273
G1 X102.216 Y169.691 E22.81043
G1 X98.957 Y169.175 E22.93115
G1 X98.481 Y169.085 E22.94887
G1 X95.264 Y168.366 E23.06948
G1 X94.795 Y168.245 E23.0872
G1 X91.629 Y167.325 E23.20782
G1 X91.169 Y167.176 E23.22551
G1 X88.064 Y166.058 E23.34625
G1 X87.614 Y165.879 E23.36397
G1 X84.588 Y164.569 E23.48461
G1 X84.153 Y164.365 E23.50218
G1 X81.213 Y162.868 E23.62289
G1 X80.786 Y162.633 E23.64072
G1 X77.948 Y160.954 E23.76136
G1 X77.54 Y160.695 E23.77904
G1 X74.811 Y158.84 E23.89977
G1 X74.421 Y158.557 E23.9174
G1 X71.815 Y156.536 E24.03805
G1 X71.443 Y156.228 E24.05572
G1 X68.969 Y154.048 E24.17636
G1 X68.615 Y153.716 E24.19412
G1 X66.283 Y151.384 E24.31478
G1 X65.951 Y151.03 E24.33253
G1 X63.771 Y148.556 E24.45318
G1 X63.463 Y148.184 E24.47084
G1 X61.442 Y145.578 E24.5915
G1 X61.159 Y145.187 E24.60916
G1 X59.305 Y142.459 E24.72983
G1 X59.046 Y142.052 E24.74748
G1 X57.366 Y139.213 E24.86818
G1 X57.131 Y138.785 E24.88604
G1 X55.635 Y135.846 E25.00669
G1 X55.431 Y135.412 E25.02424
G1 X54.121 Y132.386 E25.14488
G1 X53.942 Y131.933 E25.1627
G1 X52.825 Y128.828 E25.28343
G1 X52.676 Y128.371 E25.30101
G1 X51.756 Y125.206 E25.4216
G1 X51.636 Y124.738 E25.43928
G1 X50.916 Y121.519 E25.55996
G1 X50.825 Y121.043 E25.57769
G1 X50.309 Y117.785 E25.69837
G1 X50.248 Y117.304 E25.71611
G1 X49.938 Y114.02 E25.83679
G1 X49.908 Y113.539 E25.85443
G1 X49.804 Y110.244 E25.97504
G1 X49.804 Y109.758 E25.99282
G1 X49.908 Y106.461 E26.1135
G1 X49.938 Y105.98 E26.13113
G1 X50.248 Y102.696 E26.25182
G1 X50.309 Y102.215 E26.26956
G1 X50.825 Y98.957 E26.39024
G1 X50.916 Y98.481 E26.40797
G1 X51.636 Y95.262 E26.52865
G1 X51.756 Y94.794 E26.54633
G1 X52.676 Y91.629 E26.66691
G1 X52.825 Y91.172 E26.6845
G1 X53.942 Y88.067 E26.80523
G1 X54.121 Y87.614 E26.82305
G1 X55.431 Y84.588 E26.94369
G1 X55.635 Y84.154 E26.96123
G1 X57.131 Y81.215 E27.08189
G1 X57.366 Y80.787 E27.09975
G1 X59.046 Y77.948 E27.22044
G1 X59.305 Y77.541 E27.23809
G1 X61.159 Y74.813 E27.35877
G1 X61.442 Y74.422 E27.37643
G1 X63.463 Y71.816 E27.49708
G1 X63.771 Y71.444 E27.51475
G1 X65.951 Y68.97 E27.63539
G1 X66.283 Y68.616 E27.65315
G1 X68.615 Y66.284 E27.77381
G0 F6000 X68.926 Y66.595
G1 F1200 X69.26 Y66.282 E27.79055
G1 X71.735 Y64.101 E27.91125
G1 X72.086 Y63.811 E27.9279
G1 X74.691 Y61.791 E28.04851
G1 X75.059 Y61.524 E28.06514
G1 X77.788 Y59.669 E28.18587
G1 X78.172 Y59.425 E28.20251
G1 X81.01 Y57.746 E28.32315
G1 X81.413 Y57.524 E28.33999
G1 X84.353 Y56.027 E28.46069
G1 X84.763 Y55.835 E28.47726
G1 X87.789 Y54.525 E28.59789
G1 X88.215 Y54.356 E28.61466
G1 X91.32 Y53.239 E28.73539
G1 X91.752 Y53.099 E28.752
G1 X94.917 Y52.179 E28.87259
G1 X95.358 Y52.065 E28.88926
G1 X98.577 Y51.345 E29.00994
G1 X99.026 Y51.259 E29.02666
G1 X102.284 Y50.743 E29.14735
G1 X102.738 Y50.686 E29.16409
G1 X106.022 Y50.376 E29.28477
G1 X106.475 Y50.348 E29.30138
G1 X109.771 Y50.244 E29.42202
G1 X110.229 Y50.244 E29.43878
G1 X113.525 Y50.348 E29.55943
G1 X113.978 Y50.376 E29.57603
G1 X117.262 Y50.686 E29.69672
G1 X117.715 Y50.743 E29.71342
G1 X120.974 Y51.259 E29.83414
G1 X121.423 Y51.345 E29.85087
G1 X124.64 Y52.064 E29.97147
G1 X125.082 Y52.177 E29.98816
G1 X128.248 Y53.097 E30.10878
G1 X128.681 Y53.238 E30.12544
G1 X131.786 Y54.356 E30.24618
G1 X132.211 Y54.525 E30.26291
G1 X135.237 Y55.835 E30.38355
G1 X135.647 Y56.027 E30.40012
G1 X138.587 Y57.524 E30.52082
G1 X138.99 Y57.746 E30.53765
G1 X141.828 Y59.425 E30.6583
G1 X142.212 Y59.668 E30.67492
G1 X144.94 Y61.522 E30.7956
G1 X145.308 Y61.79 E30.81225
G1 X147.914 Y63.811 E30.93291
G1 X148.265 Y64.101 E30.94957
G1 X150.739 Y66.281 E31.07021
G1 X151.073 Y66.594 E31.08695
G1 X153.405 Y68.926 E31.20761
G1 X153.718 Y69.26 E31.22436
G1 X155.898 Y71.734 E31.345
G1 X156.188 Y72.085 E31.36166
G1 X158.209 Y74.691 E31.48231
G1 X158.476 Y75.059 E31.49895
G1 X160.331 Y77.788 E31.61967
G1 X160.575 Y78.172 E31.63632
G1 X162.254 Y81.01 E31.75696
G1 X162.476 Y81.413 E31.77379
G1 X163.973 Y84.353 E31.8945
G1 X164.165 Y84.763 E31.91106
G1 X165.475 Y87.789 E32.0317
G1 X165.644 Y88.215 E32.04847
G1 X166.761 Y91.319 E32.16916
G1 X166.902 Y91.751 E32.18578
G1 X167.822 Y94.917 E32.30641
G1 X167.935 Y95.358 E32.32306
G1 X168.655 Y98.576 E32.44371
G1 X168.741 Y99.025 E32.46043
G1 X169.257 Y102.283 E32.58112
G1 X169.314 Y102.737 E32.59786
G1 X169.624 Y106.021 E32.71854
G1 X169.652 Y106.474 E32.73515
G1 X169.756 Y109.77 E32.85579
G1 X169.756 Y110.228 E32.87255
G1 X169.652 Y113.525 E32.99324
G1 X169.624 Y113.978 E33.00984
G1 X169.314 Y117.262 E33.13052
G1 X169.257 Y117.716 E33.14726
G1 X168.741 Y120.974 E33.26795
G1 X168.655 Y121.423 E33.28467
G1 X167.935 Y124.642 E33.40535
G1 X167.821 Y125.083 E33.42202
G1 X166.901 Y128.248 E33.54261
G1 X166.761 Y128.68 E33.55922
G1 X165.644 Y131.785 E33.67995
G1 X165.475 Y132.211 E33.69672
G1 X164.165 Y135.237 E33.81735
G1 X163.973 Y135.646 E33.83389
G1 X162.477 Y138.585 E33.95454
G1 X162.255 Y138.989 E33.97141
G1 X160.575 Y141.828 E34.0921
G1 X160.332 Y142.212 E34.10872
G1 X158.478 Y144.94 E34.2294
G1 X158.21 Y145.308 E34.24605
G1 X156.189 Y147.914 E34.36671
G1 X155.899 Y148.265 E34.38337
G1 X153.719 Y150.739 E34.50401
G1 X153.406 Y151.073 E34.52075
G1 X151.074 Y153.405 E34.64141
G1 X150.74 Y153.718 E34.65816
G1 X148.266 Y155.898 E34.7788
G1 X147.915 Y156.188 E34.79546
G1 X145.309 Y158.209 E34.91611
