;FLAVOR:Marlin
;TIME:4936
;Filament used: 3.97244m
;Layer height: 0.16
;MINX:62.364
;MINY:62.364
;MINZ:0.2
;MAXX:157.636
;MAXY:157.636
;MAXZ:7
;Generated with Cura_SteamEngine 4.2.1
M140 S60
M105
M190 S60
M104 S200
M105
M109 S200
M82 ;absolute extrusion mode
M201 X500.00 Y500.00 Z100.00 E5000.00 ;Setup machine max acceleration
M203 X500.00 Y500.00 Z10.00 E50.00 ;Setup machine max feedrate
M204 P500.00 R1000.00 T500.00 ;Setup Print/Retract/Travel acceleration
M205 X8.00 Y8.00 Z0.40 E5.00 ;Setup Jerk
M220 S100 ;Reset Feedrate
M221 S100 ;Reset Flowrate

G28 ;Home

G92 E0 ;Reset Extruder
G1 Z2.0 F3000 ;Move Z Axis up
G1 X10.1 Y20 Z0.28 F5000.0 ;Move to start position
G1 X10.1 Y200.0 Z0.28 F1500.0 E15 ;Draw the first line
G1 X10.4 Y200.0 Z0.28 F5000.0 ;Move to side a little
G1 X10.4 Y20 Z0.28 F1500.0 E30 ;Draw the second line
G92 E0 ;Reset Extruder
G1 Z2.0 F3000 ;Move Z Axis up

G92 E0
G92 E0
G1 F2700 E-5
;LAYER_COUNT:36
;LAYER:0
M107
G0 F6000 X77.203 Y75.45 Z0.2
;TYPE:SKIRT
G1 F2700 E0
G1 F1200 X77.579 Y75.098 E0.01884
G1 X79.441 Y73.458 E0.10962
G1 X79.831 Y73.135 E0.12815
G1 X81.791 Y71.614 E0.21892
G1 X82.183 Y71.328 E0.23667
G1 X82.389 Y71.187 E0.2458
G1 X82.414 Y71.17 E0.24691
G1 X84.262 Y69.915 E0.32864
G1 X84.691 Y69.643 E0.34722
G1 X86.826 Y68.38 E0.43798
G1 X87.275 Y68.133 E0.45673
G1 X89.487 Y67.006 E0.54755
G1 X89.95 Y66.788 E0.56628
G1 X92.227 Y65.803 E0.65705
G1 X92.702 Y65.615 E0.67574
G1 X95.038 Y64.774 E0.76657
G1 X95.526 Y64.616 E0.78534
G1 X97.907 Y63.925 E0.87604
G1 X98.398 Y63.798 E0.8946
G1 X100.82 Y63.256 E0.9854
G1 X101.325 Y63.16 E1.00421
G1 X103.776 Y62.772 E1.095
G1 X104.282 Y62.708 E1.11366
G1 X106.754 Y62.474 E1.2045
G1 X107.265 Y62.442 E1.22323
G1 X109.744 Y62.364 E1.31398
G1 X110.256 Y62.364 E1.33271
G1 X112.735 Y62.442 E1.42345
G1 X113.246 Y62.474 E1.44218
G1 X115.718 Y62.708 E1.53303
G1 X116.224 Y62.772 E1.55169
G1 X118.675 Y63.16 E1.64248
G1 X119.18 Y63.256 E1.66128
G1 X121.602 Y63.798 E1.75209
G1 X122.093 Y63.925 E1.77064
G1 X124.474 Y64.616 E1.86135
G1 X124.962 Y64.774 E1.88012
G1 X127.298 Y65.615 E1.97095
G1 X127.773 Y65.803 E1.98964
G1 X130.05 Y66.788 E2.08041
G1 X130.513 Y67.006 E2.09913
G1 X132.725 Y68.133 E2.18996
G1 X133.174 Y68.38 E2.20871
G1 X135.309 Y69.643 E2.29946
G1 X135.756 Y69.927 E2.31884
G1 X135.943 Y70.055 E2.32713
G1 X137.791 Y71.31 E2.40886
G1 X138.208 Y71.613 E2.42772
G1 X140.168 Y73.134 E2.51848
G1 X140.558 Y73.457 E2.53701
G1 X142.42 Y75.097 E2.62779
G1 X142.796 Y75.449 E2.64663
G1 X144.55 Y77.203 E2.73739
G1 X144.902 Y77.579 E2.75623
G1 X146.542 Y79.441 E2.84701
G1 X146.865 Y79.831 E2.86554
G1 X148.386 Y81.791 E2.95631
G1 X148.687 Y82.205 E2.97503
G1 X150.083 Y84.259 E3.06589
G1 X150.357 Y84.691 E3.08461
G1 X151.62 Y86.826 E3.17537
G1 X151.867 Y87.275 E3.19411
G1 X152.994 Y89.487 E3.28494
G1 X153.212 Y89.95 E3.30366
G1 X154.197 Y92.227 E3.39443
G1 X154.384 Y92.701 E3.41307
G1 X155.225 Y95.036 E3.50388
G1 X155.385 Y95.526 E3.52273
G1 X156.076 Y97.908 E3.61347
G1 X156.201 Y98.398 E3.63198
G1 X156.743 Y100.819 E3.72274
G1 X156.84 Y101.324 E3.74156
G1 X157.228 Y103.775 E3.83235
G1 X157.292 Y104.281 E3.85101
G1 X157.526 Y106.753 E3.94185
G1 X157.558 Y107.264 E3.96058
G1 X157.636 Y109.743 E4.05133
G1 X157.636 Y110.255 E4.07006
G1 X157.558 Y112.735 E4.16084
G1 X157.526 Y113.246 E4.17957
G1 X157.292 Y115.718 E4.27041
G1 X157.228 Y116.224 E4.28907
G1 X156.84 Y118.675 E4.37986
G1 X156.744 Y119.18 E4.39867
G1 X156.202 Y121.602 E4.48947
G1 X156.075 Y122.093 E4.50803
G1 X155.384 Y124.474 E4.59873
G1 X155.226 Y124.962 E4.6175
G1 X154.385 Y127.298 E4.70834
G1 X154.197 Y127.773 E4.72703
G1 X153.212 Y130.05 E4.81779
G1 X152.995 Y130.512 E4.83647
G1 X151.869 Y132.723 E4.92725
G1 X151.62 Y133.174 E4.94609
G1 X150.356 Y135.31 E5.0369
G1 X150.084 Y135.74 E5.05552
G1 X148.689 Y137.793 E5.14633
G1 X148.387 Y138.208 E5.1651
G1 X146.866 Y140.168 E5.25587
G1 X146.543 Y140.558 E5.2744
G1 X144.903 Y142.42 E5.36518
G1 X144.551 Y142.796 E5.38402
G1 X142.797 Y144.55 E5.47478
G1 X142.421 Y144.902 E5.49362
G1 X140.559 Y146.542 E5.5844
G1 X140.169 Y146.865 E5.60293
G1 X138.209 Y148.386 E5.69369
G1 X137.817 Y148.672 E5.71145
G1 X137.611 Y148.813 E5.72058
G1 X137.586 Y148.83 E5.72169
G1 X135.738 Y150.085 E5.80341
G1 X135.309 Y150.357 E5.822
G1 X133.174 Y151.62 E5.91275
G1 X132.725 Y151.867 E5.9315
G1 X130.513 Y152.994 E6.02233
G1 X130.05 Y153.212 E6.04105
G1 X127.773 Y154.197 E6.13182
G1 X127.298 Y154.385 E6.15051
G1 X124.962 Y155.226 E6.24135
G1 X124.474 Y155.384 E6.26011
G1 X122.093 Y156.075 E6.35082
G1 X121.602 Y156.202 E6.36937
G1 X119.18 Y156.744 E6.46018
G1 X118.675 Y156.84 E6.47898
G1 X116.224 Y157.228 E6.56977
G1 X115.718 Y157.292 E6.58843
G1 X113.246 Y157.526 E6.67928
G1 X112.735 Y157.558 E6.69801
G1 X110.256 Y157.636 E6.78875
G1 X109.744 Y157.636 E6.80748
G1 X107.265 Y157.558 E6.89823
G1 X106.754 Y157.526 E6.91696
G1 X104.282 Y157.292 E7.0078
G1 X103.776 Y157.228 E7.02646
G1 X101.325 Y156.84 E7.11725
G1 X100.82 Y156.744 E7.13606
G1 X98.398 Y156.202 E7.22686
G1 X97.907 Y156.075 E7.24542
G1 X95.526 Y155.384 E7.33612
G1 X95.038 Y155.226 E7.35489
G1 X92.702 Y154.385 E7.44573
G1 X92.227 Y154.197 E7.46442
G1 X89.95 Y153.212 E7.55518
G1 X89.487 Y152.994 E7.57391
G1 X87.275 Y151.867 E7.66473
G1 X86.826 Y151.62 E7.68348
G1 X84.691 Y150.357 E7.77424
G1 X84.244 Y150.073 E7.79361
G1 X84.039 Y149.933 E7.8027
G1 X82.207 Y148.688 E7.88373
G1 X81.791 Y148.386 E7.90254
G1 X79.831 Y146.865 E7.99331
G1 X79.441 Y146.542 E8.01184
G1 X77.579 Y144.902 E8.10262
G1 X77.203 Y144.55 E8.12146
G1 X75.449 Y142.796 E8.21221
G1 X75.097 Y142.42 E8.23106
G1 X73.457 Y140.558 E8.32184
G1 X73.134 Y140.168 E8.34036
G1 X71.613 Y138.208 E8.43113
G1 X71.311 Y137.793 E8.44991
G1 X69.916 Y135.74 E8.54072
G1 X69.644 Y135.31 E8.55934
G1 X68.38 Y133.174 E8.65014
G1 X68.131 Y132.723 E8.66899
G1 X67.005 Y130.512 E8.75977
G1 X66.788 Y130.05 E8.77844
G1 X65.803 Y127.773 E8.86921
G1 X65.615 Y127.298 E8.8879
G1 X64.774 Y124.962 E8.97873
G1 X64.616 Y124.474 E8.9975
G1 X63.925 Y122.093 E9.08821
G1 X63.798 Y121.602 E9.10676
G1 X63.256 Y119.18 E9.19756
G1 X63.16 Y118.675 E9.21637
G1 X62.772 Y116.224 E9.30716
G1 X62.708 Y115.718 E9.32582
G1 X62.474 Y113.246 E9.41667
G1 X62.442 Y112.735 E9.4354
G1 X62.364 Y110.257 E9.5261
G1 X62.364 Y109.745 E9.54484
G1 X62.442 Y107.265 E9.63561
G1 X62.474 Y106.754 E9.65435
G1 X62.708 Y104.282 E9.74519
G1 X62.772 Y103.776 E9.76385
G1 X63.16 Y101.325 E9.85464
G1 X63.256 Y100.82 E9.87345
G1 X63.798 Y98.398 E9.96425
G1 X63.925 Y97.907 E9.98281
G1 X64.616 Y95.526 E10.07351
G1 X64.774 Y95.038 E10.09228
G1 X65.615 Y92.702 E10.18311
G1 X65.803 Y92.227 E10.2018
G1 X66.788 Y89.95 E10.29257
G1 X67.005 Y89.488 E10.31125
G1 X68.131 Y87.277 E10.40202
G1 X68.38 Y86.826 E10.42087
G1 X69.644 Y84.69 E10.51168
G1 X69.916 Y84.26 E10.53029
G1 X71.311 Y82.207 E10.6211
G1 X71.613 Y81.792 E10.63988
G1 X73.134 Y79.832 E10.73065
G1 X73.457 Y79.442 E10.74918
G1 X75.097 Y77.58 E10.83996
G1 X75.449 Y77.204 E10.8588
G1 X77.203 Y75.45 E10.94955
G0 F6000 X77.514 Y75.761
G1 F1200 X77.87 Y75.428 E10.96739
G1 X79.732 Y73.788 E11.05817
G1 X80.1 Y73.483 E11.07565
G1 X82.06 Y71.962 E11.16642
G1 X82.432 Y71.691 E11.18326
G1 X82.638 Y71.55 E11.19239
G1 X82.661 Y71.534 E11.19342
G1 X84.509 Y70.279 E11.27515
G1 X84.915 Y70.022 E11.29273
G1 X87.05 Y68.759 E11.38348
G1 X87.474 Y68.525 E11.4012
G1 X89.686 Y67.398 E11.49203
G1 X90.125 Y67.192 E11.50977
G1 X92.402 Y66.207 E11.60054
G1 X92.851 Y66.029 E11.61821
G1 X95.187 Y65.188 E11.70904
G1 X95.649 Y65.038 E11.72681
G1 X98.03 Y64.347 E11.81752
G1 X98.494 Y64.228 E11.83505
G1 X100.916 Y63.686 E11.92585
G1 X101.394 Y63.595 E11.94365
G1 X103.845 Y63.207 E12.03444
G1 X104.323 Y63.146 E12.05207
G1 X106.795 Y62.912 E12.14292
G1 X107.279 Y62.882 E12.16066
G1 X109.758 Y62.804 E12.2514
G1 X110.242 Y62.804 E12.26911
G1 X112.721 Y62.882 E12.35985
G1 X113.205 Y62.912 E12.37759
G1 X115.677 Y63.146 E12.46844
G1 X116.155 Y63.207 E12.48607
G1 X118.606 Y63.595 E12.57685
G1 X119.084 Y63.686 E12.59466
G1 X121.506 Y64.228 E12.68546
G1 X121.97 Y64.347 E12.70299
G1 X124.351 Y65.038 E12.79369
G1 X124.813 Y65.188 E12.81146
G1 X127.149 Y66.029 E12.9023
G1 X127.598 Y66.207 E12.91997
G1 X129.875 Y67.192 E13.01074
G1 X130.314 Y67.398 E13.02848
G1 X132.526 Y68.525 E13.11931
G1 X132.95 Y68.759 E13.13702
G1 X135.085 Y70.022 E13.22778
G1 X135.508 Y70.29 E13.2461
G1 X135.713 Y70.43 E13.25518
G1 X137.544 Y71.674 E13.33617
G1 X137.939 Y71.961 E13.35403
G1 X139.899 Y73.482 E13.4448
G1 X140.267 Y73.787 E13.46229
G1 X142.129 Y75.427 E13.55307
G1 X142.485 Y75.76 E13.5709
G1 X144.239 Y77.514 E13.66166
G1 X144.572 Y77.87 E13.67949
G1 X146.212 Y79.732 E13.77027
G1 X146.517 Y80.1 E13.78776
G1 X148.038 Y82.06 E13.87852
G1 X148.323 Y82.453 E13.89629
G1 X149.719 Y84.507 E13.98715
G1 X149.978 Y84.915 E14.00483
G1 X151.241 Y87.05 E14.09558
G1 X151.475 Y87.474 E14.1133
G1 X152.602 Y89.686 E14.20413
G1 X152.808 Y90.125 E14.22187
G1 X153.793 Y92.402 E14.31264
G1 X153.97 Y92.85 E14.33026
G1 X154.811 Y95.185 E14.42106
G1 X154.962 Y95.649 E14.43891
G1 X155.653 Y98.031 E14.52966
G1 X155.772 Y98.494 E14.54715
G1 X156.314 Y100.915 E14.63791
G1 X156.405 Y101.393 E14.65571
G1 X156.793 Y103.844 E14.7465
G1 X156.854 Y104.322 E14.76413
G1 X157.088 Y106.794 E14.85498
G1 X157.118 Y107.278 E14.87272
G1 X157.196 Y109.757 E14.96346
G1 X157.196 Y110.241 E14.98117
G1 X157.118 Y112.721 E15.07195
G1 X157.088 Y113.205 E15.08969
G1 X156.854 Y115.677 E15.18054
G1 X156.793 Y116.155 E15.19817
G1 X156.405 Y118.606 E15.28896
G1 X156.314 Y119.084 E15.30676
G1 X155.772 Y121.506 E15.39756
G1 X155.653 Y121.97 E15.41509
G1 X154.962 Y124.351 E15.50579
G1 X154.812 Y124.813 E15.52356
G1 X153.971 Y127.149 E15.6144
G1 X153.793 Y127.598 E15.63207
G1 X152.808 Y129.875 E15.72284
G1 X152.602 Y130.312 E15.74051
G1 X151.476 Y132.523 E15.83129
G1 X151.242 Y132.95 E15.8491
G1 X149.978 Y135.086 E15.93991
G1 X149.72 Y135.493 E15.95754
G1 X148.325 Y137.546 E16.04835
G1 X148.039 Y137.939 E16.06613
G1 X146.518 Y139.899 E16.1569
G1 X146.213 Y140.267 E16.17439
G1 X144.573 Y142.129 E16.26517
G1 X144.24 Y142.485 E16.283
G1 X142.486 Y144.239 E16.37376
G1 X142.13 Y144.572 E16.39159
G1 X140.268 Y146.212 E16.48237
G1 X139.9 Y146.517 E16.49986
G1 X137.94 Y148.038 E16.59063
G1 X137.568 Y148.309 E16.60746
G1 X137.362 Y148.45 E16.6166
G1 X137.339 Y148.466 E16.61762
G1 X135.491 Y149.721 E16.69935
G1 X135.085 Y149.978 E16.71693
G1 X132.95 Y151.241 E16.80769
G1 X132.526 Y151.475 E16.8254
G1 X130.314 Y152.602 E16.91623
G1 X129.875 Y152.808 E16.93397
G1 X127.598 Y153.793 E17.02474
G1 X127.149 Y153.971 E17.04241
G1 X124.813 Y154.812 E17.13325
G1 X124.351 Y154.962 E17.15102
G1 X121.97 Y155.653 E17.24172
G1 X121.506 Y155.772 E17.25925
G1 X119.084 Y156.314 E17.35005
G1 X118.606 Y156.405 E17.36785
G1 X116.155 Y156.793 E17.45864
G1 X115.677 Y156.854 E17.47627
G1 X113.205 Y157.088 E17.56712
G1 X112.721 Y157.118 E17.58486
G1 X110.242 Y157.196 E17.6756
G1 X109.758 Y157.196 E17.69331
G1 X107.279 Y157.118 E17.78405
G1 X106.795 Y157.088 E17.80179
G1 X104.323 Y156.854 E17.89264
G1 X103.845 Y156.793 E17.91027
G1 X101.394 Y156.405 E18.00106
G1 X100.916 Y156.314 E18.01886
G1 X98.494 Y155.772 E18.10966
G1 X98.03 Y155.653 E18.12719
G1 X95.649 Y154.962 E18.2179
G1 X95.187 Y154.812 E18.23567
G1 X92.851 Y153.971 E18.3265
G1 X92.402 Y153.793 E18.34417
G1 X90.125 Y152.808 E18.43494
G1 X89.686 Y152.602 E18.45268
G1 X87.474 Y151.475 E18.54351
G1 X87.05 Y151.241 E18.56123
G1 X84.915 Y149.978 E18.65198
G1 X84.492 Y149.71 E18.6703
G1 X84.287 Y149.57 E18.67939
G1 X84.287 Y149.569 E18.67942
G1 X82.454 Y148.324 E18.76049
G1 X82.06 Y148.038 E18.7783
G1 X80.1 Y146.517 E18.86907
G1 X79.732 Y146.212 E18.88656
G1 X77.87 Y144.572 E18.97734
G1 X77.514 Y144.239 E18.99517
G1 X75.76 Y142.485 E19.08593
G1 X75.427 Y142.129 E19.10376
G1 X73.787 Y140.267 E19.19454
G1 X73.482 Y139.899 E19.21203
G1 X71.961 Y137.939 E19.30279
G1 X71.675 Y137.546 E19.32058
G1 X70.28 Y135.493 E19.41139
G1 X70.022 Y135.086 E19.42902
G1 X68.758 Y132.95 E19.51982
G1 X68.524 Y132.523 E19.53764
G1 X67.398 Y130.312 E19.62842
G1 X67.192 Y129.875 E19.64609
G1 X66.207 Y127.598 E19.73686
G1 X66.029 Y127.149 E19.75453
G1 X65.188 Y124.813 E19.84537
G1 X65.038 Y124.351 E19.86314
G1 X64.347 Y121.97 E19.95384
G1 X64.228 Y121.506 E19.97137
G1 X63.686 Y119.084 E20.06217
G1 X63.595 Y118.606 E20.07997
G1 X63.207 Y116.155 E20.17076
G1 X63.146 Y115.677 E20.18839
G1 X62.912 Y113.205 E20.27924
G1 X62.882 Y112.721 E20.29698
G1 X62.804 Y110.243 E20.38768
G1 X62.804 Y109.759 E20.40539
G1 X62.882 Y107.279 E20.49617
G1 X62.912 Y106.795 E20.51391
G1 X63.146 Y104.323 E20.60476
G1 X63.207 Y103.845 E20.62239
G1 X63.595 Y101.394 E20.71318
G1 X63.686 Y100.916 E20.73098
G1 X64.228 Y98.494 E20.82178
G1 X64.347 Y98.03 E20.83931
G1 X65.038 Y95.649 E20.93001
G1 X65.188 Y95.187 E20.94779
G1 X66.029 Y92.851 E21.03862
G1 X66.207 Y92.402 E21.05629
G1 X67.192 Y90.125 E21.14706
G1 X67.398 Y89.688 E21.16473
G1 X68.524 Y87.477 E21.25551
G1 X68.758 Y87.05 E21.27333
G1 X70.022 Y84.914 E21.36413
G1 X70.28 Y84.507 E21.38176
G1 X71.675 Y82.454 E21.47257
G1 X71.961 Y82.061 E21.49036
G1 X73.482 Y80.101 E21.58112
G1 X73.787 Y79.733 E21.59861
G1 X75.427 Y77.871 E21.68939
G1 X75.76 Y77.515 E21.70723
G1 X77.514 Y75.761 E21.79798
G0 F6000 X77.825 Y76.072
G1 F1200 X78.16 Y75.758 E21.81478
G1 X80.022 Y74.118 E21.90556
G1 X80.37 Y73.83 E21.92208
G1 X82.33 Y72.309 E22.01285
G1 X82.68 Y72.054 E22.02869
G1 X82.886 Y71.913 E22.03783
G1 X82.908 Y71.898 E22.0388
G1 X84.756 Y70.643 E22.12053
G1 X85.139 Y70.4 E22.13712
G1 X87.274 Y69.137 E22.22788
G1 X87.674 Y68.917 E22.24458
G1 X89.886 Y67.79 E22.33541
G1 X90.3 Y67.596 E22.35214
G1 X92.577 Y66.611 E22.4429
G1 X93 Y66.443 E22.45956
G1 X95.336 Y65.602 E22.55039
G1 X95.772 Y65.461 E22.56716
G1 X98.153 Y64.77 E22.65786
G1 X98.591 Y64.657 E22.67441
G1 X101.013 Y64.115 E22.76521
G1 X101.463 Y64.029 E22.78198
G1 X103.914 Y63.641 E22.87277
G1 X104.365 Y63.584 E22.8894
G1 X106.837 Y63.35 E22.98024
G1 X107.293 Y63.322 E22.99696
G1 X109.772 Y63.244 E23.0877
G1 X110.228 Y63.244 E23.10438
G1 X112.707 Y63.322 E23.19512
G1 X113.163 Y63.35 E23.21184
G1 X115.635 Y63.584 E23.30268
G1 X116.086 Y63.641 E23.31932
G1 X118.537 Y64.029 E23.41011
G1 X118.987 Y64.115 E23.42687
G1 X121.409 Y64.657 E23.51767
G1 X121.847 Y64.77 E23.53422
G1 X124.228 Y65.461 E23.62493
G1 X124.664 Y65.602 E23.64169
G1 X127 Y66.443 E23.73253
G1 X127.423 Y66.611 E23.74918
G1 X129.7 Y67.596 E23.83994
G1 X130.114 Y67.79 E23.85667
G1 X132.326 Y68.917 E23.9475
G1 X132.726 Y69.137 E23.9642
G1 X134.861 Y70.4 E24.05496
G1 X135.259 Y70.654 E24.07223
G1 X135.449 Y70.784 E24.08065
G1 X135.449 Y70.783 E24.08069
G1 X137.297 Y72.038 E24.16242
G1 X137.669 Y72.308 E24.17924
G1 X139.629 Y73.829 E24.27
G1 X139.977 Y74.117 E24.28653
G1 X141.839 Y75.757 E24.37731
G1 X142.174 Y76.071 E24.39411
G1 X143.928 Y77.825 E24.48486
G1 X144.242 Y78.16 E24.50166
G1 X145.882 Y80.022 E24.59244
G1 X146.17 Y80.37 E24.60897
G1 X147.691 Y82.33 E24.69973
G1 X147.959 Y82.7 E24.71645
G1 X149.355 Y84.754 E24.80731
G1 X149.6 Y85.139 E24.82401
G1 X150.863 Y87.274 E24.91476
G1 X151.083 Y87.674 E24.93146
G1 X152.21 Y89.886 E25.02229
G1 X152.404 Y90.3 E25.03902
G1 X153.389 Y92.577 E25.12979
G1 X153.556 Y92.999 E25.14639
G1 X154.397 Y95.334 E25.23719
G1 X154.54 Y95.771 E25.25401
G1 X155.231 Y98.153 E25.34475
G1 X155.343 Y98.59 E25.36126
G1 X155.885 Y101.011 E25.45203
G1 X155.971 Y101.462 E25.46882
G1 X156.359 Y103.913 E25.55961
G1 X156.416 Y104.364 E25.57625
G1 X156.65 Y106.836 E25.66709
G1 X156.678 Y107.292 E25.6838
G1 X156.756 Y109.771 E25.77455
G1 X156.756 Y110.227 E25.79123
G1 X156.678 Y112.707 E25.88201
G1 X156.65 Y113.163 E25.89872
G1 X156.416 Y115.635 E25.98957
G1 X156.359 Y116.086 E26.0062
G1 X155.971 Y118.537 E26.09699
G1 X155.885 Y118.987 E26.11375
G1 X155.343 Y121.409 E26.20455
G1 X155.23 Y121.847 E26.2211
G1 X154.539 Y124.228 E26.31181
G1 X154.398 Y124.664 E26.32857
G1 X153.557 Y127 E26.41941
G1 X153.389 Y127.423 E26.43606
G1 X152.404 Y129.7 E26.52683
G1 X152.21 Y130.113 E26.54352
G1 X151.084 Y132.324 E26.6343
G1 X150.863 Y132.726 E26.65108
