;FLAVOR:Marlin
;TIME:1604
;Filament used: 0.55965m
;Layer height: 0.16
;MINX:97.11
;MINY:97.11
;MINZ:0.2
;MAXX:122.89
;MAXY:122.89
;MAXZ:19.4
;Generated with Cura_SteamEngine 4.2.1
M140 S60
M105
M190 S60
M104 S200
M105
M109 S200
M82 ;absolute extrusion mode
M201 X500.00 Y500.00 Z100.00 E5000.00 ;Setup machine max acceleration
M203 X500.00 Y500.00 Z10.00 E50.00 ;Setup machine max feedrate
M204 P500.00 R1000.00 T500.00 ;Setup Print/Retract/Travel acceleration
M205 X8.00 Y8.00 Z0.40 E5.00 ;Setup Jerk
M220 S100 ;Reset Feedrate
M221 S100 ;Reset Flowrate

G28 ;Home

G92 E0 ;Reset Extruder
G1 Z2.0 F3000 ;Move Z Axis up
G1 X10.1 Y20 Z0.28 F5000.0 ;Move to start position
G1 X10.1 Y200.0 Z0.28 F1500.0 E15 ;Draw the first line
G1 X10.4 Y200.0 Z0.28 F5000.0 ;Move to side a little
G1 X10.4 Y20 Z0.28 F1500.0 E30 ;Draw the second line
G92 E0 ;Reset Extruder
G1 Z2.0 F3000 ;Move Z Axis up

G92 E0
G92 E0
G1 F2700 E-5
;LAYER_COUNT:98
;LAYER:0
M107
G0 F6000 X99.539 Y99.45 Z0.2
;TYPE:SKIRT
G1 F2700 E0
G1 F1200 X100.141 Y98.913 E0.02951
G1 X100.794 Y98.438 E0.05906
G1 X101.49 Y98.031 E0.08856
G1 X102.223 Y97.694 E0.11807
G1 X102.986 Y97.431 E0.1476
G1 X103.771 Y97.246 E0.17711
G1 X104.57 Y97.138 E0.2066
G1 X105.25 Y97.11 E0.2315
G1 X114.75 Y97.11 E0.57907
G1 X115.556 Y97.15 E0.6086
G1 X116.354 Y97.27 E0.63812
G1 X117.136 Y97.467 E0.66762
G1 X117.894 Y97.742 E0.69713
G1 X118.622 Y98.09 E0.72665
G1 X119.312 Y98.508 E0.75616
G1 X119.957 Y98.993 E0.78569
G1 X120.55 Y99.539 E0.81518
G1 X121.087 Y100.141 E0.84469
G1 X121.562 Y100.794 E0.87424
G1 X121.969 Y101.49 E0.90373
G1 X122.306 Y102.223 E0.93325
G1 X122.569 Y102.986 E0.96278
G1 X122.754 Y103.771 E0.99228
G1 X122.862 Y104.57 E1.02178
G1 X122.89 Y105.25 E1.04668
G1 X122.89 Y114.75 E1.39425
G1 X122.85 Y115.556 E1.42377
G1 X122.73 Y116.354 E1.4533
G1 X122.533 Y117.136 E1.4828
G1 X122.258 Y117.894 E1.5123
G1 X121.91 Y118.622 E1.54183
G1 X121.492 Y119.312 E1.57134
G1 X121.007 Y119.957 E1.60087
G1 X120.461 Y120.55 E1.63036
G1 X119.859 Y121.087 E1.65987
G1 X119.206 Y121.562 E1.68941
G1 X118.51 Y121.969 E1.71891
G1 X117.777 Y122.306 E1.74843
G1 X117.014 Y122.569 E1.77796
G1 X116.229 Y122.754 E1.80746
G1 X115.43 Y122.862 E1.83696
G1 X114.75 Y122.89 E1.86186
G1 X105.25 Y122.89 E2.20943
G1 X104.444 Y122.85 E2.23895
G1 X103.646 Y122.73 E2.26848
G1 X102.864 Y122.533 E2.29798
G1 X102.106 Y122.258 E2.32748
G1 X101.378 Y121.91 E2.357
G1 X100.688 Y121.492 E2.38652
G1 X100.043 Y121.007 E2.41604
G1 X99.45 Y120.461 E2.44554
G1 X98.913 Y119.859 E2.47505
G1 X98.438 Y119.206 E2.50459
G1 X98.031 Y118.51 E2.53409
G1 X97.694 Y117.777 E2.56361
G1 X97.431 Y117.014 E2.59313
G1 X97.246 Y116.229 E2.62264
G1 X97.138 Y115.43 E2.65214
G1 X97.11 Y114.75 E2.67704
G1 X97.11 Y105.25 E3.02461
G1 X97.15 Y104.444 E3.05413
G1 X97.27 Y103.646 E3.08366
G1 X97.467 Y102.864 E3.11316
G1 X97.742 Y102.106 E3.14266
G1 X98.09 Y101.378 E3.17218
G1 X98.508 Y100.688 E3.2017
G1 X98.993 Y100.043 E3.23122
G1 X99.539 Y99.45 E3.26071
G0 F6000 X99.972 Y99.644
G1 F1200 X100.57 Y99.136 E3.28942
G1 X101.216 Y98.691 E3.31812
G1 X101.905 Y98.315 E3.34684
G1 X102.628 Y98.01 E3.37555
G1 X103.378 Y97.781 E3.40424
G1 X104.148 Y97.629 E3.43295
G1 X105.25 Y97.55 E3.47337
G1 X114.75 Y97.55 E3.82094
G1 X115.534 Y97.59 E3.84966
G1 X116.309 Y97.709 E3.87835
G1 X117.068 Y97.907 E3.90705
G1 X117.803 Y98.181 E3.93575
G1 X118.507 Y98.529 E3.96448
G1 X119.171 Y98.946 E3.99317
G1 X119.79 Y99.429 E4.02189
G1 X120.356 Y99.972 E4.05059
G1 X120.864 Y100.57 E4.07929
G1 X121.309 Y101.216 E4.10799
G1 X121.685 Y101.905 E4.13671
G1 X121.99 Y102.628 E4.16542
G1 X122.219 Y103.378 E4.19411
G1 X122.371 Y104.148 E4.22282
G1 X122.45 Y105.25 E4.26325
G1 X122.45 Y114.75 E4.61081
G1 X122.41 Y115.534 E4.63954
G1 X122.291 Y116.309 E4.66822
G1 X122.093 Y117.068 E4.69692
G1 X121.819 Y117.803 E4.72562
G1 X121.471 Y118.507 E4.75435
G1 X121.054 Y119.171 E4.78304
G1 X120.571 Y119.79 E4.81176
G1 X120.028 Y120.356 E4.84046
G1 X119.43 Y120.864 E4.86917
G1 X118.784 Y121.309 E4.89787
G1 X118.095 Y121.685 E4.92658
G1 X117.372 Y121.99 E4.95529
G1 X116.622 Y122.219 E4.98398
G1 X115.852 Y122.371 E5.0127
G1 X114.75 Y122.45 E5.05312
G1 X105.25 Y122.45 E5.40069
G1 X104.466 Y122.41 E5.42941
G1 X103.691 Y122.291 E5.45809
G1 X102.932 Y122.093 E5.48679
G1 X102.197 Y121.819 E5.51549
G1 X101.493 Y121.471 E5.54422
G1 X100.829 Y121.054 E5.57291
G1 X100.21 Y120.571 E5.60163
G1 X99.644 Y120.028 E5.63033
G1 X99.136 Y119.43 E5.65904
G1 X98.691 Y118.784 E5.68774
G1 X98.315 Y118.095 E5.71645
G1 X98.01 Y117.372 E5.74516
G1 X97.781 Y116.622 E5.77385
G1 X97.629 Y115.852 E5.80257
G1 X97.55 Y114.75 E5.84299
G1 X97.55 Y105.25 E6.19056
G1 X97.59 Y104.466 E6.21928
G1 X97.709 Y103.691 E6.24797
G1 X97.907 Y102.932 E6.27666
G1 X98.181 Y102.197 E6.30536
G1 X98.529 Y101.493 E6.33409
G1 X98.946 Y100.829 E6.36278
G1 X99.429 Y100.21 E6.39151
G1 X99.972 Y99.644 E6.4202
G0 F6000 X100.404 Y99.844
G1 F1200 X100.997 Y99.366 E6.44807
G1 X101.637 Y98.953 E6.47594
G1 X102.316 Y98.609 E6.50378
G1 X103.029 Y98.338 E6.53169
G1 X103.765 Y98.143 E6.55955
G1 X104.518 Y98.027 E6.58742
G1 X105.25 Y97.99 E6.61424
G1 X114.75 Y97.99 E6.96181
G1 X115.511 Y98.03 E6.98969
G1 X116.263 Y98.149 E7.01754
G1 X116.999 Y98.347 E7.04543
G1 X117.71 Y98.621 E7.0733
G1 X118.388 Y98.967 E7.10115
G1 X119.027 Y99.383 E7.12905
G1 X119.618 Y99.864 E7.15693
G1 X120.156 Y100.404 E7.18482
G1 X120.634 Y100.997 E7.21268
G1 X121.047 Y101.637 E7.24055
G1 X121.391 Y102.316 E7.2684
G1 X121.662 Y103.029 E7.2963
G1 X121.857 Y103.765 E7.32416
G1 X121.973 Y104.518 E7.35204
G1 X122.01 Y105.25 E7.37885
G1 X122.01 Y114.75 E7.72642
G1 X121.97 Y115.511 E7.7543
G1 X121.851 Y116.263 E7.78215
G1 X121.653 Y116.999 E7.81004
G1 X121.379 Y117.71 E7.83792
G1 X121.033 Y118.388 E7.86577
G1 X120.617 Y119.027 E7.89366
G1 X120.136 Y119.618 E7.92154
G1 X119.596 Y120.156 E7.94943
G1 X119.003 Y120.634 E7.97729
G1 X118.363 Y121.047 E8.00516
G1 X117.684 Y121.391 E8.03301
G1 X116.971 Y121.662 E8.06092
G1 X116.235 Y121.857 E8.08877
G1 X115.482 Y121.973 E8.11665
G1 X114.75 Y122.01 E8.14346
G1 X105.25 Y122.01 E8.49103
G1 X104.489 Y121.97 E8.51891
G1 X103.737 Y121.851 E8.54677
G1 X103.001 Y121.653 E8.57465
G1 X102.29 Y121.379 E8.60253
G1 X101.612 Y121.033 E8.63038
G1 X100.973 Y120.617 E8.65827
G1 X100.382 Y120.136 E8.68615
G1 X99.844 Y119.596 E8.71404
G1 X99.366 Y119.003 E8.74191
G1 X98.953 Y118.363 E8.76977
G1 X98.609 Y117.684 E8.79762
G1 X98.338 Y116.971 E8.82553
G1 X98.143 Y116.235 E8.85339
G1 X98.027 Y115.482 E8.88126
G1 X97.99 Y114.75 E8.90808
G1 X97.99 Y105.25 E9.25564
G1 X98.03 Y104.489 E9.28352
G1 X98.149 Y103.737 E9.31138
G1 X98.347 Y103.001 E9.33926
G1 X98.621 Y102.29 E9.36714
G1 X98.967 Y101.612 E9.39499
G1 X99.383 Y100.973 E9.42289
G1 X99.864 Y100.382 E9.45077
G1 X100.404 Y99.844 E9.47865
G0 F6000 X100.298 Y100.56
G1 F1200 X100.834 Y100.052 E9.50567
G1 X101.422 Y99.606 E9.53267
G1 X102.055 Y99.225 E9.5597
G1 X102.725 Y98.915 E9.58671
G1 X103.425 Y98.679 E9.61374
G1 X104.146 Y98.52 E9.64075
G1 X104.88 Y98.44 E9.66777
G1 X105.25 Y98.43 E9.68131
G1 X114.75 Y98.43 E10.02888
G1 X115.487 Y98.47 E10.05588
G1 X116.216 Y98.589 E10.0829
G1 X116.927 Y98.787 E10.10991
G1 X117.613 Y99.06 E10.13692
G1 X118.266 Y99.406 E10.16396
G1 X118.877 Y99.82 E10.19096
G1 X119.44 Y100.298 E10.21798
G1 X119.948 Y100.834 E10.245
G1 X120.394 Y101.422 E10.272
G1 X120.775 Y102.055 E10.29903
G1 X121.085 Y102.725 E10.32604
G1 X121.321 Y103.425 E10.35306
G1 X121.48 Y104.146 E10.38008
G1 X121.56 Y104.88 E10.40709
G1 X121.57 Y105.25 E10.42063
G1 X121.57 Y114.75 E10.7682
G1 X121.53 Y115.487 E10.7952
G1 X121.411 Y116.216 E10.82223
G1 X121.213 Y116.927 E10.84923
G1 X120.94 Y117.613 E10.87624
G1 X120.594 Y118.266 E10.90328
G1 X120.18 Y118.877 E10.93028
G1 X119.702 Y119.44 E10.9573
G1 X119.166 Y119.948 E10.98432
G1 X118.578 Y120.394 E11.01132
G1 X117.945 Y120.775 E11.03835
G1 X117.275 Y121.085 E11.06536
G1 X116.575 Y121.321 E11.09239
G1 X115.854 Y121.48 E11.1194
G1 X115.12 Y121.56 E11.14642
G1 X114.75 Y121.57 E11.15996
G1 X105.25 Y121.57 E11.50753
G1 X104.513 Y121.53 E11.53453
G1 X103.784 Y121.411 E11.56155
G1 X103.073 Y121.213 E11.58856
G1 X102.387 Y120.94 E11.61557
G1 X101.734 Y120.594 E11.64261
G1 X101.123 Y120.18 E11.66961
G1 X100.56 Y119.702 E11.69663
G1 X100.052 Y119.166 E11.72365
G1 X99.606 Y118.578 E11.75065
G1 X99.225 Y117.945 E11.77768
G1 X98.915 Y117.275 E11.80469
G1 X98.679 Y116.575 E11.83171
G1 X98.52 Y115.854 E11.85873
G1 X98.44 Y115.12 E11.88574
G1 X98.43 Y114.75 E11.89928
G1 X98.43 Y105.25 E12.24685
G1 X98.47 Y104.513 E12.27385
G1 X98.589 Y103.784 E12.30088
G1 X98.787 Y103.073 E12.32788
G1 X99.06 Y102.387 E12.35489
G1 X99.406 Y101.734 E12.38193
G1 X99.82 Y101.123 E12.40893
G1 X100.298 Y100.56 E12.43595
G0 F6000 X100.732 Y100.745
G1 F1200 X101.264 Y100.268 E12.4621
G1 X101.846 Y99.854 E12.48823
G1 X102.47 Y99.508 E12.51433
G1 X103.129 Y99.233 E12.54046
G1 X103.815 Y99.033 E12.5666
G1 X104.519 Y98.912 E12.59273
G1 X105.25 Y98.87 E12.61952
G1 X114.75 Y98.87 E12.96709
G1 X115.463 Y98.91 E12.99322
G1 X116.167 Y99.029 E13.01934
G1 X116.853 Y99.227 E13.04546
G1 X117.513 Y99.5 E13.07159
G1 X118.139 Y99.844 E13.09773
G1 X118.722 Y100.257 E13.12387
G1 X119.255 Y100.732 E13.14999
G1 X119.732 Y101.264 E13.17613
G1 X120.146 Y101.846 E13.20226
G1 X120.492 Y102.47 E13.22836
G1 X120.767 Y103.129 E13.25449
G1 X120.967 Y103.815 E13.28063
G1 X121.088 Y104.519 E13.30677
G1 X121.13 Y105.25 E13.33356
G1 X121.13 Y114.75 E13.68112
G1 X121.09 Y115.463 E13.70725
G1 X120.971 Y116.167 E13.73337
G1 X120.773 Y116.853 E13.7595
G1 X120.5 Y117.513 E13.78563
G1 X120.156 Y118.139 E13.81176
G1 X119.743 Y118.722 E13.8379
G1 X119.268 Y119.255 E13.86402
G1 X118.736 Y119.732 E13.89016
G1 X118.154 Y120.146 E13.91629
G1 X117.53 Y120.492 E13.9424
G1 X116.871 Y120.767 E13.96852
G1 X116.185 Y120.967 E13.99466
G1 X115.481 Y121.088 E14.0208
G1 X114.75 Y121.13 E14.04759
G1 X105.25 Y121.13 E14.39516
G1 X104.537 Y121.09 E14.42128
G1 X103.833 Y120.971 E14.4474
G1 X103.147 Y120.773 E14.47353
G1 X102.487 Y120.5 E14.49966
G1 X101.861 Y120.156 E14.52579
G1 X101.278 Y119.743 E14.55193
G1 X100.745 Y119.268 E14.57805
G1 X100.268 Y118.736 E14.60419
G1 X99.854 Y118.154 E14.63032
G1 X99.508 Y117.53 E14.65643
G1 X99.233 Y116.871 E14.68255
G1 X99.033 Y116.185 E14.7087
G1 X98.912 Y115.481 E14.73483
G1 X98.87 Y114.75 E14.76162
G1 X98.87 Y105.25 E15.10919
G1 X98.91 Y104.537 E15.13532
G1 X99.029 Y103.833 E15.16144
G1 X99.227 Y103.147 E15.18756
G1 X99.5 Y102.487 E15.21369
G1 X99.844 Y101.861 E15.23982
G1 X100.257 Y101.278 E15.26596
G1 X100.732 Y100.745 E15.29208
G0 F6000 X101.165 Y100.938
G1 F1200 X101.692 Y100.494 E15.3173
G1 X102.267 Y100.114 E15.34251
G1 X102.882 Y99.803 E15.36773
G1 X103.528 Y99.565 E15.39291
G1 X104.198 Y99.404 E15.41812
G1 X104.882 Y99.321 E15.44333
G1 X105.25 Y99.31 E15.4568
G1 X114.75 Y99.31 E15.80437
G1 X115.438 Y99.35 E15.82958
G1 X116.117 Y99.469 E15.8548
G1 X116.777 Y99.666 E15.88
G1 X117.41 Y99.939 E15.90523
G1 X118.007 Y100.283 E15.93043
G1 X118.56 Y100.693 E15.95562
G1 X119.062 Y101.165 E15.98083
G1 X119.506 Y101.692 E16.00604
G1 X119.886 Y102.267 E16.03126
G1 X120.197 Y102.882 E16.05647
G1 X120.435 Y103.528 E16.08166
G1 X120.596 Y104.198 E16.10687
G1 X120.679 Y104.882 E16.13208
G1 X120.69 Y105.25 E16.14555
G1 X120.69 Y114.75 E16.49312
G1 X120.65 Y115.438 E16.51833
G1 X120.531 Y116.117 E16.54355
G1 X120.334 Y116.777 E16.56875
G1 X120.061 Y117.41 E16.59397
G1 X119.717 Y118.007 E16.61918
G1 X119.307 Y118.56 E16.64437
G1 X118.835 Y119.062 E16.66958
G1 X118.308 Y119.506 E16.69479
G1 X117.733 Y119.886 E16.72
G1 X117.118 Y120.197 E16.74522
G1 X116.472 Y120.435 E16.7704
G1 X115.802 Y120.596 E16.79561
G1 X115.118 Y120.679 E16.82082
G1 X114.75 Y120.69 E16.83429
G1 X105.25 Y120.69 E17.18186
G1 X104.562 Y120.65 E17.20708
G1 X103.883 Y120.531 E17.2323
G1 X103.223 Y120.334 E17.2575
G1 X102.59 Y120.061 E17.28272
G1 X101.993 Y119.717 E17.30793
G1 X101.44 Y119.307 E17.33311
G1 X100.938 Y118.835 E17.35832
G1 X100.494 Y118.308 E17.38353
G1 X100.114 Y117.733 E17.40875
G1 X99.803 Y117.118 E17.43396
G1 X99.565 Y116.472 E17.45915
G1 X99.404 Y115.802 E17.48436
G1 X99.321 Y115.118 E17.50957
G1 X99.31 Y114.75 E17.52304
G1 X99.31 Y105.25 E17.87061
G1 X99.35 Y104.562 E17.89582
G1 X99.469 Y103.883 E17.92104
G1 X99.666 Y103.223 E17.94624
G1 X99.939 Y102.59 E17.97146
G1 X100.283 Y101.993 E17.99667
G1 X100.693 Y101.44 E18.02186
G1 X101.165 Y100.938 E18.04707
G0 F6000 X101.597 Y101.138
G1 F1200 X102.118 Y100.729 E18.0713
G1 X102.685 Y100.385 E18.09556
G1 X103.289 Y100.111 E18.11983
G1 X103.922 Y99.913 E18.14409
G1 X104.573 Y99.792 E18.16832
G1 X105.25 Y99.75 E18.19314
G1 X114.75 Y99.75 E18.5407
G1 X115.412 Y99.79 E18.56497
G1 X116.064 Y99.909 E18.58922
G1 X116.697 Y100.106 E18.61347
G1 X117.302 Y100.378 E18.63774
G1 X117.87 Y100.72 E18.662
G1 X118.392 Y101.129 E18.68626
G1 X118.862 Y101.597 E18.71053
G1 X119.271 Y102.118 E18.73476
G1 X119.615 Y102.685 E18.75902
G1 X119.889 Y103.289 E18.78329
G1 X120.087 Y103.922 E18.80755
G1 X120.208 Y104.573 E18.83178
G1 X120.25 Y105.25 E18.8566
G1 X120.25 Y114.75 E19.20416
G1 X120.21 Y115.412 E19.22843
G1 X120.091 Y116.064 E19.25268
G1 X119.894 Y116.697 E19.27693
G1 X119.622 Y117.302 E19.3012
G1 X119.28 Y117.87 E19.32546
G1 X118.871 Y118.392 E19.34972
G1 X118.403 Y118.862 E19.37399
G1 X117.882 Y119.271 E19.39822
G1 X117.315 Y119.615 E19.42248
G1 X116.711 Y119.889 E19.44675
G1 X116.078 Y120.087 E19.47101
G1 X115.427 Y120.208 E19.49524
G1 X114.75 Y120.25 E19.52006
G1 X105.25 Y120.25 E19.86762
G1 X104.588 Y120.21 E19.89189
G1 X103.936 Y120.091 E19.91614
G1 X103.303 Y119.894 E19.94039
G1 X102.698 Y119.622 E19.96466
G1 X102.13 Y119.28 E19.98892
G1 X101.608 Y118.871 E20.01318
G1 X101.138 Y118.403 E20.03745
G1 X100.729 Y117.882 E20.06168
G1 X100.385 Y117.315 E20.08594
G1 X100.111 Y116.711 E20.11021
G1 X99.913 Y116.078 E20.13447
G1 X99.792 Y115.427 E20.1587
G1 X99.75 Y114.75 E20.18352
G1 X99.75 Y105.25 E20.53108
G1 X99.79 Y104.588 E20.55535
G1 X99.909 Y103.936 E20.5796
G1 X100.106 Y103.303 E20.60385
G1 X100.378 Y102.698 E20.62812
G1 X100.72 Y102.13 E20.65238
G1 X101.129 Y101.608 E20.67664
G1 X101.597 Y101.138 E20.70091
G0 F6000 X101.563 Y101.784
G1 F1200 X102.027 Y101.349 E20.72418
G1 X102.542 Y100.976 E20.74744
G1 X103.1 Y100.67 E20.77072
G1 X103.691 Y100.436 E20.79398
G1 X104.307 Y100.279 E20.81724
G1 X105.25 Y100.19 E20.85189
G1 X114.75 Y100.19 E21.19946
G1 X115.385 Y100.23 E21.22274
G1 X116.009 Y100.349 E21.24598
G1 X116.614 Y100.546 E21.26926
G1 X117.189 Y100.817 E21.29251
G1 X117.726 Y101.158 E21.31579
G1 X118.216 Y101.563 E21.33904
G1 X118.651 Y102.027 E21.36231
G1 X119.024 Y102.542 E21.38558
G1 X119.33 Y103.1 E21.40886
G1 X119.564 Y103.691 E21.43212
G1 X119.721 Y104.307 E21.45538
G1 X119.81 Y105.25 E21.49003
G1 X119.81 Y114.75 E21.8376
G1 X119.77 Y115.385 E21.86088
G1 X119.651 Y116.009 E21.88412
G1 X119.454 Y116.614 E21.9074
G1 X119.183 Y117.189 E21.93065
G1 X118.842 Y117.726 E21.95393
G1 X118.437 Y118.216 E21.97718
G1 X117.973 Y118.651 E22.00045
G1 X117.458 Y119.024 E22.02372
G1 X116.9 Y119.33 E22.047
G1 X116.309 Y119.564 E22.07026
G1 X115.693 Y119.721 E22.09351
G1 X114.75 Y119.81 E22.12817
G1 X105.25 Y119.81 E22.47574
G1 X104.615 Y119.77 E22.49901
G1 X103.991 Y119.651 E22.52226
G1 X103.386 Y119.454 E22.54553
G1 X102.811 Y119.183 E22.56879
G1 X102.274 Y118.842 E22.59206
G1 X101.784 Y118.437 E22.61532
G1 X101.349 Y117.973 E22.63859
G1 X100.976 Y117.458 E22.66186
G1 X100.67 Y116.9 E22.68514
G1 X100.436 Y116.309 E22.7084
G1 X100.279 Y115.693 E22.73165
G1 X100.19 Y114.75 E22.76631
G1 X100.19 Y105.25 E23.11388
G1 X100.23 Y104.615 E23.13715
G1 X100.349 Y103.991 E23.16039
G1 X100.546 Y103.386 E23.18367
G1 X100.817 Y102.811 E23.20693
G1 X101.158 Y102.274 E23.2302
G1 X101.563 Y101.784 E23.25346
G0 F6000 X101.997 Y101.969
G1 F1200 X102.456 Y101.571 E23.27569
G1 X102.963 Y101.236 E23.29792
G1 X103.509 Y100.97 E23.32014
G1 X104.086 Y100.779 E23.34238
G1 X104.683 Y100.665 E23.36461
G1 X105.25 Y100.63 E23.3854
G1 X114.75 Y100.63 E23.73297
G1 X115.356 Y100.67 E23.75519
G1 X115.952 Y100.789 E23.77742
G1 X116.527 Y100.985 E23.79965
