;FLAVOR:Marlin
;TIME:1746
;Filament used: 1.01013m
;Layer height: 0.16
;MINX:82.049
;MINY:81.628
;MINZ:0.24
;MAXX:138.793
;MAXY:138.371
;MAXZ:9.15
;Generated with Cura_SteamEngine 4.2.1
M140 S60
M105
M190 S60
M104 S200
M105
M109 S200
M82 ;absolute extrusion mode
M201 X500.00 Y500.00 Z100.00 E5000.00 ;Setup machine max acceleration
M203 X500.00 Y500.00 Z10.00 E50.00 ;Setup machine max feedrate
M204 P500.00 R1000.00 T500.00 ;Setup Print/Retract/Travel acceleration
M205 X8.00 Y8.00 Z0.40 E5.00 ;Setup Jerk
M220 S100 ;Reset Feedrate
M221 S100 ;Reset Flowrate

G28 ;Home

G92 E0 ;Reset Extruder
G1 Z2.0 F3000 ;Move Z Axis up
G1 X10.1 Y20 Z0.28 F5000.0 ;Move to start position
G1 X10.1 Y200.0 Z0.28 F1500.0 E15 ;Draw the first line
G1 X10.4 Y200.0 Z0.28 F5000.0 ;Move to side a little
G1 X10.4 Y20 Z0.28 F1500.0 E30 ;Draw the second line
G92 E0 ;Reset Extruder
G1 Z2.0 F3000 ;Move Z Axis up

G92 E0
G92 E0
G1 F3000 E-5
;LAYER_COUNT:55
;LAYER:-6
M107
G0 F9000 X90.259 Y90.292 Z0.24
;TYPE:SUPPORT-INTERFACE
G1 F3000 E0
G1 F900 X90.883 Y89.672 E0.07022
G1 X91.505 Y89.091 E0.13816
G1 X92.086 Y88.579 E0.19998
G1 X92.875 Y87.932 E0.28142
G1 X93.581 Y87.389 E0.35252
G1 X94.26 Y86.896 E0.4195
G1 X94.958 Y86.423 E0.48681
G1 X95.719 Y85.94 E0.55876
G1 X96.497 Y85.483 E0.63078
G1 X97.341 Y85.023 E0.70751
G1 X98.083 Y84.648 E0.77387
G1 X98.932 Y84.252 E0.84865
G1 X99.657 Y83.94 E0.91166
G1 X100.56 Y83.588 E0.98902
G1 X101.373 Y83.298 E1.05792
G1 X102.228 Y83.023 E1.12962
G1 X102.963 Y82.809 E1.19073
G1 X103.9 Y82.569 E1.26794
G1 X104.748 Y82.382 E1.33725
G1 X105.693 Y82.204 E1.41401
G1 X106.524 Y82.075 E1.48114
G1 X107.451 Y81.962 E1.55569
G1 X108.252 Y81.889 E1.61989
G1 X109.164 Y81.835 E1.69282
G1 X110.101 Y81.809 E1.76764
G1 X110.961 Y81.811 E1.83629
G1 X111.736 Y81.835 E1.89818
G1 X112.698 Y81.896 E1.97513
G1 X113.595 Y81.985 E2.04708
G1 X114.525 Y82.106 E2.12195
G1 X115.344 Y82.238 E2.18817
G1 X116.206 Y82.403 E2.25822
G1 X116.99 Y82.58 E2.32238
G1 X117.932 Y82.824 E2.40006
G1 X118.805 Y83.081 E2.4727
G1 X119.648 Y83.357 E2.54351
G1 X120.377 Y83.619 E2.60534
G1 X121.288 Y83.983 E2.68365
G1 X122.038 Y84.308 E2.7489
G1 X122.934 Y84.734 E2.8281
G1 X123.689 Y85.121 E2.89582
G1 X124.45 Y85.54 E2.96516
G1 X125.182 Y85.976 E3.03318
G1 X125.95 Y86.466 E3.1059
G1 X126.713 Y86.988 E3.17969
G1 X127.461 Y87.536 E3.25371
G1 X128.046 Y87.991 E3.31287
G1 X128.777 Y88.595 E3.38856
G1 X129.431 Y89.177 E3.45844
G1 X130.098 Y89.805 E3.53157
G1 X130.688 Y90.395 E3.59818
G1 X131.306 Y91.056 E3.67041
G1 X131.844 Y91.666 E3.73534
G1 X132.454 Y92.406 E3.81189
G1 X133.006 Y93.122 E3.88406
G1 X133.553 Y93.878 E3.95854
G1 X133.967 Y94.486 E4.01726
G1 X134.472 Y95.282 E4.09251
G1 X134.93 Y96.06 E4.16457
G1 X135.357 Y96.838 E4.23542
G1 X135.743 Y97.597 E4.30339
G1 X136.132 Y98.425 E4.37641
G1 X136.46 Y99.185 E4.44249
G1 X136.808 Y100.065 E4.51803
G1 X137.136 Y100.987 E4.59614
G1 X137.396 Y101.793 E4.66375
G1 X137.613 Y102.539 E4.72576
G1 X137.836 Y103.409 E4.79746
G1 X138.04 Y104.327 E4.87252
G1 X138.225 Y105.313 E4.9526
G1 X138.35 Y106.129 E5.0185
G1 X138.457 Y107.01 E5.08934
G1 X138.531 Y107.813 E5.15371
G1 X138.586 Y108.703 E5.22489
G1 X138.613 Y109.673 E5.30235
G1 X138.611 Y110.539 E5.37148
G1 X138.589 Y111.284 E5.43097
G1 X138.528 Y112.258 E5.50887
G1 X138.445 Y113.112 E5.57736
G1 X138.327 Y114.03 E5.65125
G1 X138.189 Y114.89 E5.72077
G1 X138.026 Y115.749 E5.79057
G1 X137.854 Y116.524 E5.85394
G1 X137.587 Y117.553 E5.93879
G1 X137.348 Y118.364 E6.00628
G1 X137.058 Y119.248 E6.08055
G1 X136.809 Y119.938 E6.13911
G1 X136.442 Y120.861 E6.21839
G1 X136.091 Y121.664 E6.28835
G1 X135.703 Y122.484 E6.36076
G1 X135.313 Y123.242 E6.42881
G1 X134.871 Y124.043 E6.50184
G1 X134.483 Y124.699 E6.56267
G1 X133.933 Y125.562 E6.64436
G1 X133.416 Y126.314 E6.71721
G1 X132.898 Y127.023 E6.7873
G1 X132.419 Y127.638 E6.84953
G1 X131.844 Y128.332 E6.92147
G1 X131.256 Y128.998 E6.99239
G1 X130.584 Y129.709 E7.07048
G1 X130.006 Y130.285 E7.13562
G1 X129.388 Y130.863 E7.20316
G1 X128.765 Y131.413 E7.2695
G1 X127.986 Y132.055 E7.35008
G1 X127.261 Y132.612 E7.42306
G1 X126.525 Y133.144 E7.49555
G1 X125.904 Y133.565 E7.55544
G1 X125.126 Y134.058 E7.62896
G1 X124.348 Y134.516 E7.70103
G1 X123.502 Y134.977 E7.77793
G1 X122.76 Y135.352 E7.8443
G1 X121.911 Y135.748 E7.91908
G1 X121.186 Y136.06 E7.98208
G1 X120.281 Y136.412 E8.05959
G1 X119.47 Y136.702 E8.12835
G1 X118.615 Y136.977 E8.20004
G1 X117.88 Y137.191 E8.26115
G1 X116.943 Y137.431 E8.33836
G1 X116.095 Y137.618 E8.40767
G1 X115.15 Y137.796 E8.48443
G1 X114.286 Y137.929 E8.55422
G1 X113.404 Y138.037 E8.62515
G1 X112.614 Y138.11 E8.68848
G1 X111.678 Y138.165 E8.76332
G1 X110.743 Y138.191 E8.83799
G1 X109.883 Y138.189 E8.90663
G1 X109.082 Y138.163 E8.97061
G1 X108.113 Y138.101 E9.04812
G1 X107.27 Y138.018 E9.11573
G1 X106.349 Y137.899 E9.18986
G1 X105.498 Y137.762 E9.25867
G1 X104.646 Y137.598 E9.32793
G1 X103.853 Y137.42 E9.3928
G1 X102.898 Y137.172 E9.47156
G1 X102.033 Y136.917 E9.54355
G1 X101.195 Y136.643 E9.61393
G1 X100.466 Y136.381 E9.67576
G1 X99.555 Y136.017 E9.75407
G1 X98.805 Y135.692 E9.81932
G1 X97.909 Y135.266 E9.89851
G1 X97.147 Y134.875 E9.96688
G1 X96.395 Y134.46 E10.03544
G1 X95.661 Y134.024 E10.10359
G1 X94.872 Y133.52 E10.17833
G1 X94.133 Y133.013 E10.24986
G1 X93.389 Y132.469 E10.32344
G1 X92.794 Y132.006 E10.38362
G1 X92.04 Y131.379 E10.46189
G1 X91.405 Y130.816 E10.52964
G1 X90.717 Y130.166 E10.60519
G1 X90.091 Y129.534 E10.6762
G1 X89.499 Y128.903 E10.74526
G1 X88.98 Y128.311 E10.80811
G1 X88.352 Y127.544 E10.88724
G1 X87.802 Y126.829 E10.95925
G1 X87.274 Y126.097 E11.03129
G1 X86.85 Y125.472 E11.09158
G1 X86.352 Y124.684 E11.16599
G1 X85.952 Y124.008 E11.22869
G1 X85.436 Y123.065 E11.3145
G1 X85.044 Y122.286 E11.38411
G1 X84.688 Y121.524 E11.45125
G1 X84.348 Y120.73 E11.52019
G1 X84.031 Y119.922 E11.58948
G1 X83.727 Y119.072 E11.66154
G1 X83.438 Y118.178 E11.73654
G1 X83.216 Y117.407 E11.80058
G1 X82.985 Y116.495 E11.87568
G1 X82.809 Y115.703 E11.94044
G1 X82.625 Y114.721 E12.02019
G1 X82.499 Y113.913 E12.08547
G1 X82.383 Y112.967 E12.16155
G1 X82.312 Y112.188 E12.22399
G1 X82.257 Y111.298 E12.29517
G1 X82.23 Y110.327 E12.37271
G1 X82.232 Y109.432 E12.44415
G1 X82.254 Y108.714 E12.50149
G1 X82.315 Y107.742 E12.57924
G1 X82.398 Y106.888 E12.64773
G1 X82.524 Y105.915 E12.72604
G1 X82.657 Y105.094 E12.79243
G1 X82.83 Y104.198 E12.86528
G1 X82.997 Y103.449 E12.92653
G1 X83.236 Y102.514 E13.00357
G1 X83.491 Y101.648 E13.07563
G1 X83.771 Y100.792 E13.14752
G1 X84.039 Y100.05 E13.2105
G1 X84.377 Y99.197 E13.28374
G1 X84.738 Y98.366 E13.35606
G1 X85.156 Y97.487 E13.43376
G1 X85.549 Y96.723 E13.50234
G1 X85.985 Y95.933 E13.57437
G1 X86.384 Y95.262 E13.63668
G1 X86.915 Y94.432 E13.71534
G1 X87.413 Y93.707 E13.78555
G1 X87.958 Y92.961 E13.85929
G1 X88.413 Y92.376 E13.91845
G1 X89.039 Y91.623 E13.99662
G1 X89.602 Y90.987 E14.06442
G1 X90.259 Y90.292 E14.14076
G0 F9000 X89.6 Y90.989
G1 F900 X89.6 Y129.01 E17.17577
G0 F9000 X91.2 Y130.622
G1 F900 X91.2 Y89.375 E20.46828
G0 F9000 X92.8 Y87.993
G1 F900 X92.8 Y132.01 E23.98191
G0 F9000 X94.4 Y133.196
G1 F900 X94.4 Y86.801 E27.68536
G0 F9000 X96 Y85.774
G1 F900 X96 Y134.225 E31.55292
G0 F9000 X97.6 Y135.107
G1 F900 X97.6 Y84.892 E35.5613
G0 F9000 X99.2 Y84.136
G1 F900 X99.2 Y135.863 E39.69038
G0 F9000 X100.8 Y136.501
G1 F900 X100.8 Y83.502 E43.92098
G0 F9000 X102.4 Y82.972
G1 F900 X102.4 Y137.025 E48.23573
G0 F9000 X104 Y137.452
G1 F900 X104 Y82.546 E52.61856
G0 F9000 X105.6 Y82.221
G1 F900 X105.6 Y137.778 E57.05336
G0 F9000 X107.2 Y138.008
G1 F900 X107.2 Y81.992 E61.5248
G0 F9000 X108.8 Y81.856
G1 F900 X108.8 Y138.144 E66.01795
G0 F9000 X110.4 Y138.19
G1 F900 X110.4 Y81.81 E70.51845
G0 F9000 X112 Y81.852
G1 F900 X112 Y138.147 E75.01216
G0 F9000 X113.6 Y138.013
G1 F900 X113.6 Y81.986 E79.48448
G0 F9000 X115.2 Y82.215
G1 F900 X115.2 Y137.787 E83.92047
G0 F9000 X116.8 Y137.463
G1 F900 X116.8 Y82.538 E88.30483
G0 F9000 X118.4 Y82.962
G1 F900 X118.4 Y137.04 E92.62157
G0 F9000 X120 Y136.513
G1 F900 X120 Y83.484 E96.85457
G0 F9000 X121.6 Y84.119
G1 F900 X121.6 Y135.882 E100.98652
G0 F9000 X123.2 Y135.13
G1 F900 X123.2 Y84.871 E104.99841
G0 F9000 X124.8 Y85.749
G1 F900 X124.8 Y134.25 E108.86997
G0 F9000 X126.4 Y133.229
G1 F900 X126.4 Y86.774 E112.57821
G0 F9000 X128 Y87.956
G1 F900 X128 Y132.044 E116.0975
G0 F9000 X129.6 Y130.665
G1 F900 X129.6 Y89.337 E119.39648
G0 F9000 X131.2 Y90.943
G1 F900 X131.2 Y129.058 E122.43898
G0 F9000 X132.8 Y127.149
G1 F900 X132.8 Y92.855 E125.17648
G0 F9000 X134.4 Y95.169
G1 F900 X134.4 Y124.83 E127.54415
G0 F9000 X136 Y121.857
G1 F900 X136 Y98.145 E129.43694
G0 F9000 X137.6 Y102.495
G1 F900 X137.6 Y117.503 E130.63495
G1 F3000 E125.63495
G0 F9000 X88 Y127.086
G1 F3000 E130.63495
G1 F900 X88 Y92.907 E133.36326
G0 F9000 X86.4 Y95.236
G1 F900 X86.4 Y124.759 E135.71992
G0 F9000 X84.8 Y121.763
G1 F900 X84.8 Y98.235 E137.59802
G0 F9000 X83.2 Y102.654
G1 F900 X83.2 Y117.343 E138.77056
G0 F600 X83.2 Y117.343 Z0.48
G0 F9000 X86.25 Y124.434
;TIME_ELAPSED:125.831781
;LAYER:-5
M140 S60
;TYPE:SUPPORT
G1 F900 X95.986 Y134.169 E139.97949
G1 X95.682 Y133.989 E140.01051
G1 X94.893 Y133.486 E140.09267
G1 X94.156 Y132.979 E140.17122
G1 X93.413 Y132.436 E140.25203
G1 X92.82 Y131.974 E140.31803
G1 X92.064 Y131.347 E140.40428
G1 X91.431 Y130.785 E140.4786
G1 X90.75 Y130.14 E140.56096
G1 X90.12 Y129.505 E140.63951
G1 X89.536 Y128.884 E140.71436
G1 X89.011 Y128.284 E140.78436
G1 X88.382 Y127.518 E140.87139
G1 X87.833 Y126.804 E140.95048
G1 X87.305 Y126.073 E141.02966
G1 X86.89 Y125.46 E141.09466
G1 X86.387 Y124.665 E141.17726
G0 F9000 X95.986 Y134.169
G1 F900 X96.423 Y134.43 E141.22196
G1 X97.166 Y134.838 E141.29639
G1 X97.926 Y135.229 E141.37143
G1 X98.816 Y135.65 E141.45788
G1 X99.131 Y135.787 E141.48805
G1 X84.629 Y121.285 E143.28887
G1 X84.384 Y120.714 E143.34343
G1 X84.067 Y119.906 E143.41964
G1 X83.769 Y119.075 E143.49716
G1 X83.684 Y118.813 E143.52134
G1 X101.605 Y136.734 E145.74673
G1 X102.043 Y136.878 E145.78721
G1 X102.904 Y137.131 E145.86601
G1 X103.748 Y137.349 E145.94255
G1 X83.07 Y116.672 E148.51023
G1 X83.023 Y116.485 E148.52716
G1 X82.848 Y115.694 E148.5983
G1 X82.669 Y114.743 E148.68327
G1 X105.674 Y137.748 E151.53997
G1 X106.347 Y137.857 E151.59983
G1 X107.274 Y137.978 E151.68192
G1 X107.447 Y137.994 E151.69718
G1 X82.423 Y112.97 E154.80459
G1 X82.422 Y112.962 E154.8053
G1 X82.351 Y112.184 E154.8739
G1 X82.298 Y111.317 E154.95017
G1 X109.102 Y138.121 E158.27862
G1 X109.883 Y138.148 E158.34724
G1 X110.657 Y138.149 E158.4152
G1 X82.27 Y109.762 E161.94023
G1 X82.271 Y109.431 E161.9693
G1 X82.293 Y108.714 E162.03228
G1 X82.319 Y108.284 E162.07011
G1 X112.132 Y138.097 E165.77221
G1 X112.61 Y138.069 E165.81426
G1 X113.4 Y137.996 E165.88392
G1 X113.54 Y137.978 E165.89631
G1 X82.439 Y106.877 E169.75836
G1 X82.565 Y105.911 E169.8439
G1 X82.625 Y105.535 E169.87733
G1 X114.885 Y137.795 E173.8833
G1 X115.151 Y137.755 E173.90692
G1 X116.082 Y137.579 E173.99011
G1 X116.175 Y137.558 E173.99848
G1 X82.86 Y104.243 E178.13546
G1 X82.868 Y104.206 E178.13878
G1 X83.034 Y103.463 E178.20563
G1 X83.15 Y103.006 E178.24703
G1 X117.412 Y137.267 E182.50154
G1 X117.863 Y137.153 E182.54238
G1 X118.603 Y136.938 E182.61005
G1 X118.607 Y136.936 E182.61044
G1 X83.483 Y101.812 E186.97205
G1 X83.529 Y101.659 E186.98608
G1 X83.809 Y100.803 E187.06516
G1 X83.86 Y100.66 E187.07849
G1 X119.755 Y136.556 E191.53591
G1 X120.261 Y136.376 E191.58306
G1 X120.866 Y136.139 E191.64012
G1 X84.278 Y99.552 E196.18346
G1 X84.413 Y99.212 E196.21558
G1 X84.732 Y98.478 E196.28586
G1 X121.941 Y135.687 E200.90638
G1 X122.743 Y135.315 E200.98401
G1 X122.977 Y135.196 E201.00706
G1 X85.223 Y97.442 E205.69525
G1 X85.583 Y96.74 E205.76453
G1 X85.749 Y96.44 E205.79463
G1 X123.979 Y134.67 E210.54194
G1 X124.324 Y134.482 E210.57644
G1 X124.949 Y134.113 E210.64017
G1 X86.305 Y95.47 E215.43882
G1 X86.413 Y95.29 E215.45725
G1 X86.896 Y94.533 E215.5361
G1 X125.888 Y133.525 E220.37803
G1 X126.502 Y133.11 E220.4431
G1 X126.792 Y132.901 E220.47449
G1 X87.518 Y93.628 E225.35138
G1 X87.995 Y92.977 E225.42224
G1 X88.169 Y92.751 E225.44729
G1 X127.667 Y132.249 E230.35205
G1 X127.961 Y132.023 E230.38461
G1 X128.513 Y131.568 E230.44742
G1 X88.852 Y91.907 E235.37243
G1 X89.068 Y91.648 E235.40204
G1 X89.563 Y91.09 E235.46754
G1 X129.331 Y130.858 E240.40583
G1 X129.361 Y130.832 E240.40931
G1 X130.047 Y130.186 E240.49205
G1 X130.116 Y130.116 E240.50068
G1 X90.303 Y90.303 E245.44456
G1 X90.909 Y89.702 E245.5195
G1 X91.075 Y89.548 E245.53939
G1 X130.872 Y129.345 E250.48128
G1 X131.22 Y128.976 E250.52581
G1 X131.601 Y128.546 E250.57626
G1 X91.873 Y88.818 E255.50958
G1 X92.111 Y88.609 E255.5374
G1 X92.705 Y88.123 E255.60479
G1 X132.3 Y127.718 E260.5216
G1 X132.387 Y127.612 E260.53364
G1 X132.871 Y126.992 E260.6027
G1 X132.968 Y126.859 E260.61715
G1 X93.562 Y87.453 E265.51049
G1 X93.603 Y87.421 E265.51506
G1 X94.281 Y86.928 E265.58867
G1 X94.451 Y86.814 E265.60664
G1 X133.604 Y125.968 E270.46862
G1 X133.899 Y125.539 E270.51434
G1 X134.212 Y125.048 E270.56547
G1 X95.371 Y86.207 E275.38865
G1 X95.738 Y85.974 E275.42682
G1 X96.323 Y85.632 E275.48632
G1 X134.79 Y124.099 E280.26306
G1 X134.84 Y124.014 E280.27171
G1 X135.277 Y123.222 E280.35114
G1 X135.333 Y123.114 E280.36182
G1 X97.307 Y85.088 E285.0838
G1 X97.358 Y85.059 E285.08895
G1 X98.099 Y84.683 E285.16191
G1 X98.325 Y84.579 E285.18375
G1 X135.842 Y122.096 E289.84252
G1 X136.053 Y121.647 E289.88608
G1 X136.318 Y121.044 E289.94392
G1 X99.378 Y84.104 E294.53104
G1 X99.665 Y83.98 E294.55849
G1 X100.467 Y83.666 E294.63411
G1 X136.757 Y119.957 E299.14058
G1 X136.767 Y119.932 E299.14294
G1 X137.018 Y119.235 E299.20799
G1 X137.153 Y118.825 E299.24589
G1 X101.596 Y83.268 E303.66127
G1 X102.239 Y83.061 E303.72059
G1 X102.764 Y82.908 E303.7686
G1 X137.513 Y117.657 E308.08365
G1 X137.547 Y117.541 E308.09426
G1 X137.81 Y116.529 E308.18607
G1 X137.829 Y116.446 E308.19355
G1 X103.976 Y82.593 E312.39733
G1 X104.759 Y82.419 E312.46776
G1 X105.24 Y82.329 E312.51073
G1 X138.093 Y115.182 E316.59033
G1 X138.149 Y114.882 E316.61713
G1 X138.284 Y114.037 E316.69227
G1 X138.306 Y113.868 E316.70723
G1 X106.55 Y82.112 E320.65061
G1 X107.447 Y82.001 E320.72998
G1 X107.924 Y81.959 E320.77202
G1 X138.464 Y112.499 E324.5644
G1 X138.487 Y112.255 E324.58592
G1 X138.548 Y111.282 E324.67153
G1 X138.555 Y111.063 E324.69077
G1 X109.362 Y81.87 E328.31588
G1 X110.1 Y81.849 E328.38071
G1 X110.87 Y81.85 E328.44832
G1 X138.569 Y109.549 E331.88791
G1 X138.545 Y108.704 E331.96214
G1 X138.498 Y107.951 E332.02838
G1 X112.468 Y81.921 E335.26072
G1 X112.693 Y81.935 E335.28052
G1 X113.59 Y82.023 E335.35966
G1 X114.175 Y82.1 E335.41147
G1 X138.324 Y106.249 E338.41023
G1 X138.31 Y106.133 E338.42049
G1 X138.184 Y105.319 E338.49282
G1 X138.015 Y104.414 E338.57366
G1 X116.008 Y82.406 E341.30649
G1 X116.198 Y82.442 E341.32347
G1 X116.978 Y82.619 E341.3937
G1 X117.92 Y82.862 E341.47913
G1 X118.021 Y82.892 E341.48838
G1 X137.53 Y102.401 E343.91096
G1 X137.353 Y101.791 E343.96673
G1 X137.097 Y100.999 E344.03981
G1 X136.789 Y100.133 E344.12052
G1 X120.286 Y83.63 E346.16982
G1 X120.372 Y83.66 E346.17782
G1 X121.271 Y84.019 E346.26282
G1 X122.026 Y84.347 E346.3351
G1 X122.91 Y84.767 E346.42104
G1 X122.995 Y84.811 E346.42944
G1 X135.613 Y97.43 E347.99637
G1 X135.32 Y96.855 E348.05304
G1 X134.895 Y96.079 E348.13073
G1 X134.439 Y95.306 E348.20953
G1 X133.932 Y94.508 E348.29255
G1 X133.519 Y93.9 E348.35709
G1 X133.278 Y93.567 E348.39318
G1 X126.852 Y87.141 E349.19114
G1 X127.443 Y87.572 E349.25537
G1 X128.011 Y88.014 E349.31857
G1 X128.749 Y88.626 E349.40275
G1 X129.403 Y89.205 E349.47945
G1 X130.068 Y89.832 E349.5597
G1 X130.657 Y90.422 E349.6329
G1 X131.275 Y91.081 E349.71223
G1 X131.803 Y91.68 E349.78235
G1 X132.43 Y92.442 E349.86899
G1 X132.972 Y93.145 E349.94694
G0 F600 X132.972 Y93.145 Z0.64
G0 F9000 X113.615 Y81.806
;TIME_ELAPSED:287.737658
;LAYER:-4
;TYPE:SUPPORT-INTERFACE
G1 F1200 X112.664 Y81.713 E349.97491
G1 X111.747 Y81.656 E350.0018
G1 X110.967 Y81.631 E350.02464
G1 X110.099 Y81.629 E350.05004
G1 X109.156 Y81.655 E350.07765
