;FLAVOR:Marlin
;TIME:1872
;Filament used: 0.377316m
;Layer height: 0.12
;MINX:97.2
;MINY:89.2
;MINZ:0.12
;MAXX:122.8
;MAXY:121.8
;MAXZ:15
;TARGET_MACHINE.NAME:Creality Ender-3 Pro
;Generated with Cura_SteamEngine 5.6.0
M82 ;absolute extrusion mode
; Ender 3 Custom Start G-code
G92 E0 ; Reset Extruder
G28 ; Home all axes
G1 Z5.0 F3000 ; Move Z Axis up a bit during heating to not damage bed
M104 S175 ; Start heating up the nozzle most of the way
M190 S60 ; Start heating the bed, wait until target temperature reached
M109 S200 ; Finish heating the nozzle
G1 Z2.0 F3000 ; Move Z Axis up little to prevent scratching of Heat Bed
G1 X0.1 Y20 Z0.3 F5000.0 ; Move to start position
G1 X0.1 Y200.0 Z0.3 F1500.0 E15 ; Draw the first line
G1 X0.4 Y200.0 Z0.3 F5000.0 ; Move to side a little
G1 X0.4 Y20 Z0.3 F1500.0 E30 ; Draw the second line
G92 E0 ; Reset Extruder
G1 Z2.0 F3000 ; Move Z Axis up little to prevent scratching of Heat Bed
G1 X5 Y20 Z0.3 F5000.0 ; Move over to prevent blob squish
G92 E0
G92 E0
G1 F1500 E-6.5
;LAYER_COUNT:125
;LAYER:0
M107
G0 F6000 X98.719 Y92.223 Z0.12
;TYPE:SKIRT
G1 F1500 E0
G1 F1200 X100.28 Y90.764 E0.04264
G1 X102.303 Y89.557 E0.08965
G1 X104.021 Y89.275 E0.12439
G1 X115.843 Y89.2 E0.36032
G1 X117.751 Y89.668 E0.39952
G1 X119.777 Y90.719 E0.44507
G1 X121.236 Y92.28 E0.48771
G1 X122.443 Y94.303 E0.53472
G1 X122.725 Y96.021 E0.56947
G1 X122.79 Y105.763 E0.76388
G1 X122.8 Y114.853 E0.94528
G1 X122.334 Y116.749 E0.98425
G1 X121.281 Y118.777 E1.02985
G1 X119.72 Y120.236 E1.07249
G1 X117.697 Y121.443 E1.1195
G1 X115.979 Y121.725 E1.15424
G1 X104.157 Y121.8 E1.39017
G1 X102.249 Y121.332 E1.42937
G1 X100.223 Y120.281 E1.47492
G1 X98.764 Y118.72 E1.51756
G1 X97.596 Y116.761 E1.56307
G1 X97.545 Y116.62 E1.56607
G1 X97.265 Y114.855 E1.60173
G1 X97.205 Y105.632 E1.78579
G1 X97.216 Y105.226 E1.79389
G1 X97.2 Y96.147 E1.97507
G1 X97.666 Y94.251 E2.01404
G1 X98.719 Y92.223 E2.05964
G0 F6000 X99.042 Y92.468
G1 F1200 X100.519 Y91.088 E2.09998
G1 X102.443 Y89.94 E2.14469
G1 X104.086 Y89.67 E2.17792
G1 X115.798 Y89.6 E2.41165
G1 X117.608 Y90.044 E2.44884
G1 X119.532 Y91.042 E2.49209
G1 X120.912 Y92.519 E2.53243
G1 X122.06 Y94.443 E2.57714
G1 X122.33 Y96.086 E2.61037
G1 X122.39 Y105.763 E2.80349
G1 X122.4 Y114.807 E2.98397
G1 X121.958 Y116.606 E3.02094
G1 X120.958 Y118.532 E3.06425
G1 X119.481 Y119.912 E3.10458
G1 X117.557 Y121.06 E3.14929
G1 X115.914 Y121.33 E3.18252
G1 X104.202 Y121.4 E3.41625
G1 X102.392 Y120.956 E3.45344
G1 X100.468 Y119.958 E3.4967
G1 X99.088 Y118.481 E3.53704
G1 X97.94 Y116.556 E3.58176
G1 X97.665 Y114.852 E3.61621
G1 X97.605 Y105.643 E3.79999
G1 X97.616 Y105.237 E3.80809
G1 X97.6 Y96.193 E3.98858
G1 X98.042 Y94.394 E4.02554
G1 X99.042 Y92.468 E4.06885
G0 F6000 X99.365 Y92.713
G1 F1200 X100.761 Y91.409 E4.10697
G1 X102.581 Y90.323 E4.14927
G1 X104.151 Y90.065 E4.18102
G1 X115.753 Y90 E4.41255
G1 X117.465 Y90.42 E4.44773
G1 X119.287 Y91.365 E4.48869
G1 X120.591 Y92.761 E4.52681
G1 X121.677 Y94.581 E4.56911
G1 X121.935 Y96.151 E4.60086
G1 X121.99 Y105.763 E4.79268
G1 X122 Y114.76 E4.97223
G1 X121.581 Y116.464 E5.00724
G1 X120.635 Y118.287 E5.04823
G1 X119.239 Y119.591 E5.08635
G1 X117.419 Y120.677 E5.12865
G1 X115.849 Y120.935 E5.1604
G1 X104.247 Y121 E5.39193
G1 X102.535 Y120.58 E5.42711
G1 X100.713 Y119.635 E5.46807
G1 X99.409 Y118.239 E5.50619
G1 X98.323 Y116.419 E5.54849
G1 X98.065 Y114.849 E5.58024
G1 X98.005 Y105.654 E5.76374
G1 X98.016 Y105.248 E5.77184
G1 X98 Y96.24 E5.95161
G1 X98.419 Y94.536 E5.98663
G1 X99.365 Y92.713 E6.02761
G0 F6000 X99.688 Y92.958
G1 F1200 X101.003 Y91.73 E6.06352
G1 X102.719 Y90.706 E6.1034
G1 X104.216 Y90.46 E6.13367
G1 X115.708 Y90.4 E6.36301
G1 X117.322 Y90.796 E6.39617
G1 X119.042 Y91.688 E6.43484
G1 X120.27 Y93.003 E6.47075
G1 X121.294 Y94.719 E6.51062
G1 X121.54 Y96.216 E6.5409
G1 X121.59 Y105.763 E6.73142
G1 X121.6 Y114.714 E6.91005
G1 X121.205 Y116.321 E6.94307
G1 X120.312 Y118.042 E6.98177
G1 X118.997 Y119.27 E7.01767
G1 X117.281 Y120.294 E7.05755
G1 X115.784 Y120.54 E7.08782
G1 X104.292 Y120.6 E7.31716
G1 X102.678 Y120.204 E7.35033
G1 X100.958 Y119.312 E7.38899
G1 X99.73 Y117.997 E7.4249
G1 X98.706 Y116.281 E7.46478
G1 X98.46 Y114.784 E7.49505
G1 X98.405 Y105.665 E7.67703
G1 X98.416 Y105.259 E7.68514
G1 X98.4 Y96.286 E7.86421
G1 X98.795 Y94.679 E7.89723
G1 X99.688 Y92.958 E7.93592
G0 F6000 X100.011 Y93.203
G1 F1200 X101.245 Y92.051 E7.96961
G1 X102.857 Y91.089 E8.00707
G1 X104.281 Y90.855 E8.03587
G1 X115.663 Y90.8 E8.26301
G1 X117.179 Y91.172 E8.29417
G1 X118.797 Y92.011 E8.33054
G1 X119.949 Y93.245 E8.36423
G1 X120.911 Y94.857 E8.40169
G1 X121.145 Y96.281 E8.43049
G1 X121.19 Y105.763 E8.61971
G1 X121.2 Y114.668 E8.79742
G1 X120.829 Y116.178 E8.82845
G1 X119.989 Y117.797 E8.86485
G1 X118.755 Y118.949 E8.89854
G1 X117.143 Y119.911 E8.936
G1 X115.719 Y120.145 E8.9648
G1 X104.337 Y120.2 E9.19194
G1 X102.821 Y119.828 E9.22309
G1 X101.203 Y118.989 E9.25947
G1 X100.051 Y117.755 E9.29315
G1 X99.089 Y116.143 E9.33062
G1 X98.855 Y114.719 E9.35942
G1 X98.805 Y105.676 E9.53988
G1 X98.816 Y105.27 E9.54799
G1 X98.8 Y96.332 E9.72635
G1 X99.171 Y94.822 E9.75738
G1 X100.011 Y93.203 E9.79378
G0 F6000 X100.334 Y93.448
G1 F1200 X101.487 Y92.372 E9.82525
G1 X102.995 Y91.472 E9.8603
G1 X104.346 Y91.25 E9.88762
G1 X115.618 Y91.2 E10.11257
G1 X117.036 Y91.548 E10.14171
G1 X118.552 Y92.334 E10.17579
G1 X119.628 Y93.487 E10.20726
G1 X120.528 Y94.995 E10.2423
G1 X120.75 Y96.346 E10.26963
G1 X120.79 Y105.763 E10.45755
G1 X120.8 Y114.621 E10.63432
G1 X120.452 Y116.036 E10.6634
G1 X119.666 Y117.552 E10.69748
G1 X118.513 Y118.628 E10.72895
G1 X117.005 Y119.528 E10.764
G1 X115.654 Y119.75 E10.79132
G1 X104.382 Y119.8 E11.01627
G1 X102.964 Y119.452 E11.04541
G1 X101.448 Y118.666 E11.07948
G1 X100.372 Y117.513 E11.11096
G1 X99.472 Y116.005 E11.146
G1 X99.25 Y114.654 E11.17333
G1 X99.203 Y105.717 E11.35168
G1 X99.232 Y105.438 E11.35727
G1 X99.215 Y105.236 E11.36132
G1 X99.2 Y96.379 E11.53807
G1 X99.548 Y94.964 E11.56715
G1 X100.334 Y93.448 E11.60123
G0 F6000 X100.657 Y93.693
G1 F1200 X101.729 Y92.693 E11.63048
G1 X103.133 Y91.855 E11.66311
G1 X104.411 Y91.645 E11.68896
G1 X115.573 Y91.6 E11.91171
G1 X116.893 Y91.924 E11.93883
G1 X118.307 Y92.657 E11.97062
G1 X119.307 Y93.729 E11.99987
G1 X120.145 Y95.133 E12.0325
G1 X120.355 Y96.411 E12.05835
G1 X120.394 Y105.334 E12.23642
G1 X120.365 Y105.555 E12.24087
G1 X120.392 Y105.806 E12.2459
G1 X120.4 Y114.575 E12.4209
G1 X120.076 Y115.893 E12.44799
G1 X119.343 Y117.307 E12.47977
G1 X118.271 Y118.307 E12.50902
G1 X116.867 Y119.145 E12.54165
G1 X115.589 Y119.355 E12.5675
G1 X104.427 Y119.4 E12.79025
G1 X103.107 Y119.076 E12.81738
G1 X101.693 Y118.343 E12.84916
G1 X100.693 Y117.271 E12.87842
G1 X99.855 Y115.867 E12.91105
G1 X99.645 Y114.589 E12.93689
G1 X99.603 Y105.715 E13.11398
G1 X99.634 Y105.441 E13.11949
G1 X99.615 Y105.235 E13.12361
G1 X99.6 Y96.425 E13.29943
G1 X99.924 Y95.107 E13.32651
G1 X100.657 Y93.693 E13.3583
G0 F6000 X100.979 Y93.94
G1 F1200 X101.974 Y93.012 E13.38545
G1 X103.271 Y92.238 E13.41559
G1 X104.476 Y92.04 E13.43996
G1 X115.528 Y92 E13.66052
G1 X116.75 Y92.3 E13.68563
G1 X118.06 Y92.979 E13.71507
G1 X118.988 Y93.974 E13.74222
G1 X119.762 Y95.271 E13.77237
G1 X119.96 Y96.476 E13.79674
G1 X119.997 Y105.282 E13.97247
G1 X119.962 Y105.55 E13.97786
G1 X119.994 Y105.849 E13.98386
G1 X120 Y114.529 E14.15708
G1 X119.7 Y115.75 E14.18217
G1 X119.021 Y117.06 E14.21162
G1 X118.026 Y117.988 E14.23877
G1 X116.729 Y118.762 E14.26891
G1 X115.524 Y118.96 E14.29328
G1 X104.472 Y119 E14.51384
G1 X103.25 Y118.7 E14.53895
G1 X101.94 Y118.021 E14.5684
G1 X101.012 Y117.026 E14.59555
G1 X100.238 Y115.729 E14.62569
G1 X100.04 Y114.524 E14.65006
G1 X100.003 Y105.713 E14.82589
G1 X100.037 Y105.446 E14.83126
G1 X100.015 Y105.234 E14.83552
G1 X100 Y96.471 E15.01039
G1 X100.3 Y95.25 E15.03548
G1 X100.979 Y93.94 E15.06493
G0 F6000 X101.301 Y94.187
G1 F1200 X102.216 Y93.334 E15.08989
G1 X103.411 Y92.621 E15.11766
G1 X104.541 Y92.435 E15.14052
G1 X115.483 Y92.4 E15.35888
G1 X116.607 Y92.676 E15.38197
G1 X117.813 Y93.301 E15.40908
G1 X118.666 Y94.216 E15.43405
G1 X119.379 Y95.411 E15.46182
G1 X119.565 Y96.541 E15.48467
G1 X119.6 Y105.23 E15.65807
G1 X119.559 Y105.544 E15.66439
G1 X119.594 Y105.849 E15.67051
G1 X119.6 Y114.483 E15.84282
G1 X119.324 Y115.607 E15.86591
G1 X118.699 Y116.813 E15.89302
G1 X117.784 Y117.666 E15.91798
G1 X116.589 Y118.379 E15.94575
G1 X115.459 Y118.565 E15.96861
G1 X104.517 Y118.6 E16.18697
G1 X103.393 Y118.324 E16.21006
G1 X102.187 Y117.699 E16.23717
G1 X101.334 Y116.784 E16.26213
G1 X100.621 Y115.589 E16.2899
G1 X100.435 Y114.459 E16.31276
G1 X100.4 Y105.764 E16.48628
G1 X100.44 Y105.451 E16.49258
G1 X100.415 Y105.233 E16.49695
G1 X100.4 Y96.517 E16.67089
G1 X100.676 Y95.393 E16.69399
G1 X101.301 Y94.187 E16.7211
G0 F6000 X101.623 Y94.434
G1 F1200 X102.458 Y93.656 E16.74387
G1 X103.551 Y93.004 E16.76927
G1 X104.606 Y92.83 E16.79061
G1 X115.436 Y92.8 E17.00673
G1 X116.465 Y93.053 E17.02788
G1 X117.566 Y93.623 E17.05262
G1 X118.344 Y94.458 E17.0754
G1 X118.996 Y95.551 E17.10079
G1 X119.17 Y96.606 E17.12213
G1 X119.2 Y105.231 E17.29425
G1 X119.155 Y105.544 E17.30056
G1 X119.194 Y105.849 E17.3067
G1 X119.2 Y114.436 E17.47806
G1 X118.947 Y115.465 E17.49921
G1 X118.377 Y116.566 E17.52395
G1 X117.542 Y117.344 E17.54673
G1 X116.449 Y117.996 E17.57212
G1 X115.394 Y118.17 E17.59346
G1 X104.564 Y118.2 E17.80959
G1 X103.535 Y117.947 E17.83073
G1 X102.434 Y117.377 E17.85548
G1 X101.656 Y116.542 E17.87825
G1 X101.004 Y115.449 E17.90365
G1 X100.83 Y114.394 E17.92499
G1 X100.8 Y105.763 E18.09723
G1 X100.844 Y105.451 E18.10352
G1 X100.815 Y105.232 E18.10793
G1 X100.8 Y96.564 E18.28091
G1 X101.053 Y95.535 E18.30205
G1 X101.623 Y94.434 E18.32679
G0 F6000 X101.945 Y94.681
G1 F1200 X102.7 Y93.978 E18.34738
G1 X103.691 Y93.387 E18.37041
G1 X104.671 Y93.225 E18.39023
G1 X115.39 Y93.2 E18.60414
G1 X116.322 Y93.429 E18.62329
G1 X117.319 Y93.945 E18.64569
G1 X118.022 Y94.7 E18.66628
G1 X118.613 Y95.691 E18.68931
G1 X118.775 Y96.671 E18.70913
G1 X118.8 Y105.232 E18.87997
G1 X118.75 Y105.539 E18.88618
G1 X118.794 Y105.849 E18.89243
G1 X118.8 Y114.39 E19.06287
G1 X118.571 Y115.322 E19.08203
G1 X118.055 Y116.319 E19.10443
G1 X117.3 Y117.022 E19.12502
G1 X116.309 Y117.613 E19.14804
G1 X115.329 Y117.775 E19.16787
G1 X104.61 Y117.8 E19.38178
G1 X103.678 Y117.571 E19.40093
G1 X102.681 Y117.055 E19.42333
G1 X101.978 Y116.3 E19.44392
G1 X101.387 Y115.309 E19.46694
G1 X101.225 Y114.329 E19.48677
G1 X101.2 Y105.762 E19.65773
G1 X101.248 Y105.453 E19.66397
G1 X101.212 Y105.18 E19.66947
G1 X101.2 Y96.61 E19.84049
G1 X101.429 Y95.678 E19.85964
G1 X101.945 Y94.681 E19.88205
G0 F6000 X102.268 Y94.926
G1 F1200 X102.939 Y94.302 E19.90033
G1 X103.831 Y93.77 E19.92106
G1 X104.736 Y93.62 E19.93936
G1 X115.344 Y93.6 E20.15106
G1 X116.179 Y93.805 E20.16822
G1 X117.074 Y94.268 E20.18833
G1 X117.698 Y94.939 E20.20661
G1 X118.23 Y95.831 E20.22734
G1 X118.38 Y96.736 E20.24565
G1 X118.4 Y105.233 E20.41521
G1 X118.345 Y105.534 E20.42132
G1 X118.394 Y105.849 E20.42768
G1 X118.4 Y114.344 E20.59721
G1 X118.195 Y115.179 E20.61437
G1 X117.732 Y116.074 E20.63447
G1 X117.061 Y116.698 E20.65276
G1 X116.169 Y117.23 E20.67349
G1 X115.264 Y117.38 E20.69179
G1 X104.656 Y117.4 E20.90349
G1 X103.821 Y117.195 E20.92065
G1 X102.926 Y116.732 E20.94076
G1 X102.302 Y116.061 E20.95904
G1 X101.77 Y115.169 E20.97977
G1 X101.62 Y114.264 E20.99807
G1 X101.6 Y105.761 E21.16776
G1 X101.654 Y105.457 E21.17392
G1 X101.612 Y105.179 E21.17953
G1 X101.6 Y96.656 E21.34962
G1 X101.805 Y95.821 E21.36678
G1 X102.268 Y94.926 E21.38689
G0 F6000 X102.591 Y95.171
G1 F1200 X103.178 Y94.626 E21.40287
G1 X103.971 Y94.153 E21.4213
G1 X104.802 Y94.015 E21.43811
G1 X115.298 Y94 E21.64757
G1 X116.036 Y94.181 E21.66273
G1 X116.829 Y94.591 E21.68055
G1 X117.374 Y95.178 E21.69653
G1 X117.847 Y95.971 E21.71496
G1 X117.985 Y96.802 E21.73177
G1 X118 Y105.234 E21.90004
G1 X117.938 Y105.528 E21.90603
G1 X117.994 Y105.849 E21.91254
G1 X118 Y114.298 E22.08115
G1 X117.819 Y115.036 E22.09631
G1 X117.409 Y115.829 E22.11413
G1 X116.822 Y116.374 E22.13011
G1 X116.029 Y116.847 E22.14854
G1 X115.198 Y116.985 E22.16535
G1 X104.702 Y117 E22.37481
G1 X103.964 Y116.819 E22.38997
G1 X103.171 Y116.409 E22.40779
G1 X102.626 Y115.822 E22.42377
G1 X102.153 Y115.029 E22.4422
G1 X102.015 Y114.198 E22.45901
G1 X102 Y105.76 E22.6274
G1 X102.06 Y105.468 E22.63335
G1 X102.008 Y105.12 E22.64037
G1 X102 Y96.702 E22.80836
G1 X102.181 Y95.964 E22.82352
G1 X102.591 Y95.171 E22.84134
G0 F6000 X102.914 Y95.416
G1 F1200 X103.417 Y94.95 E22.85502
G1 X104.111 Y94.536 E22.87115
G1 X104.868 Y94.41 E22.88646
G1 X115.248 Y94.4 E23.09361
G1 X115.897 Y94.559 E23.10694
G1 X116.584 Y94.914 E23.12237
G1 X117.05 Y95.417 E23.13606
G1 X117.464 Y96.111 E23.15218
G1 X117.59 Y96.868 E23.1675
G1 X117.6 Y105.194 E23.33365
G1 X117.53 Y105.524 E23.34038
G1 X117.594 Y105.849 E23.34699
G1 X117.6 Y114.248 E23.51461
G1 X117.441 Y114.897 E23.52794
G1 X117.086 Y115.584 E23.54337
G1 X116.583 Y116.05 E23.55706
G1 X115.889 Y116.464 E23.57318
G1 X115.132 Y116.59 E23.5885
G1 X104.752 Y116.6 E23.79564
G1 X104.103 Y116.441 E23.80898
G1 X103.416 Y116.086 E23.82441
G1 X102.95 Y115.583 E23.83809
G1 X102.536 Y114.889 E23.85422
G1 X102.41 Y114.132 E23.86953
G1 X102.4 Y105.802 E24.03577
G1 X102.467 Y105.478 E24.04237
G1 X102.404 Y105.06 E24.05081
G1 X102.4 Y96.752 E24.2166
G1 X102.559 Y96.103 E24.22994
G1 X102.914 Y95.416 E24.24537
G0 F6000 X103.237 Y95.662
G1 F1200 X103.656 Y95.274 E24.25676
G1 X104.251 Y94.919 E24.27059
G1 X104.934 Y94.805 E24.28441
G1 X115.198 Y94.8 E24.48924
G1 X115.758 Y94.937 E24.50074
G1 X116.338 Y95.237 E24.51377
G1 X116.726 Y95.656 E24.52517
G1 X117.081 Y96.251 E24.539
G1 X117.195 Y96.934 E24.55282
G1 X117.2 Y105.194 E24.71765
G1 X117.121 Y105.515 E24.72425
G1 X117.194 Y105.89 E24.73187
G1 X117.2 Y114.198 E24.89767
G1 X117.063 Y114.758 E24.90917
G1 X116.763 Y115.338 E24.92221
G1 X116.344 Y115.726 E24.9336
G1 X115.749 Y116.081 E24.94743
G1 X115.066 Y116.195 E24.96125
G1 X104.802 Y116.2 E25.16608
G1 X104.242 Y116.063 E25.17758
G1 X103.662 Y115.763 E25.19061
G1 X103.274 Y115.344 E25.20201
G1 X102.919 Y114.749 E25.21583
G1 X102.805 Y114.066 E25.22965
G1 X102.8 Y105.802 E25.39457
G1 X102.875 Y105.496 E25.40086
G1 X102.8 Y105 E25.41087
G1 X102.8 Y96.802 E25.57447
G1 X102.937 Y96.242 E25.58597
G1 X103.237 Y95.662 E25.599
G0 F6000 X103.56 Y95.908
G1 F1200 X103.898 Y95.595 E25.6082
G1 X104.389 Y95.302 E25.61961
G1 X105 Y95.2 E25.63197
G1 X115.148 Y95.2 E25.83448
G1 X115.619 Y95.315 E25.84416
G1 X116.092 Y95.56 E25.85479
G1 X116.405 Y95.898 E25.86398
G1 X116.698 Y96.389 E25.87539
G1 X116.8 Y97 E25.88776
G1 X116.8 Y105.148 E26.05036
G1 X116.712 Y105.507 E26.05773
G1 X116.794 Y105.93 E26.06633
G1 X116.8 Y114.148 E26.23033
G1 X116.685 Y114.619 E26.24001
G1 X116.44 Y115.092 E26.25064
G1 X116.102 Y115.405 E26.25983
G1 X115.611 Y115.698 E26.27124
G1 X115 Y115.8 E26.2836
G1 X104.852 Y115.8 E26.48612
G1 X104.381 Y115.685 E26.49579
G1 X103.908 Y115.44 E26.50642
G1 X103.595 Y115.102 E26.51562
G1 X103.302 Y114.611 E26.52703
G1 X103.2 Y114 E26.53939
G1 X103.2 Y105.852 E26.70199
G1 X103.283 Y105.513 E26.70896
G1 X103.2 Y105 E26.71933
G1 X103.2 Y96.852 E26.88193
G1 X103.315 Y96.381 E26.8916
G1 X103.56 Y95.908 E26.90223
G0 F6000 X103.883 Y96.154
G1 F1200 X103.693 Y96.52 E26.91046
G1 X103.6 Y96.902 E26.91831
G1 X103.6 Y105 E27.07991
G1 X103.662 Y105.351 E27.08703
G1 X103.706 Y105.467 E27.0895
G1 X103.6 Y105.902 E27.09844
G1 X103.6 Y114 E27.26004
G1 X103.685 Y114.473 E27.26963
G1 X103.916 Y114.86 E27.27863
G1 X104.154 Y115.117 E27.28562
G1 X104.52 Y115.307 E27.29385
G1 X104.902 Y115.4 E27.30169
G1 X115 Y115.4 E27.50321
G1 X115.473 Y115.315 E27.5128
G1 X115.86 Y115.084 E27.52179
G1 X116.117 Y114.846 E27.52878
G1 X116.307 Y114.48 E27.53701
G1 X116.4 Y114.098 E27.54486
G1 X116.4 Y106 E27.70646
G1 X116.338 Y105.649 E27.71358
G1 X116.294 Y105.533 E27.71605
G1 X116.4 Y105.098 E27.72499
G1 X116.4 Y97 E27.88659
G1 X116.315 Y96.527 E27.89618
G1 X116.084 Y96.14 E27.90518
