;FLAVOR:Marlin
;TIME:844
;Filament used: 0.267314m
;Layer height: 0.12
;MINX:88.6
;MINY:88.6
;MINZ:0.12
;MAXX:131.4
;MAXY:131.4
;MAXZ:6.24
;TARGET_MACHINE.NAME:Creality Ender-3 Pro
;Generated with Cura_SteamEngine 5.6.0
M82 ;absolute extrusion mode
; Ender 3 Custom Start G-code
G92 E0 ; Reset Extruder
G28 ; Home all axes
G1 Z5.0 F3000 ; Move Z Axis up a bit during heating to not damage bed
M104 S175 ; Start heating up the nozzle most of the way
M190 S60 ; Start heating the bed, wait until target temperature reached
M109 S200 ; Finish heating the nozzle
G1 Z2.0 F3000 ; Move Z Axis up little to prevent scratching of Heat Bed
G1 X0.1 Y20 Z0.3 F5000.0 ; Move to start position
G1 X0.1 Y200.0 Z0.3 F1500.0 E15 ; Draw the first line
G1 X0.4 Y200.0 Z0.3 F5000.0 ; Move to side a little
G1 X0.4 Y20 Z0.3 F1500.0 E30 ; Draw the second line
G92 E0 ; Reset Extruder
G1 Z2.0 F3000 ; Move Z Axis up little to prevent scratching of Heat Bed
G1 X5 Y20 Z0.3 F5000.0 ; Move over to prevent blob squish
G92 E0
G92 E0
G1 F1500 E-6.5
;LAYER_COUNT:52
;LAYER:0
M107
G0 F6000 X94.315 Y95.439 Z0.12
;TYPE:SKIRT
G1 F1500 E0
G1 F1200 X95.517 Y94.243 E0.03384
G1 X96.357 Y93.51 E0.05609
G1 X97.616 Y92.541 E0.08779
G1 X98.428 Y91.993 E0.10734
G1 X99.93 Y91.117 E0.14204
G1 X100.875 Y90.64 E0.16316
G1 X102.209 Y90.067 E0.19214
G1 X103.574 Y89.588 E0.22101
G1 X104.92 Y89.208 E0.24892
G1 X105.872 Y88.997 E0.26838
G1 X107.074 Y88.803 E0.29267
G1 X108.957 Y88.627 E0.33042
G1 X110.262 Y88.6 E0.35646
G1 X111.127 Y88.629 E0.37374
G1 X112.96 Y88.806 E0.41048
G1 X113.84 Y88.948 E0.42827
G1 X115.587 Y89.342 E0.46401
G1 X116.441 Y89.593 E0.48178
G1 X117.966 Y90.146 E0.51415
G1 X119.375 Y90.767 E0.54488
G1 X120.555 Y91.378 E0.57139
G1 X121.341 Y91.846 E0.58965
G1 X122.777 Y92.827 E0.62435
G1 X123.538 Y93.42 E0.64361
G1 X124.737 Y94.486 E0.67562
G1 X125.695 Y95.45 E0.70275
G1 X126.544 Y96.419 E0.72846
G1 X127.323 Y97.427 E0.75388
G1 X127.957 Y98.357 E0.77634
G1 X128.84 Y99.848 E0.81092
G1 X129.371 Y100.898 E0.8344
G1 X129.923 Y102.183 E0.86231
G1 X130.409 Y103.57 E0.89164
G1 X130.792 Y104.939 E0.92001
G1 X131.047 Y106.117 E0.94406
G1 X131.236 Y107.369 E0.96933
G1 X131.373 Y108.948 E1.00096
G1 X131.4 Y110.252 E1.02699
G1 X131.372 Y111.119 E1.0443
G1 X131.196 Y112.951 E1.08103
G1 X131.039 Y113.907 E1.10036
G1 X130.66 Y115.567 E1.13434
G1 X130.404 Y116.444 E1.15257
G1 X129.802 Y118.12 E1.18811
G1 X129.426 Y118.984 E1.20691
G1 X128.676 Y120.455 E1.23986
G1 X128.092 Y121.434 E1.26261
G1 X127.18 Y122.77 E1.29489
G1 X126.601 Y123.513 E1.31369
G1 X125.529 Y124.721 E1.34592
G1 X124.453 Y125.787 E1.37615
G1 X123.764 Y126.391 E1.39443
G1 X122.377 Y127.462 E1.4294
G1 X121.553 Y128.018 E1.44924
G1 X120.073 Y128.881 E1.48343
G1 X119.119 Y129.363 E1.50476
G1 X117.794 Y129.932 E1.53354
G1 X116.428 Y130.411 E1.56243
G1 X115.071 Y130.794 E1.59056
G1 X114.128 Y131.003 E1.60984
G1 X112.926 Y131.197 E1.63414
G1 X111.043 Y131.373 E1.67188
G1 X109.738 Y131.4 E1.69793
G1 X108.873 Y131.371 E1.7152
G1 X107.044 Y131.195 E1.75187
G1 X106.157 Y131.052 E1.7698
G1 X104.404 Y130.657 E1.80566
G1 X103.549 Y130.406 E1.82344
G1 X102.006 Y129.848 E1.85618
G1 X100.698 Y129.273 E1.8847
G1 X99.597 Y128.704 E1.90943
G1 X98.575 Y128.096 E1.93316
G1 X97.379 Y127.279 E1.96206
G1 X96.211 Y126.368 E1.99162
G1 X95.45 Y125.696 E2.01188
G1 X94.234 Y124.477 E2.04624
G1 X93.595 Y123.748 E2.06559
G1 X92.578 Y122.432 E2.09878
G1 X92.056 Y121.664 E2.11731
G1 X91.146 Y120.128 E2.15294
G1 X90.639 Y119.125 E2.17537
G1 X90.077 Y117.816 E2.2038
G1 X89.591 Y116.429 E2.23313
G1 X89.208 Y115.06 E2.26149
G1 X88.953 Y113.882 E2.28555
G1 X88.764 Y112.63 E2.31081
G1 X88.627 Y111.051 E2.34244
G1 X88.6 Y109.748 E2.36845
G1 X88.628 Y108.882 E2.38574
G1 X88.803 Y107.057 E2.42233
G1 X88.946 Y106.168 E2.4403
G1 X89.34 Y104.419 E2.47608
G1 X89.645 Y103.386 E2.49757
G1 X90.114 Y102.083 E2.52521
G1 X90.607 Y100.95 E2.54987
G1 X91.276 Y99.637 E2.57927
G1 X91.998 Y98.426 E2.60741
G1 X92.635 Y97.494 E2.62994
G1 X93.672 Y96.165 E2.66358
G1 X94.315 Y95.439 E2.68293
G0 F6000 X94.597 Y95.723
G1 F1200 X95.799 Y94.527 E2.71677
G1 X96.601 Y93.827 E2.73801
G1 X97.84 Y92.873 E2.76922
G1 X98.652 Y92.325 E2.78877
G1 X100.11 Y91.474 E2.82246
G1 X101.033 Y91.008 E2.84309
G1 X102.367 Y90.435 E2.87206
G1 X103.683 Y89.973 E2.8999
G1 X105.007 Y89.599 E2.92735
G1 X105.959 Y89.388 E2.94681
G1 X107.138 Y89.198 E2.97065
G1 X108.965 Y89.027 E3.00726
G1 X110.249 Y89 E3.03289
G1 X111.114 Y89.029 E3.05017
G1 X112.896 Y89.201 E3.08589
G1 X113.776 Y89.343 E3.10368
G1 X115.474 Y89.726 E3.13842
G1 X116.328 Y89.977 E3.15618
G1 X117.805 Y90.512 E3.18753
G1 X119.191 Y91.122 E3.21775
G1 X120.35 Y91.722 E3.24379
G1 X121.136 Y92.19 E3.26205
G1 X122.531 Y93.143 E3.29576
G1 X123.292 Y93.736 E3.31502
G1 X124.453 Y94.768 E3.34602
G1 X125.411 Y95.732 E3.37314
G1 X126.227 Y96.664 E3.39786
G1 X127.006 Y97.672 E3.42328
G1 X127.626 Y98.582 E3.44526
G1 X128.483 Y100.029 E3.47882
G1 X129.003 Y101.056 E3.50179
G1 X129.555 Y102.341 E3.5297
G1 X130.024 Y103.678 E3.55797
G1 X130.401 Y105.024 E3.58587
G1 X130.651 Y106.177 E3.60941
G1 X130.84 Y107.429 E3.63468
G1 X130.973 Y108.956 E3.66527
G1 X131 Y110.239 E3.69088
G1 X130.972 Y111.106 E3.70819
G1 X130.801 Y112.887 E3.74389
G1 X130.649 Y113.818 E3.76272
G1 X130.276 Y115.455 E3.79622
G1 X130.02 Y116.332 E3.81446
G1 X129.435 Y117.96 E3.84898
G1 X129.059 Y118.824 E3.86778
G1 X128.332 Y120.25 E3.89972
G1 X127.748 Y121.229 E3.92247
G1 X126.864 Y122.524 E3.95376
G1 X126.285 Y123.267 E3.97256
G1 X125.23 Y124.455 E4.00427
G1 X124.189 Y125.486 E4.03351
G1 X123.5 Y126.09 E4.05179
G1 X122.153 Y127.13 E4.08575
G1 X121.329 Y127.686 E4.10559
G1 X119.893 Y128.524 E4.13877
G1 X118.961 Y128.995 E4.15961
G1 X117.636 Y129.564 E4.18839
G1 X116.319 Y130.026 E4.21624
G1 X114.984 Y130.403 E4.24392
G1 X114.041 Y130.612 E4.2632
G1 X112.862 Y130.802 E4.28703
G1 X111.035 Y130.973 E4.32365
G1 X109.751 Y131 E4.34928
G1 X108.886 Y130.971 E4.36655
G1 X107.108 Y130.8 E4.40219
G1 X106.221 Y130.657 E4.42012
G1 X104.517 Y130.273 E4.45498
G1 X103.662 Y130.022 E4.47276
G1 X102.167 Y129.482 E4.50448
G1 X100.882 Y128.918 E4.53249
G1 X99.802 Y128.36 E4.55675
G1 X98.78 Y127.752 E4.58048
G1 X97.605 Y126.949 E4.60888
G1 X96.476 Y126.068 E4.63746
G1 X95.715 Y125.396 E4.65772
G1 X94.535 Y124.213 E4.69106
G1 X93.912 Y123.503 E4.70991
G1 X92.895 Y122.187 E4.7431
G1 X92.387 Y121.439 E4.76115
G1 X91.503 Y119.947 E4.79576
G1 X91.007 Y118.967 E4.81768
G1 X90.445 Y117.658 E4.8461
G1 X89.976 Y116.321 E4.87438
G1 X89.599 Y114.975 E4.90227
G1 X89.349 Y113.822 E4.92582
G1 X89.16 Y112.57 E4.95109
G1 X89.027 Y111.043 E4.98168
G1 X89 Y109.761 E5.00726
G1 X89.028 Y108.895 E5.02456
G1 X89.198 Y107.121 E5.06012
G1 X89.341 Y106.232 E5.07809
G1 X89.724 Y104.532 E5.11286
G1 X90.029 Y103.499 E5.13436
G1 X90.481 Y102.243 E5.161
G1 X90.974 Y101.11 E5.18566
G1 X91.62 Y99.842 E5.21405
G1 X92.342 Y98.631 E5.24219
G1 X92.95 Y97.74 E5.26372
G1 X93.971 Y96.43 E5.29686
G1 X94.597 Y95.723 E5.31571
G0 F6000 X94.879 Y96.007
G1 F1200 X96.081 Y94.811 E5.34954
G1 X96.845 Y94.144 E5.36978
G1 X98.064 Y93.205 E5.40049
G1 X98.876 Y92.657 E5.42004
G1 X100.29 Y91.831 E5.45272
G1 X101.191 Y91.376 E5.47286
G1 X102.525 Y90.803 E5.50184
G1 X103.792 Y90.358 E5.52863
G1 X105.094 Y89.99 E5.55564
G1 X106.046 Y89.779 E5.57509
G1 X107.202 Y89.593 E5.59846
G1 X108.974 Y89.427 E5.63398
G1 X110.236 Y89.4 E5.65917
G1 X111.101 Y89.429 E5.67644
G1 X112.832 Y89.596 E5.71114
G1 X113.712 Y89.738 E5.72893
G1 X115.361 Y90.11 E5.76267
G1 X116.215 Y90.361 E5.78043
G1 X117.644 Y90.878 E5.81076
G1 X119.007 Y91.477 E5.84047
G1 X120.145 Y92.066 E5.86604
G1 X120.931 Y92.534 E5.88429
G1 X122.285 Y93.459 E5.91702
G1 X123.046 Y94.052 E5.93627
G1 X124.169 Y95.05 E5.96625
G1 X125.11 Y95.996 E5.99288
G1 X125.91 Y96.909 E6.01711
G1 X126.689 Y97.917 E6.04253
G1 X127.295 Y98.807 E6.06402
G1 X128.139 Y100.233 E6.09708
G1 X128.635 Y101.214 E6.11902
G1 X129.187 Y102.499 E6.14693
G1 X129.646 Y103.81 E6.17465
G1 X130.01 Y105.109 E6.20157
G1 X130.255 Y106.237 E6.22461
G1 X130.444 Y107.489 E6.24987
G1 X130.573 Y108.965 E6.27944
G1 X130.6 Y110.226 E6.30461
G1 X130.572 Y111.093 E6.32192
G1 X130.406 Y112.823 E6.35661
G1 X130.259 Y113.729 E6.37492
G1 X129.892 Y115.343 E6.40795
G1 X129.643 Y116.197 E6.42571
G1 X129.068 Y117.8 E6.45969
G1 X128.692 Y118.664 E6.4785
G1 X127.988 Y120.045 E6.50943
G1 X127.404 Y121.024 E6.53218
G1 X126.548 Y122.278 E6.56248
G1 X125.969 Y123.021 E6.58128
G1 X124.949 Y124.171 E6.61195
G1 X123.925 Y125.185 E6.64071
G1 X123.236 Y125.789 E6.65899
G1 X121.929 Y126.798 E6.69195
G1 X121.105 Y127.354 E6.71178
G1 X119.713 Y128.167 E6.74395
G1 X118.803 Y128.627 E6.7643
G1 X117.478 Y129.196 E6.79308
G1 X116.21 Y129.641 E6.81989
G1 X114.897 Y130.012 E6.84712
G1 X113.954 Y130.221 E6.8664
G1 X112.798 Y130.407 E6.88976
G1 X111.026 Y130.573 E6.92528
G1 X109.764 Y130.6 E6.95047
G1 X108.899 Y130.571 E6.96774
G1 X107.172 Y130.405 E7.00237
G1 X106.285 Y130.262 E7.0203
G1 X104.63 Y129.889 E7.05415
G1 X103.775 Y129.638 E7.07193
G1 X102.328 Y129.116 E7.10263
G1 X101.066 Y128.563 E7.13013
G1 X100.007 Y128.016 E7.15391
G1 X98.985 Y127.408 E7.17765
G1 X97.851 Y126.634 E7.20505
G1 X96.741 Y125.768 E7.23314
G1 X95.98 Y125.096 E7.2534
G1 X94.836 Y123.949 E7.28573
G1 X94.229 Y123.258 E7.30408
G1 X93.212 Y121.942 E7.33727
G1 X92.718 Y121.214 E7.35483
G1 X91.847 Y119.743 E7.38895
G1 X91.375 Y118.809 E7.40983
G1 X90.813 Y117.5 E7.43826
G1 X90.354 Y116.189 E7.46598
G1 X89.99 Y114.89 E7.4929
G1 X89.745 Y113.762 E7.51593
G1 X89.556 Y112.51 E7.5412
G1 X89.427 Y111.034 E7.57077
G1 X89.4 Y109.774 E7.59592
G1 X89.428 Y108.908 E7.61321
G1 X89.593 Y107.185 E7.64775
G1 X89.736 Y106.296 E7.66572
G1 X90.108 Y104.645 E7.6995
G1 X90.413 Y103.612 E7.72099
G1 X90.848 Y102.403 E7.74663
G1 X91.341 Y101.27 E7.77129
G1 X91.964 Y100.047 E7.79868
G1 X92.686 Y98.836 E7.82682
G1 X93.28 Y97.966 E7.84784
G1 X94.271 Y96.695 E7.88
G1 X94.879 Y96.007 E7.89832
G0 F6000 X95.179 Y96.272
G1 F1200 X96.344 Y95.112 E7.93113
G1 X97.089 Y94.461 E7.95088
G1 X98.288 Y93.537 E7.98108
G1 X99.1 Y92.989 E8.00063
G1 X100.47 Y92.188 E8.0323
G1 X101.349 Y91.744 E8.05196
G1 X102.683 Y91.171 E8.08093
G1 X103.901 Y90.743 E8.10669
G1 X105.181 Y90.381 E8.13324
G1 X106.133 Y90.17 E8.1527
G1 X107.265 Y89.988 E8.17558
G1 X108.983 Y89.827 E8.21001
G1 X110.223 Y89.8 E8.23476
G1 X111.088 Y89.829 E8.25204
G1 X112.768 Y89.991 E8.28572
G1 X113.648 Y90.133 E8.30351
G1 X115.248 Y90.494 E8.33624
G1 X116.102 Y90.745 E8.354
G1 X117.483 Y91.244 E8.3833
G1 X118.823 Y91.832 E8.41251
G1 X119.94 Y92.41 E8.43761
G1 X120.726 Y92.878 E8.45586
G1 X122.039 Y93.775 E8.48759
G1 X122.8 Y94.368 E8.50685
G1 X123.885 Y95.332 E8.53581
G1 X124.826 Y96.278 E8.56244
G1 X125.593 Y97.154 E8.58567
G1 X126.372 Y98.162 E8.6111
G1 X126.951 Y99.011 E8.6316
G1 X127.782 Y100.414 E8.66415
G1 X128.267 Y101.372 E8.68557
G1 X128.819 Y102.657 E8.71348
G1 X129.261 Y103.918 E8.74015
G1 X129.619 Y105.194 E8.7666
G1 X129.859 Y106.297 E8.78912
G1 X130.048 Y107.549 E8.81439
G1 X130.173 Y108.974 E8.84294
G1 X130.2 Y110.213 E8.86767
G1 X130.172 Y111.08 E8.88498
G1 X130.011 Y112.759 E8.91864
G1 X129.869 Y113.64 E8.93645
G1 X129.508 Y115.231 E8.96901
G1 X129.259 Y116.085 E8.98676
G1 X128.701 Y117.64 E9.01973
G1 X128.325 Y118.504 E9.03853
G1 X127.644 Y119.84 E9.06846
G1 X127.06 Y120.819 E9.09121
G1 X126.232 Y122.032 E9.12051
G1 X125.653 Y122.775 E9.13931
G1 X124.65 Y123.905 E9.16946
G1 X123.661 Y124.884 E9.19723
G1 X122.972 Y125.488 E9.21552
G1 X121.705 Y126.466 E9.24746
G1 X120.881 Y127.022 E9.2673
G1 X119.533 Y127.81 E9.29846
G1 X118.645 Y128.259 E9.31832
G1 X117.32 Y128.828 E9.34709
G1 X116.101 Y129.256 E9.37287
G1 X114.81 Y129.621 E9.39965
G1 X113.867 Y129.83 E9.41892
G1 X112.735 Y130.012 E9.4418
G1 X111.017 Y130.173 E9.47624
G1 X109.777 Y130.2 E9.50099
G1 X108.912 Y130.171 E9.51826
G1 X107.236 Y130.01 E9.55186
G1 X106.349 Y129.867 E9.56979
G1 X104.743 Y129.505 E9.60264
G1 X103.888 Y129.254 E9.62043
G1 X102.488 Y128.75 E9.65012
G1 X101.25 Y128.208 E9.67709
G1 X100.212 Y127.672 E9.7004
G1 X99.19 Y127.064 E9.72413
G1 X98.097 Y126.318 E9.75054
G1 X97.006 Y125.468 E9.77814
G1 X96.245 Y124.796 E9.7984
G1 X95.137 Y123.685 E9.82972
G1 X94.53 Y122.994 E9.84807
G1 X93.543 Y121.717 E9.88028
G1 X93.049 Y120.989 E9.89784
G1 X92.204 Y119.562 E9.93093
G1 X91.743 Y118.651 E9.95131
G1 X91.181 Y117.342 E9.97973
G1 X90.739 Y116.081 E10.0064
G1 X90.381 Y114.805 E10.03285
G1 X90.141 Y113.702 E10.05537
G1 X89.952 Y112.45 E10.08064
G1 X89.827 Y111.025 E10.10919
G1 X89.8 Y109.787 E10.1339
G1 X89.828 Y108.921 E10.15119
G1 X89.988 Y107.249 E10.18471
G1 X90.131 Y106.36 E10.20268
G1 X90.492 Y104.758 E10.23545
G1 X90.797 Y103.725 E10.25695
G1 X91.215 Y102.563 E10.28159
G1 X91.708 Y101.43 E10.30625
G1 X92.308 Y100.252 E10.33263
G1 X93.03 Y99.041 E10.36076
G1 X93.61 Y98.192 E10.38128
G1 X94.571 Y96.96 E10.41246
G1 X95.179 Y96.272 E10.43079
G0 F6000 X95.479 Y96.537
G1 F1200 X96.607 Y95.413 E10.46257
G1 X97.333 Y94.778 E10.48181
G1 X98.512 Y93.869 E10.51152
G1 X99.324 Y93.321 E10.53107
G1 X100.651 Y92.545 E10.56175
G1 X101.507 Y92.112 E10.58089
G1 X102.841 Y91.539 E10.60987
G1 X104.01 Y91.128 E10.63459
G1 X105.268 Y90.772 E10.66069
G1 X106.22 Y90.561 E10.68014
G1 X107.328 Y90.383 E10.70254
G1 X108.992 Y90.227 E10.73589
G1 X110.21 Y90.2 E10.7602
G1 X111.075 Y90.229 E10.77748
G1 X112.704 Y90.386 E10.81014
G1 X113.584 Y90.528 E10.82792
G1 X115.135 Y90.878 E10.85965
G1 X115.989 Y91.129 E10.87742
G1 X117.322 Y91.61 E10.9057
G1 X118.639 Y92.187 E10.93439
G1 X119.735 Y92.754 E10.95902
G1 X120.521 Y93.222 E10.97727
G1 X121.793 Y94.091 E11.00801
G1 X122.554 Y94.684 E11.02727
G1 X123.602 Y95.614 E11.05523
G1 X124.525 Y96.541 E11.08133
G1 X125.276 Y97.399 E11.10409
G1 X126.055 Y98.407 E11.12951
G1 X126.62 Y99.236 E11.14953
G1 X127.438 Y100.618 E11.18158
G1 X127.899 Y101.53 E11.20197
G1 X128.451 Y102.815 E11.22988
G1 X128.876 Y104.026 E11.2555
G1 X129.228 Y105.279 E11.28147
G1 X129.463 Y106.357 E11.30349
G1 X129.652 Y107.609 E11.32875
G1 X129.773 Y108.983 E11.35628
G1 X129.8 Y110.2 E11.38057
G1 X129.772 Y111.067 E11.39788
G1 X129.616 Y112.695 E11.43052
G1 X129.474 Y113.576 E11.44833
G1 X129.124 Y115.119 E11.4799
G1 X128.875 Y115.973 E11.49766
G1 X128.334 Y117.48 E11.52961
G1 X127.958 Y118.344 E11.54841
G1 X127.3 Y119.635 E11.57733
G1 X126.716 Y120.614 E11.60008
G1 X125.916 Y121.786 E11.6284
G1 X125.337 Y122.529 E11.64719
G1 X124.368 Y123.621 E11.67633
G1 X123.397 Y124.583 E11.70361
G1 X122.708 Y125.187 E11.72189
G1 X121.481 Y126.134 E11.75282
G1 X120.657 Y126.69 E11.77266
G1 X119.352 Y127.453 E11.80283
G1 X118.487 Y127.891 E11.82217
G1 X117.162 Y128.46 E11.85095
G1 X115.992 Y128.871 E11.8757
G1 X114.723 Y129.23 E11.90202
G1 X113.78 Y129.439 E11.92129
G1 X112.672 Y129.617 E11.94369
G1 X111.008 Y129.773 E11.97704
G1 X109.79 Y129.8 E12.00135
G1 X108.925 Y129.771 E12.01862
G1 X107.3 Y129.615 E12.0512
G1 X106.413 Y129.472 E12.06913
G1 X104.856 Y129.121 E12.10098
G1 X104.001 Y128.87 E12.11876
G1 X102.648 Y128.383 E12.14746
G1 X101.433 Y127.852 E12.17392
G1 X100.417 Y127.328 E12.19674
G1 X99.395 Y126.72 E12.22047
G1 X98.323 Y125.988 E12.24637
G1 X97.271 Y125.168 E12.27299
G1 X96.51 Y124.496 E12.29325
G1 X95.438 Y123.421 E12.32355
G1 X94.831 Y122.73 E12.3419
G1 X93.874 Y121.492 E12.37313
G1 X93.38 Y120.764 E12.39068
G1 X92.548 Y119.358 E12.42329
G1 X92.111 Y118.493 E12.44263
G1 X91.549 Y117.184 E12.47106
G1 X91.124 Y115.973 E12.49667
G1 X90.772 Y114.72 E12.52264
G1 X90.537 Y113.642 E12.54466
G1 X90.348 Y112.39 E12.56993
G1 X90.227 Y111.016 E12.59745
G1 X90.2 Y109.8 E12.62172
G1 X90.228 Y108.934 E12.63902
G1 X90.383 Y107.313 E12.67151
G1 X90.526 Y106.424 E12.68948
G1 X90.876 Y104.871 E12.72125
G1 X91.181 Y103.838 E12.74274
G1 X91.582 Y102.723 E12.76639
G1 X92.075 Y101.59 E12.79105
G1 X92.652 Y100.457 E12.81642
G1 X93.374 Y99.246 E12.84456
G1 X93.94 Y98.418 E12.86457
G1 X94.871 Y97.225 E12.89477
G1 X95.479 Y96.537 E12.9131
G0 F6000 X95.779 Y96.802
G1 F1200 X96.87 Y95.714 E12.94384
G1 X97.577 Y95.095 E12.9626
G1 X98.736 Y94.201 E12.99181
G1 X99.548 Y93.653 E13.01136
G1 X100.832 Y92.902 E13.04104
