;FLAVOR:Marlin
;TIME:987
;Filament used: 0.380751m
;Layer height: 0.12
;MINX:88.6
;MINY:88.6
;MINZ:0.12
;MAXX:131.4
;MAXY:131.4
;MAXZ:7.32
;TARGET_MACHINE.NAME:Creality Ender-3 Pro
;Generated with Cura_SteamEngine 5.6.0
M82 ;absolute extrusion mode
; Ender 3 Custom Start G-code
G92 E0 ; Reset Extruder
G28 ; Home all axes
G1 Z5.0 F3000 ; Move Z Axis up a bit during heating to not damage bed
M104 S175 ; Start heating up the nozzle most of the way
M190 S60 ; Start heating the bed, wait until target temperature reached
M109 S200 ; Finish heating the nozzle
G1 Z2.0 F3000 ; Move Z Axis up little to prevent scratching of Heat Bed
G1 X0.1 Y20 Z0.3 F5000.0 ; Move to start position
G1 X0.1 Y200.0 Z0.3 F1500.0 E15 ; Draw the first line
G1 X0.4 Y200.0 Z0.3 F5000.0 ; Move to side a little
G1 X0.4 Y20 Z0.3 F1500.0 E30 ; Draw the second line
G92 E0 ; Reset Extruder
G1 Z2.0 F3000 ; Move Z Axis up little to prevent scratching of Heat Bed
G1 X5 Y20 Z0.3 F5000.0 ; Move over to prevent blob squish
G92 E0
G92 E0
G1 F1500 E-6.5
;LAYER_COUNT:61
;LAYER:0
M107
G0 F6000 X94.303 Y95.451 Z0.12
;TYPE:SKIRT
G1 F1500 E0
G1 F1200 X95.522 Y94.235 E0.03436
G1 X96.24 Y93.605 E0.05342
G1 X97.64 Y92.532 E0.08862
G1 X98.575 Y91.907 E0.11107
G1 X99.922 Y91.121 E0.14219
G1 X100.889 Y90.633 E0.16381
G1 X102.188 Y90.075 E0.19202
G1 X103.561 Y89.594 E0.22105
G1 X104.94 Y89.208 E0.24963
G1 X106.118 Y88.953 E0.27368
G1 X107.37 Y88.764 E0.29895
G1 X108.951 Y88.627 E0.33062
G1 X110.268 Y88.6 E0.35691
G1 X111.133 Y88.629 E0.37418
G1 X112.976 Y88.807 E0.41113
G1 X113.956 Y88.969 E0.43095
G1 X115.581 Y89.344 E0.46423
G1 X116.481 Y89.608 E0.48295
G1 X118.123 Y90.198 E0.51777
G1 X118.979 Y90.571 E0.5364
G1 X120.309 Y91.249 E0.56619
G1 X121.686 Y92.071 E0.5982
G1 X122.434 Y92.58 E0.61625
G1 X123.841 Y93.679 E0.65188
G1 X124.669 Y94.418 E0.67403
G1 X125.695 Y95.45 E0.70307
G1 X126.544 Y96.419 E0.72878
G1 X127.323 Y97.427 E0.7542
G1 X127.957 Y98.357 E0.77666
G1 X128.84 Y99.848 E0.81124
G1 X129.371 Y100.898 E0.83472
G1 X129.923 Y102.183 E0.86263
G1 X130.409 Y103.57 E0.89196
G1 X130.792 Y104.939 E0.92033
G1 X131.047 Y106.117 E0.94438
G1 X131.236 Y107.369 E0.96965
G1 X131.373 Y108.948 E1.00128
G1 X131.4 Y110.252 E1.02731
G1 X131.372 Y111.119 E1.04462
G1 X131.196 Y112.951 E1.08135
G1 X131.039 Y113.907 E1.10068
G1 X130.66 Y115.567 E1.13466
G1 X130.404 Y116.444 E1.15289
G1 X129.802 Y118.12 E1.18843
G1 X129.426 Y118.984 E1.20724
G1 X128.735 Y120.34 E1.23761
G1 X128.006 Y121.562 E1.266
G1 X127.303 Y122.591 E1.29087
G1 X126.377 Y123.779 E1.32093
G1 X125.697 Y124.549 E1.34143
G1 X124.478 Y125.765 E1.37579
G1 X123.76 Y126.395 E1.39485
G1 X122.36 Y127.468 E1.43006
G1 X121.425 Y128.093 E1.4525
G1 X120.078 Y128.879 E1.48362
G1 X119.111 Y129.367 E1.50524
G1 X117.812 Y129.925 E1.53345
G1 X116.439 Y130.406 E1.56248
G1 X115.06 Y130.792 E1.59106
G1 X113.882 Y131.047 E1.61511
G1 X112.63 Y131.236 E1.64038
G1 X111.049 Y131.373 E1.67205
G1 X109.732 Y131.4 E1.69834
G1 X108.867 Y131.371 E1.71561
G1 X107.024 Y131.193 E1.75256
G1 X106.044 Y131.031 E1.77238
G1 X104.419 Y130.656 E1.80566
G1 X103.519 Y130.392 E1.82438
G1 X101.877 Y129.802 E1.8592
G1 X101.021 Y129.429 E1.87783
G1 X99.691 Y128.751 E1.90762
G1 X98.314 Y127.929 E1.93963
G1 X97.565 Y127.419 E1.95771
G1 X96.158 Y126.32 E1.99334
G1 X95.33 Y125.581 E2.01549
G1 X94.304 Y124.549 E2.04453
G1 X93.455 Y123.58 E2.07024
G1 X92.676 Y122.572 E2.09566
G1 X92.043 Y121.643 E2.11809
G1 X91.146 Y120.128 E2.15323
G1 X90.639 Y119.125 E2.17566
G1 X90.077 Y117.816 E2.20408
G1 X89.591 Y116.429 E2.23341
G1 X89.208 Y115.06 E2.26178
G1 X88.953 Y113.882 E2.28584
G1 X88.764 Y112.63 E2.3111
G1 X88.627 Y111.051 E2.34273
G1 X88.6 Y109.748 E2.36874
G1 X88.628 Y108.881 E2.38605
G1 X88.804 Y107.049 E2.42278
G1 X88.961 Y106.093 E2.44211
G1 X89.34 Y104.433 E2.47609
G1 X89.596 Y103.556 E2.49432
G1 X90.198 Y101.88 E2.52986
G1 X90.574 Y101.016 E2.54867
G1 X91.265 Y99.66 E2.57904
G1 X91.994 Y98.438 E2.60743
G1 X92.697 Y97.409 E2.6323
G1 X93.623 Y96.221 E2.66236
G1 X94.303 Y95.451 E2.68286
G0 F6000 X94.603 Y95.716
G1 F1200 X95.786 Y94.536 E2.71621
G1 X96.504 Y93.906 E2.73527
G1 X97.862 Y92.865 E2.76942
G1 X98.797 Y92.24 E2.79186
G1 X100.102 Y91.478 E2.82202
G1 X101.047 Y91.001 E2.84314
G1 X102.346 Y90.443 E2.87136
G1 X103.669 Y89.979 E2.89934
G1 X105.025 Y89.599 E2.92744
G1 X106.178 Y89.349 E2.95098
G1 X107.43 Y89.16 E2.97625
G1 X108.959 Y89.027 E3.00688
G1 X110.255 Y89 E3.03275
G1 X111.12 Y89.029 E3.05002
G1 X112.911 Y89.202 E3.08593
G1 X113.866 Y89.359 E3.10524
G1 X115.469 Y89.728 E3.13807
G1 X116.346 Y89.985 E3.1563
G1 X117.963 Y90.565 E3.19059
G1 X118.819 Y90.938 E3.20922
G1 X120.127 Y91.605 E3.23852
G1 X121.461 Y92.402 E3.26953
G1 X122.209 Y92.911 E3.28759
G1 X123.575 Y93.978 E3.32218
G1 X124.385 Y94.7 E3.34383
G1 X125.411 Y95.732 E3.37287
G1 X126.227 Y96.664 E3.39759
G1 X127.006 Y97.672 E3.42301
G1 X127.626 Y98.582 E3.44499
G1 X128.483 Y100.029 E3.47855
G1 X129.003 Y101.056 E3.50152
G1 X129.555 Y102.341 E3.52943
G1 X130.024 Y103.678 E3.55771
G1 X130.401 Y105.024 E3.5856
G1 X130.651 Y106.177 E3.60915
G1 X130.84 Y107.429 E3.63441
G1 X130.973 Y108.956 E3.665
G1 X131 Y110.239 E3.69061
G1 X130.972 Y111.106 E3.70792
G1 X130.801 Y112.887 E3.74363
G1 X130.649 Y113.818 E3.76245
G1 X130.276 Y115.455 E3.79596
G1 X130.02 Y116.332 E3.81419
G1 X129.435 Y117.96 E3.84871
G1 X129.059 Y118.824 E3.86752
G1 X128.391 Y120.135 E3.89688
G1 X127.662 Y121.357 E3.92528
G1 X126.973 Y122.365 E3.94964
G1 X126.077 Y123.514 E3.97872
G1 X125.397 Y124.284 E3.99922
G1 X124.214 Y125.464 E4.03256
G1 X123.496 Y126.094 E4.05163
G1 X122.138 Y127.135 E4.08577
G1 X121.203 Y127.76 E4.10822
G1 X119.898 Y128.522 E4.13837
G1 X118.953 Y128.999 E4.1595
G1 X117.654 Y129.557 E4.18771
G1 X116.331 Y130.021 E4.21569
G1 X114.975 Y130.401 E4.24379
G1 X113.822 Y130.651 E4.26734
G1 X112.57 Y130.84 E4.2926
G1 X111.041 Y130.973 E4.32323
G1 X109.745 Y131 E4.3491
G1 X108.88 Y130.971 E4.36637
G1 X107.089 Y130.798 E4.40228
G1 X106.134 Y130.641 E4.42159
G1 X104.531 Y130.272 E4.45442
G1 X103.654 Y130.015 E4.47266
G1 X102.037 Y129.435 E4.50694
G1 X101.181 Y129.062 E4.52557
G1 X99.873 Y128.395 E4.55487
G1 X98.539 Y127.598 E4.58589
G1 X97.79 Y127.088 E4.60397
G1 X96.424 Y126.021 E4.63856
G1 X95.614 Y125.299 E4.66021
G1 X94.588 Y124.267 E4.68925
G1 X93.772 Y123.335 E4.71397
G1 X92.993 Y122.327 E4.7394
G1 X92.374 Y121.418 E4.76134
G1 X91.503 Y119.947 E4.79546
G1 X91.007 Y118.967 E4.81738
G1 X90.445 Y117.658 E4.84581
G1 X89.976 Y116.321 E4.87408
G1 X89.599 Y114.975 E4.90198
G1 X89.349 Y113.822 E4.92552
G1 X89.16 Y112.57 E4.95079
G1 X89.027 Y111.043 E4.98138
G1 X89 Y109.761 E5.00697
G1 X89.028 Y108.894 E5.02428
G1 X89.199 Y107.113 E5.05998
G1 X89.351 Y106.182 E5.07881
G1 X89.724 Y104.545 E5.11231
G1 X89.98 Y103.668 E5.13054
G1 X90.565 Y102.04 E5.16507
G1 X90.941 Y101.176 E5.18387
G1 X91.609 Y99.865 E5.21323
G1 X92.338 Y98.643 E5.24163
G1 X93.027 Y97.635 E5.266
G1 X93.923 Y96.486 E5.29507
G1 X94.603 Y95.716 E5.31557
G0 F6000 X94.903 Y95.981
G1 F1200 X96.05 Y94.837 E5.3479
G1 X96.768 Y94.207 E5.36696
G1 X98.084 Y93.198 E5.40006
G1 X99.019 Y92.573 E5.4225
G1 X100.282 Y91.835 E5.45169
G1 X101.205 Y91.369 E5.47233
G1 X102.504 Y90.811 E5.50054
G1 X103.801 Y90.357 E5.52796
G1 X105.11 Y89.99 E5.55509
G1 X106.238 Y89.745 E5.57813
G1 X107.49 Y89.556 E5.6034
G1 X108.967 Y89.427 E5.63298
G1 X110.242 Y89.4 E5.65843
G1 X111.107 Y89.429 E5.67571
G1 X112.846 Y89.597 E5.71057
G1 X113.776 Y89.749 E5.72938
G1 X115.357 Y90.112 E5.76175
G1 X116.234 Y90.369 E5.77998
G1 X117.803 Y90.932 E5.81325
G1 X118.659 Y91.305 E5.83188
G1 X119.922 Y91.949 E5.86018
G1 X121.236 Y92.733 E5.89071
G1 X121.984 Y93.242 E5.90877
G1 X123.309 Y94.277 E5.94232
G1 X124.101 Y94.982 E5.96348
G1 X125.11 Y95.996 E5.99203
G1 X125.91 Y96.909 E6.01625
G1 X126.689 Y97.917 E6.04167
G1 X127.295 Y98.807 E6.06316
G1 X128.139 Y100.233 E6.09623
G1 X128.635 Y101.214 E6.11817
G1 X129.187 Y102.499 E6.14608
G1 X129.646 Y103.81 E6.1738
G1 X130.01 Y105.109 E6.20072
G1 X130.255 Y106.237 E6.22375
G1 X130.444 Y107.489 E6.24902
G1 X130.573 Y108.965 E6.27859
G1 X130.6 Y110.226 E6.30376
G1 X130.572 Y111.093 E6.32107
G1 X130.406 Y112.823 E6.35575
G1 X130.259 Y113.729 E6.37407
G1 X129.892 Y115.343 E6.4071
G1 X129.643 Y116.197 E6.42485
G1 X129.068 Y117.8 E6.45884
G1 X128.692 Y118.664 E6.47764
G1 X128.047 Y119.93 E6.506
G1 X127.318 Y121.152 E6.53439
G1 X126.658 Y122.119 E6.55776
G1 X125.777 Y123.249 E6.58635
G1 X125.097 Y124.019 E6.60685
G1 X123.95 Y125.163 E6.63918
G1 X123.232 Y125.793 E6.65824
G1 X121.916 Y126.802 E6.69133
G1 X120.981 Y127.427 E6.71378
G1 X119.718 Y128.165 E6.74297
G1 X118.795 Y128.631 E6.7636
G1 X117.496 Y129.189 E6.79182
G1 X116.199 Y129.643 E6.81924
G1 X114.89 Y130.01 E6.84637
G1 X113.762 Y130.255 E6.8694
G1 X112.51 Y130.444 E6.89467
G1 X111.033 Y130.573 E6.92426
G1 X109.758 Y130.6 E6.94971
G1 X108.893 Y130.571 E6.96698
G1 X107.154 Y130.403 E7.00185
G1 X106.224 Y130.251 E7.02065
G1 X104.643 Y129.888 E7.05302
G1 X103.766 Y129.631 E7.07126
G1 X102.197 Y129.068 E7.10453
G1 X101.341 Y128.695 E7.12316
G1 X100.078 Y128.051 E7.15145
G1 X98.764 Y127.267 E7.18199
G1 X98.015 Y126.757 E7.20007
G1 X96.69 Y125.722 E7.23362
G1 X95.898 Y125.017 E7.25478
G1 X94.889 Y124.003 E7.28333
G1 X94.089 Y123.09 E7.30755
G1 X93.31 Y122.082 E7.33298
G1 X92.718 Y121.214 E7.35394
G1 X91.847 Y119.743 E7.38806
G1 X91.375 Y118.809 E7.40894
G1 X90.813 Y117.5 E7.43737
G1 X90.354 Y116.189 E7.46509
G1 X89.99 Y114.89 E7.49201
G1 X89.745 Y113.762 E7.51505
G1 X89.556 Y112.51 E7.54032
G1 X89.427 Y111.034 E7.56988
G1 X89.4 Y109.774 E7.59503
G1 X89.428 Y108.907 E7.61235
G1 X89.594 Y107.177 E7.64703
G1 X89.741 Y106.271 E7.66534
G1 X90.108 Y104.657 E7.69838
G1 X90.357 Y103.803 E7.71613
G1 X90.932 Y102.2 E7.75011
G1 X91.308 Y101.336 E7.76892
G1 X91.953 Y100.07 E7.79727
G1 X92.682 Y98.848 E7.82567
G1 X93.342 Y97.881 E7.84903
G1 X94.223 Y96.751 E7.87763
G1 X94.903 Y95.981 E7.89813
G0 F6000 X95.203 Y96.246
G1 F1200 X96.314 Y95.138 E7.92944
G1 X97.032 Y94.508 E7.9485
G1 X98.306 Y93.531 E7.98054
G1 X99.241 Y92.906 E8.00298
G1 X100.462 Y92.192 E8.03121
G1 X101.363 Y91.737 E8.05135
G1 X102.662 Y91.179 E8.07957
G1 X103.909 Y90.742 E8.10594
G1 X105.195 Y90.381 E8.13259
G1 X106.298 Y90.141 E8.15512
G1 X107.55 Y89.952 E8.18039
G1 X108.976 Y89.827 E8.20895
G1 X110.229 Y89.8 E8.23396
G1 X111.094 Y89.829 E8.25124
G1 X112.781 Y89.992 E8.28506
G1 X113.711 Y90.144 E8.30386
G1 X115.245 Y90.496 E8.33527
G1 X116.122 Y90.753 E8.35351
G1 X117.643 Y91.299 E8.38576
G1 X118.499 Y91.672 E8.40439
G1 X119.74 Y92.305 E8.43219
G1 X121.011 Y93.064 E8.46174
G1 X121.759 Y93.573 E8.47979
G1 X123.043 Y94.576 E8.51231
G1 X123.817 Y95.264 E8.53297
G1 X124.826 Y96.278 E8.56152
G1 X125.593 Y97.154 E8.58475
G1 X126.372 Y98.162 E8.61018
G1 X126.951 Y99.011 E8.63069
G1 X127.782 Y100.414 E8.66323
G1 X128.267 Y101.372 E8.68465
G1 X128.819 Y102.657 E8.71256
G1 X129.261 Y103.918 E8.73923
G1 X129.619 Y105.194 E8.76568
G1 X129.859 Y106.297 E8.7882
G1 X130.048 Y107.549 E8.81347
G1 X130.173 Y108.974 E8.84202
G1 X130.2 Y110.213 E8.86675
G1 X130.172 Y111.08 E8.88406
G1 X130.011 Y112.759 E8.91772
G1 X129.869 Y113.64 E8.93553
G1 X129.508 Y115.231 E8.96809
G1 X129.259 Y116.085 E8.98584
G1 X128.701 Y117.64 E9.01881
G1 X128.325 Y118.504 E9.03761
G1 X127.703 Y119.725 E9.06496
G1 X126.974 Y120.947 E9.09335
G1 X126.328 Y121.893 E9.11621
G1 X125.477 Y122.984 E9.14383
G1 X124.797 Y123.754 E9.16433
G1 X123.686 Y124.862 E9.19564
G1 X122.968 Y125.492 E9.2147
G1 X121.694 Y126.469 E9.24674
G1 X120.759 Y127.094 E9.26918
G1 X119.538 Y127.808 E9.29741
G1 X118.637 Y128.263 E9.31755
G1 X117.338 Y128.821 E9.34577
G1 X116.091 Y129.258 E9.37214
G1 X114.805 Y129.619 E9.39879
G1 X113.702 Y129.859 E9.42132
G1 X112.45 Y130.048 E9.44659
G1 X111.024 Y130.173 E9.47515
G1 X109.771 Y130.2 E9.50016
G1 X108.906 Y130.171 E9.51744
G1 X107.219 Y130.008 E9.55126
G1 X106.289 Y129.856 E9.57006
G1 X104.755 Y129.504 E9.60147
G1 X103.878 Y129.247 E9.61971
G1 X102.357 Y128.701 E9.65196
G1 X101.501 Y128.328 E9.67059
G1 X100.26 Y127.695 E9.69839
G1 X98.989 Y126.936 E9.72794
G1 X98.24 Y126.426 E9.74602
G1 X96.956 Y125.423 E9.77853
G1 X96.182 Y124.735 E9.7992
G1 X95.173 Y123.721 E9.82775
G1 X94.406 Y122.845 E9.85098
G1 X93.627 Y121.837 E9.87641
G1 X93.049 Y120.989 E9.89688
G1 X92.204 Y119.562 E9.92998
G1 X91.743 Y118.651 E9.95036
G1 X91.181 Y117.342 E9.97878
G1 X90.739 Y116.081 E10.00545
G1 X90.381 Y114.805 E10.0319
G1 X90.141 Y113.702 E10.05442
G1 X89.952 Y112.45 E10.07969
G1 X89.827 Y111.025 E10.10824
G1 X89.8 Y109.787 E10.13295
G1 X89.828 Y108.92 E10.15026
G1 X89.989 Y107.241 E10.18392
G1 X90.131 Y106.36 E10.20173
G1 X90.492 Y104.769 E10.23429
G1 X90.741 Y103.915 E10.25204
G1 X91.299 Y102.36 E10.28501
G1 X91.675 Y101.496 E10.30381
G1 X92.297 Y100.275 E10.33116
G1 X93.026 Y99.053 E10.35955
G1 X93.672 Y98.107 E10.38241
G1 X94.523 Y97.016 E10.41003
G1 X95.203 Y96.246 E10.43053
G0 F6000 X95.503 Y96.511
G1 F1200 X96.578 Y95.439 E10.46082
G1 X97.296 Y94.809 E10.47988
G1 X98.528 Y93.864 E10.51087
G1 X99.463 Y93.239 E10.53331
G1 X100.642 Y92.549 E10.56058
G1 X101.521 Y92.105 E10.58023
G1 X102.82 Y91.547 E10.60844
G1 X104.017 Y91.127 E10.63376
G1 X105.28 Y90.772 E10.65994
G1 X106.358 Y90.537 E10.68196
G1 X107.61 Y90.348 E10.70722
G1 X108.985 Y90.227 E10.73477
G1 X110.216 Y90.2 E10.75934
G1 X111.081 Y90.229 E10.77661
G1 X112.716 Y90.387 E10.80939
G1 X113.646 Y90.539 E10.8282
G1 X115.133 Y90.88 E10.85864
G1 X116.01 Y91.137 E10.87688
G1 X117.483 Y91.666 E10.90811
G1 X118.339 Y92.039 E10.92675
G1 X119.535 Y92.649 E10.95354
G1 X120.786 Y93.395 E10.98261
G1 X121.534 Y93.904 E11.00066
G1 X122.777 Y94.875 E11.03214
G1 X123.551 Y95.563 E11.05281
G1 X124.525 Y96.541 E11.08035
G1 X125.276 Y97.399 E11.10311
G1 X126.055 Y98.407 E11.12853
G1 X126.62 Y99.236 E11.14855
G1 X127.438 Y100.618 E11.1806
G1 X127.899 Y101.53 E11.20099
G1 X128.451 Y102.815 E11.2289
G1 X128.876 Y104.026 E11.25451
G1 X129.228 Y105.279 E11.28048
G1 X129.463 Y106.357 E11.3025
G1 X129.652 Y107.609 E11.32777
G1 X129.773 Y108.983 E11.3553
G1 X129.8 Y110.2 E11.37959
G1 X129.772 Y111.067 E11.3969
G1 X129.616 Y112.695 E11.42954
G1 X129.474 Y113.576 E11.44735
G1 X129.124 Y115.119 E11.47892
G1 X128.875 Y115.973 E11.49667
G1 X128.334 Y117.48 E11.52862
G1 X127.958 Y118.344 E11.54743
G1 X127.359 Y119.52 E11.57377
G1 X126.63 Y120.742 E11.60216
G1 X125.998 Y121.667 E11.62452
G1 X125.177 Y122.719 E11.65115
G1 X124.497 Y123.489 E11.67165
G1 X123.422 Y124.561 E11.70195
G1 X122.704 Y125.191 E11.72101
G1 X121.472 Y126.136 E11.75199
G1 X120.537 Y126.761 E11.77444
G1 X119.358 Y127.451 E11.8017
G1 X118.479 Y127.895 E11.82135
G1 X117.18 Y128.453 E11.84956
G1 X115.983 Y128.873 E11.87488
G1 X114.72 Y129.228 E11.90106
G1 X113.642 Y129.463 E11.92308
G1 X112.39 Y129.652 E11.94835
G1 X111.015 Y129.773 E11.97589
G1 X109.784 Y129.8 E12.00046
G1 X108.919 Y129.771 E12.01774
G1 X107.284 Y129.613 E12.05052
G1 X106.354 Y129.461 E12.06932
G1 X104.867 Y129.12 E12.09977
G1 X103.99 Y128.863 E12.118
G1 X102.517 Y128.334 E12.14924
G1 X101.661 Y127.961 E12.16787
G1 X100.465 Y127.351 E12.19466
G1 X99.214 Y126.605 E12.22373
G1 X98.465 Y126.095 E12.24181
G1 X97.222 Y125.124 E12.27329
G1 X96.448 Y124.436 E12.29396
G1 X95.474 Y123.458 E12.3215
G1 X94.723 Y122.6 E12.34426
G1 X93.944 Y121.592 E12.36968
G1 X93.38 Y120.764 E12.38967
G1 X92.548 Y119.358 E12.42227
G1 X92.111 Y118.493 E12.44161
G1 X91.549 Y117.184 E12.47004
G1 X91.124 Y115.973 E12.49565
G1 X90.772 Y114.72 E12.52163
G1 X90.537 Y113.642 E12.54365
G1 X90.348 Y112.39 E12.56891
G1 X90.227 Y111.016 E12.59644
G1 X90.2 Y109.8 E12.62071
G1 X90.228 Y108.933 E12.63802
G1 X90.384 Y107.305 E12.67066
G1 X90.526 Y106.424 E12.68847
G1 X90.876 Y104.881 E12.72004
G1 X91.125 Y104.027 E12.7378
G1 X91.666 Y102.52 E12.76975
G1 X92.042 Y101.656 E12.78855
G1 X92.641 Y100.48 E12.81489
G1 X93.37 Y99.258 E12.84329
G1 X94.002 Y98.333 E12.86564
G1 X94.823 Y97.281 E12.89227
G1 X95.503 Y96.511 E12.91277
G0 F6000 X95.803 Y96.776
G1 F1200 X96.842 Y95.74 E12.94205
G1 X97.56 Y95.11 E12.96112
G1 X98.75 Y94.197 E12.99105
G1 X99.685 Y93.572 E13.01349
G1 X100.822 Y92.906 E13.03979
