;FLAVOR:Marlin
;TIME:10514
;Filament used: 3.41871m
;Layer height: 0.12
;MINX:72.2
;MINY:96.399
;MINZ:0.12
;MAXX:147.8
;MAXY:125.2
;MAXZ:36.24
;TARGET_MACHINE.NAME:Creality Ender-3 Pro
;Generated with Cura_SteamEngine 5.6.0
M82 ;absolute extrusion mode
; Ender 3 Custom Start G-code
G92 E0 ; Reset Extruder
G28 ; Home all axes
G1 Z5.0 F3000 ; Move Z Axis up a bit during heating to not damage bed
M104 S175 ; Start heating up the nozzle most of the way
M190 S60 ; Start heating the bed, wait until target temperature reached
M109 S200 ; Finish heating the nozzle
G1 Z2.0 F3000 ; Move Z Axis up little to prevent scratching of Heat Bed
G1 X0.1 Y20 Z0.3 F5000.0 ; Move to start position
G1 X0.1 Y200.0 Z0.3 F1500.0 E15 ; Draw the first line
G1 X0.4 Y200.0 Z0.3 F5000.0 ; Move to side a little
G1 X0.4 Y20 Z0.3 F1500.0 E30 ; Draw the second line
G92 E0 ; Reset Extruder
G1 Z2.0 F3000 ; Move Z Axis up little to prevent scratching of Heat Bed
G1 X5 Y20 Z0.3 F5000.0 ; Move over to prevent blob squish
G92 E0
G92 E0
G1 F1500 E-6.5
;LAYER_COUNT:302
;LAYER:0
M107
G0 F6000 X75.28 Y102.864 Z0.12
;TYPE:SKIRT
G1 F1500 E0
G1 F1200 X77.303 Y101.657 E0.04701
G1 X79.021 Y101.375 E0.08175
G1 X87.986 Y101.315 E0.26066
G1 X88.969 Y99.423 E0.30321
G1 X90.538 Y97.956 E0.34608
G1 X92.203 Y96.975 E0.38464
G1 X92.823 Y96.709 E0.39811
G1 X94.544 Y96.45 E0.43284
G1 X99.781 Y96.399 E0.53735
G1 X101.602 Y96.844 E0.57476
G1 X103.682 Y97.917 E0.62147
G1 X105.146 Y99.49 E0.66435
G1 X106.091 Y101.096 E0.70154
G1 X106.178 Y101.3 E0.70596
G1 X113.844 Y101.3 E0.85895
G1 X114.819 Y99.423 E0.90116
G1 X116.388 Y97.956 E0.94402
G1 X118.053 Y96.975 E0.98259
G1 X118.673 Y96.709 E0.99605
G1 X120.394 Y96.45 E1.03078
G1 X125.631 Y96.399 E1.1353
G1 X127.452 Y96.844 E1.17271
G1 X129.532 Y97.917 E1.21941
G1 X130.996 Y99.49 E1.2623
G1 X131.941 Y101.096 E1.29948
G1 X132.028 Y101.3 E1.30391
G1 X140.853 Y101.3 E1.48002
G1 X142.749 Y101.766 E1.51898
G1 X144.777 Y102.819 E1.56458
G1 X146.236 Y104.38 E1.60722
G1 X147.404 Y106.339 E1.65274
G1 X147.455 Y106.48 E1.65573
G1 X147.735 Y108.245 E1.69139
G1 X147.8 Y118.242 E1.8909
G1 X147.332 Y120.151 E1.93012
G1 X146.281 Y122.177 E1.97567
G1 X144.72 Y123.636 E2.01831
G1 X142.697 Y124.843 E2.06532
G1 X140.979 Y125.125 E2.10007
G1 X79.147 Y125.2 E3.33399
G1 X77.251 Y124.734 E3.37295
G1 X75.223 Y123.681 E3.41855
G1 X73.764 Y122.12 E3.46119
G1 X72.596 Y120.161 E3.50671
G1 X72.545 Y120.02 E3.5097
G1 X72.265 Y118.255 E3.54536
G1 X72.2 Y108.258 E3.74487
G1 X72.668 Y106.349 E3.78409
G1 X73.719 Y104.323 E3.82964
G1 X75.28 Y102.864 E3.87228
G0 F6000 X75.519 Y103.188
G1 F1200 X77.443 Y102.04 E3.91699
G1 X79.086 Y101.77 E3.95022
G1 X88.262 Y101.713 E4.13334
G1 X88.313 Y101.552 E4.13671
G1 X89.292 Y99.668 E4.17908
G1 X90.777 Y98.28 E4.21965
G1 X92.406 Y97.32 E4.25738
G1 X92.93 Y97.098 E4.26874
G1 X94.604 Y96.846 E4.30252
G1 X99.733 Y96.8 E4.40488
G1 X101.465 Y97.223 E4.44046
G1 X103.434 Y98.239 E4.48467
G1 X104.824 Y99.731 E4.52537
G1 X105.746 Y101.299 E4.56167
G1 X105.908 Y101.7 E4.5703
G1 X114.116 Y101.7 E4.7341
G1 X114.164 Y101.552 E4.7372
G1 X115.142 Y99.668 E4.77956
G1 X116.627 Y98.28 E4.82013
G1 X118.256 Y97.32 E4.85786
G1 X118.78 Y97.098 E4.86922
G1 X120.454 Y96.846 E4.903
G1 X125.583 Y96.8 E5.00536
G1 X127.315 Y97.223 E5.04094
G1 X129.284 Y98.239 E5.08516
G1 X130.674 Y99.731 E5.12585
G1 X131.596 Y101.299 E5.16215
G1 X131.758 Y101.7 E5.17078
G1 X140.807 Y101.7 E5.35136
G1 X142.606 Y102.142 E5.38833
G1 X144.532 Y103.142 E5.43164
G1 X145.912 Y104.619 E5.47198
G1 X147.06 Y106.544 E5.5167
G1 X147.335 Y108.248 E5.55115
G1 X147.4 Y118.197 E5.7497
G1 X146.956 Y120.008 E5.78691
G1 X145.958 Y121.932 E5.83016
G1 X144.481 Y123.312 E5.8705
G1 X142.557 Y124.46 E5.91521
G1 X140.914 Y124.73 E5.94844
G1 X79.193 Y124.8 E7.18015
G1 X77.394 Y124.358 E7.21712
G1 X75.468 Y123.358 E7.26042
G1 X74.088 Y121.881 E7.30076
G1 X72.94 Y119.956 E7.34549
G1 X72.665 Y118.252 E7.37994
G1 X72.6 Y108.303 E7.57848
G1 X73.044 Y106.492 E7.61569
G1 X74.042 Y104.568 E7.65895
G1 X75.519 Y103.188 E7.69929
G0 F6000 X75.761 Y103.509
G1 F1200 X77.581 Y102.423 E7.74158
G1 X79.151 Y102.165 E7.77333
G1 X88.576 Y102.111 E7.96142
G1 X88.668 Y101.736 E7.96913
G1 X89.615 Y99.913 E8.01012
G1 X91.016 Y98.604 E8.04839
G1 X92.609 Y97.665 E8.08529
G1 X93.037 Y97.487 E8.09454
G1 X94.664 Y97.242 E8.12737
G1 X99.685 Y97.2 E8.22758
G1 X101.326 Y97.601 E8.26129
G1 X103.187 Y98.562 E8.30308
G1 X104.502 Y99.972 E8.34156
G1 X105.401 Y101.502 E8.37697
G1 X105.635 Y102.1 E8.38979
G1 X114.43 Y102.1 E8.5653
G1 X114.519 Y101.736 E8.57278
G1 X115.465 Y99.913 E8.61377
G1 X116.866 Y98.604 E8.65203
G1 X118.459 Y97.665 E8.68893
G1 X118.887 Y97.487 E8.69818
G1 X120.514 Y97.242 E8.73102
G1 X125.535 Y97.2 E8.83122
G1 X127.176 Y97.601 E8.86493
G1 X129.037 Y98.562 E8.90673
G1 X130.352 Y99.972 E8.94521
G1 X131.251 Y101.502 E8.98062
G1 X131.485 Y102.1 E8.99343
G1 X140.76 Y102.1 E9.17853
G1 X142.464 Y102.519 E9.21354
G1 X144.287 Y103.465 E9.25453
G1 X145.591 Y104.861 E9.29265
G1 X146.677 Y106.681 E9.33495
G1 X146.935 Y108.251 E9.3667
G1 X147 Y118.152 E9.56429
G1 X146.58 Y119.865 E9.59949
G1 X145.635 Y121.687 E9.64045
G1 X144.239 Y122.991 E9.67857
G1 X142.419 Y124.077 E9.72086
G1 X140.849 Y124.335 E9.75261
G1 X79.24 Y124.4 E10.98209
G1 X77.536 Y123.981 E11.01711
G1 X75.713 Y123.035 E11.05809
G1 X74.409 Y121.639 E11.09621
G1 X73.323 Y119.819 E11.13851
G1 X73.065 Y118.249 E11.17026
G1 X73 Y108.348 E11.36785
G1 X73.42 Y106.635 E11.40305
G1 X74.365 Y104.813 E11.44401
G1 X75.761 Y103.509 E11.48213
G0 F6000 X76.003 Y103.83
G1 F1200 X77.719 Y102.806 E11.52201
G1 X79.216 Y102.56 E11.55228
G1 X88.89 Y102.509 E11.74534
G1 X89.045 Y101.879 E11.75829
G1 X89.938 Y100.158 E11.79698
G1 X91.255 Y98.928 E11.83294
G1 X92.812 Y98.01 E11.86901
G1 X93.144 Y97.876 E11.87616
G1 X94.724 Y97.638 E11.90804
G1 X99.637 Y97.6 E12.00609
G1 X101.187 Y97.979 E12.03793
G1 X102.942 Y98.886 E12.07736
G1 X104.181 Y100.214 E12.1136
G1 X105.028 Y101.648 E12.14684
G1 X105.238 Y102.185 E12.15834
G1 X105.285 Y102.5 E12.1647
G1 X114.743 Y102.5 E12.35345
G1 X114.896 Y101.878 E12.36623
G1 X115.788 Y100.158 E12.40489
G1 X117.105 Y98.928 E12.44086
G1 X118.662 Y98.01 E12.47693
G1 X118.994 Y97.876 E12.48407
G1 X120.574 Y97.638 E12.51596
G1 X125.487 Y97.6 E12.614
G1 X127.037 Y97.979 E12.64585
G1 X128.792 Y98.886 E12.68527
G1 X130.031 Y100.214 E12.72152
G1 X130.878 Y101.648 E12.75475
G1 X131.088 Y102.185 E12.76626
G1 X131.135 Y102.5 E12.77261
G1 X140.714 Y102.5 E12.96377
G1 X142.321 Y102.895 E12.9968
G1 X144.042 Y103.788 E13.03549
G1 X145.27 Y105.103 E13.0714
G1 X146.294 Y106.819 E13.11127
G1 X146.54 Y108.316 E13.14155
G1 X146.6 Y118.107 E13.33694
G1 X146.204 Y119.722 E13.37013
G1 X145.312 Y121.442 E13.40879
G1 X143.997 Y122.67 E13.4447
G1 X142.281 Y123.694 E13.48458
G1 X140.784 Y123.94 E13.51485
G1 X79.286 Y124 E14.74211
G1 X77.679 Y123.605 E14.77513
G1 X75.958 Y122.712 E14.81383
G1 X74.73 Y121.397 E14.84973
G1 X73.706 Y119.681 E14.88961
G1 X73.46 Y118.184 E14.91989
G1 X73.4 Y108.393 E15.11528
G1 X73.796 Y106.778 E15.14846
G1 X74.688 Y105.058 E15.18713
G1 X76.003 Y103.83 E15.22303
G0 F6000 X76.245 Y104.151
G1 F1200 X77.857 Y103.189 E15.2605
G1 X79.281 Y102.955 E15.2893
G1 X89.204 Y102.907 E15.48732
G1 X89.421 Y102.022 E15.50551
G1 X90.261 Y100.403 E15.5419
G1 X91.495 Y99.251 E15.57559
G1 X92.962 Y98.381 E15.60963
G1 X93.249 Y98.265 E15.61581
G1 X94.784 Y98.034 E15.64679
G1 X99.589 Y98 E15.74268
G1 X101.048 Y98.357 E15.77265
G1 X102.697 Y99.21 E15.8097
G1 X103.858 Y100.454 E15.84366
G1 X104.655 Y101.794 E15.87477
G1 X104.85 Y102.293 E15.88546
G1 X104.942 Y102.9 E15.89772
G1 X115.056 Y102.9 E16.09955
G1 X115.272 Y102.021 E16.11761
G1 X116.111 Y100.403 E16.15399
G1 X117.345 Y99.251 E16.18767
G1 X118.812 Y98.381 E16.22171
G1 X119.099 Y98.265 E16.22789
G1 X120.634 Y98.034 E16.25887
G1 X125.439 Y98 E16.35476
G1 X126.898 Y98.357 E16.38473
G1 X128.547 Y99.21 E16.42178
G1 X129.708 Y100.454 E16.45574
G1 X130.505 Y101.794 E16.48685
G1 X130.7 Y102.293 E16.49754
G1 X130.792 Y102.9 E16.5098
G1 X140.668 Y102.9 E16.70688
G1 X142.178 Y103.271 E16.73791
G1 X143.797 Y104.111 E16.77431
G1 X144.949 Y105.345 E16.808
G1 X145.911 Y106.957 E16.84546
G1 X146.145 Y108.381 E16.87426
G1 X146.2 Y118.062 E17.06746
G1 X145.828 Y119.579 E17.09863
G1 X144.989 Y121.197 E17.135
G1 X143.755 Y122.349 E17.16869
G1 X142.143 Y123.311 E17.20615
G1 X140.719 Y123.545 E17.23495
G1 X79.332 Y123.6 E18.46
G1 X77.822 Y123.229 E18.49103
G1 X76.203 Y122.389 E18.52742
G1 X75.051 Y121.155 E18.56111
G1 X74.089 Y119.543 E18.59857
G1 X73.855 Y118.119 E18.62737
G1 X73.8 Y108.438 E18.82057
G1 X74.172 Y106.921 E18.85174
G1 X75.011 Y105.303 E18.88811
G1 X76.245 Y104.151 E18.9218
G0 F6000 X76.487 Y104.472
G1 F1200 X77.995 Y103.572 E18.95685
G1 X79.346 Y103.35 E18.98417
G1 X89.517 Y103.306 E19.18715
G1 X89.797 Y102.165 E19.21059
G1 X90.584 Y100.648 E19.2447
G1 X91.737 Y99.572 E19.27617
G1 X93.111 Y98.752 E19.3081
G1 X93.352 Y98.655 E19.31328
G1 X94.844 Y98.43 E19.3434
G1 X99.54 Y98.4 E19.43711
G1 X100.909 Y98.735 E19.46524
G1 X102.452 Y99.534 E19.49991
G1 X103.534 Y100.693 E19.53155
G1 X104.311 Y101.999 E19.56188
G1 X104.46 Y102.393 E19.57029
G1 X104.597 Y103.3 E19.58859
G1 X115.369 Y103.3 E19.80356
G1 X115.648 Y102.164 E19.8269
G1 X116.434 Y100.648 E19.86098
G1 X117.587 Y99.572 E19.89245
G1 X118.961 Y98.752 E19.92438
G1 X119.202 Y98.655 E19.92957
G1 X120.694 Y98.43 E19.95968
G1 X125.39 Y98.4 E20.0534
G1 X126.759 Y98.735 E20.08152
G1 X128.302 Y99.534 E20.1162
G1 X129.384 Y100.693 E20.14784
G1 X130.161 Y101.999 E20.17817
G1 X130.31 Y102.393 E20.18657
G1 X130.447 Y103.3 E20.20488
G1 X140.621 Y103.3 E20.40791
G1 X142.036 Y103.648 E20.43699
G1 X143.552 Y104.434 E20.47107
G1 X144.628 Y105.587 E20.50254
G1 X145.528 Y107.095 E20.53759
G1 X145.75 Y108.446 E20.56491
G1 X145.8 Y118.017 E20.75591
G1 X145.452 Y119.436 E20.78507
G1 X144.666 Y120.952 E20.81914
G1 X143.513 Y122.028 E20.85062
G1 X142.005 Y122.928 E20.88566
G1 X140.654 Y123.15 E20.91299
G1 X79.379 Y123.2 E22.13579
G1 X77.964 Y122.852 E22.16487
G1 X76.448 Y122.066 E22.19895
G1 X75.372 Y120.913 E22.23042
G1 X74.472 Y119.405 E22.26547
G1 X74.25 Y118.054 E22.29279
G1 X74.2 Y108.483 E22.48379
G1 X74.548 Y107.064 E22.51295
G1 X75.334 Y105.548 E22.54703
G1 X76.487 Y104.472 E22.5785
G0 F6000 X76.729 Y104.793
G1 F1200 X78.133 Y103.955 E22.61113
G1 X79.411 Y103.745 E22.63698
G1 X89.83 Y103.705 E22.8449
G1 X90.174 Y102.307 E22.87363
G1 X90.907 Y100.893 E22.90542
G1 X91.979 Y99.893 E22.93467
G1 X93.316 Y99.095 E22.96574
G1 X93.459 Y99.043 E22.96878
G1 X94.847 Y98.83 E22.9968
G1 X99.491 Y98.8 E23.08948
G1 X100.77 Y99.113 E23.11576
G1 X102.207 Y99.857 E23.14805
G1 X103.21 Y100.932 E23.17739
G1 X103.967 Y102.204 E23.20693
G1 X104.07 Y102.493 E23.21305
G1 X104.252 Y103.7 E23.23741
G1 X115.682 Y103.7 E23.46551
G1 X116.024 Y102.307 E23.49414
G1 X116.757 Y100.893 E23.52592
G1 X117.829 Y99.893 E23.55518
G1 X119.166 Y99.095 E23.58625
G1 X119.309 Y99.043 E23.58928
G1 X120.697 Y98.83 E23.61731
G1 X125.341 Y98.8 E23.70999
G1 X126.62 Y99.113 E23.73626
G1 X128.057 Y99.857 E23.76856
G1 X129.06 Y100.932 E23.7979
G1 X129.817 Y102.204 E23.82743
G1 X129.92 Y102.493 E23.83356
G1 X130.102 Y103.7 E23.85792
G1 X140.575 Y103.7 E24.06692
G1 X141.893 Y104.024 E24.094
G1 X143.307 Y104.757 E24.12579
G1 X144.307 Y105.829 E24.15504
G1 X145.145 Y107.233 E24.18767
G1 X145.355 Y108.511 E24.21352
G1 X145.4 Y117.972 E24.40232
G1 X145.076 Y119.293 E24.42947
G1 X144.343 Y120.707 E24.46125
G1 X143.271 Y121.707 E24.49051
G1 X141.867 Y122.545 E24.52314
G1 X140.589 Y122.755 E24.54898
G1 X79.425 Y122.8 E25.76958
G1 X78.107 Y122.476 E25.79666
G1 X76.693 Y121.743 E25.82845
G1 X75.693 Y120.671 E25.8577
G1 X74.855 Y119.267 E25.89033
G1 X74.645 Y117.989 E25.91618
G1 X74.6 Y108.528 E26.10498
G1 X74.924 Y107.207 E26.13213
G1 X75.657 Y105.793 E26.16391
G1 X76.729 Y104.793 E26.19317
G0 F6000 X76.974 Y105.112
G1 F1200 X78.271 Y104.338 E26.22331
G1 X79.476 Y104.14 E26.24768
G1 X90.25 Y104.104 E26.46269
G1 X90.25 Y103.671 E26.47133
G1 X90.55 Y102.45 E26.49642
G1 X91.229 Y101.14 E26.52586
G1 X92.224 Y100.212 E26.55302
G1 X93.521 Y99.438 E26.58316
G1 X94.85 Y99.23 E26.61
G1 X99.442 Y99.2 E26.70164
G1 X100.631 Y99.491 E26.72607
G1 X101.96 Y100.179 E26.75593
G1 X102.888 Y101.174 E26.78309
G1 X103.623 Y102.409 E26.81177
G1 X103.674 Y102.553 E26.81482
G1 X103.907 Y104.1 E26.84604
G1 X116.1 Y104.1 E27.08936
G1 X116.1 Y103.671 E27.09792
G1 X116.4 Y102.45 E27.12301
G1 X117.079 Y101.14 E27.15246
G1 X118.074 Y100.212 E27.17961
G1 X119.371 Y99.438 E27.20975
G1 X120.7 Y99.23 E27.2366
G1 X125.292 Y99.2 E27.32824
G1 X126.481 Y99.491 E27.35266
G1 X127.81 Y100.179 E27.38253
G1 X128.738 Y101.174 E27.40968
G1 X129.473 Y102.409 E27.43836
G1 X129.524 Y102.553 E27.44141
G1 X129.757 Y104.1 E27.47263
G1 X140.529 Y104.1 E27.6876
G1 X141.75 Y104.4 E27.71269
G1 X143.06 Y105.079 E27.74213
G1 X143.988 Y106.074 E27.76929
G1 X144.762 Y107.371 E27.79943
G1 X144.96 Y108.576 E27.8238
G1 X145 Y117.927 E28.01041
G1 X144.7 Y119.15 E28.03554
G1 X144.021 Y120.46 E28.06498
G1 X143.026 Y121.388 E28.09214
G1 X141.729 Y122.162 E28.12228
G1 X140.524 Y122.36 E28.14665
G1 X79.471 Y122.4 E29.36503
G1 X78.25 Y122.1 E29.39012
G1 X76.94 Y121.421 E29.41956
G1 X76.012 Y120.426 E29.44671
G1 X75.238 Y119.129 E29.47686
G1 X75.04 Y117.924 E29.50122
G1 X75 Y108.573 E29.68784
G1 X75.3 Y107.35 E29.71297
G1 X75.979 Y106.04 E29.74241
G1 X76.974 Y105.112 E29.76956
G0 F6000 X77.216 Y105.434
G1 F1200 X78.411 Y104.721 E29.79733
G1 X79.541 Y104.535 E29.82019
G1 X90.65 Y104.503 E30.04188
G1 X90.65 Y103.717 E30.05757
G1 X90.926 Y102.593 E30.08066
G1 X91.551 Y101.387 E30.10777
G1 X92.466 Y100.534 E30.13273
G1 X93.661 Y99.821 E30.1605
G1 X94.853 Y99.63 E30.18459
G1 X99.393 Y99.6 E30.2752
G1 X100.492 Y99.869 E30.29778
G1 X101.713 Y100.501 E30.32521
G1 X102.566 Y101.416 E30.35018
G1 X103.279 Y102.614 E30.378
G1 X103.48 Y103.924 E30.40445
G1 X103.485 Y104.5 E30.41594
G1 X116.5 Y104.5 E30.67567
G1 X116.5 Y103.717 E30.6913
G1 X116.776 Y102.593 E30.71439
G1 X117.401 Y101.387 E30.7415
G1 X118.316 Y100.534 E30.76646
G1 X119.511 Y99.821 E30.79423
G1 X120.703 Y99.63 E30.81832
G1 X125.243 Y99.6 E30.90893
G1 X126.342 Y99.869 E30.93151
G1 X127.563 Y100.501 E30.95894
G1 X128.416 Y101.416 E30.98391
G1 X129.129 Y102.614 E31.01173
G1 X129.33 Y103.924 E31.03818
G1 X129.335 Y104.5 E31.04967
G1 X140.483 Y104.5 E31.27214
G1 X141.607 Y104.776 E31.29524
G1 X142.813 Y105.401 E31.32235
G1 X143.666 Y106.316 E31.34731
G1 X144.379 Y107.511 E31.37508
G1 X144.565 Y108.641 E31.39793
G1 X144.6 Y117.882 E31.58235
G1 X144.324 Y119.007 E31.60546
G1 X143.699 Y120.213 E31.63257
G1 X142.784 Y121.066 E31.65753
G1 X141.589 Y121.779 E31.6853
G1 X140.459 Y121.965 E31.70816
G1 X79.517 Y122 E32.92432
G1 X78.393 Y121.724 E32.94742
G1 X77.187 Y121.099 E32.97453
G1 X76.334 Y120.184 E32.99949
G1 X75.621 Y118.989 E33.02726
G1 X75.435 Y117.859 E33.05011
G1 X75.4 Y108.618 E33.23453
G1 X75.676 Y107.493 E33.25765
G1 X76.301 Y106.287 E33.28475
G1 X77.216 Y105.434 E33.30972
G0 F6000 X77.458 Y105.756
G1 F1200 X78.551 Y105.104 E33.33511
G1 X79.606 Y104.93 E33.35645
G1 X91.05 Y104.902 E33.58483
G1 X91.05 Y103.764 E33.60754
G1 X91.303 Y102.735 E33.62869
G1 X91.873 Y101.634 E33.65343
G1 X92.708 Y100.856 E33.6762
G1 X93.801 Y100.204 E33.7016
G1 X94.856 Y100.03 E33.72294
G1 X99.344 Y100 E33.8125
G1 X100.353 Y100.247 E33.83323
G1 X101.466 Y100.823 E33.85824
G1 X102.244 Y101.658 E33.88102
G1 X102.896 Y102.753 E33.90645
G1 X103.08 Y103.928 E33.93019
G1 X103.089 Y104.9 E33.94958
G1 X116.9 Y104.9 E34.2252
G1 X116.9 Y103.764 E34.24787
G1 X117.153 Y102.735 E34.26901
G1 X117.723 Y101.634 E34.29376
G1 X118.558 Y100.856 E34.31653
G1 X119.651 Y100.204 E34.34193
G1 X120.706 Y100.03 E34.36327
G1 X125.194 Y100 E34.45283
G1 X126.203 Y100.247 E34.47356
G1 X127.316 Y100.823 E34.49857
G1 X128.094 Y101.658 E34.52135
G1 X128.746 Y102.753 E34.54678
G1 X128.93 Y103.928 E34.57051
G1 X128.939 Y104.9 E34.58991
G1 X140.436 Y104.9 E34.81935
G1 X141.465 Y105.153 E34.84049
G1 X142.566 Y105.723 E34.86523
G1 X143.344 Y106.558 E34.88801
G1 X143.996 Y107.651 E34.91341
