;FLAVOR:Marlin
;TIME:6356
;Filament used: 3.5704m
;Layer height: 0.16
;MINX:65.219
;MINY:89.744
;MINZ:0.24
;MAXX:154.78
;MAXY:130.255
;MAXZ:34.31
;Generated with Cura_SteamEngine 4.2.1
M140 S60
M105
M190 S60
M104 S200
M105
M109 S200
M82 ;absolute extrusion mode
M201 X500.00 Y500.00 Z100.00 E5000.00 ;Setup machine max acceleration
M203 X500.00 Y500.00 Z10.00 E50.00 ;Setup machine max feedrate
M204 P500.00 R1000.00 T500.00 ;Setup Print/Retract/Travel acceleration
M205 X8.00 Y8.00 Z0.40 E5.00 ;Setup Jerk
M220 S100 ;Reset Feedrate
M221 S100 ;Reset Flowrate

G28 ;Home

G92 E0 ;Reset Extruder
G1 Z2.0 F3000 ;Move Z Axis up
G1 X10.1 Y20 Z0.28 F5000.0 ;Move to start position
G1 X10.1 Y200.0 Z0.28 F1500.0 E15 ;Draw the first line
G1 X10.4 Y200.0 Z0.28 F5000.0 ;Move to side a little
G1 X10.4 Y20 Z0.28 F1500.0 E30 ;Draw the second line
G92 E0 ;Reset Extruder
G1 Z2.0 F3000 ;Move Z Axis up

G92 E0
G92 E0
G1 F3000 E-5
;LAYER_COUNT:170
;LAYER:-6
M107
G0 F9000 X71.426 Y95.362 Z0.24
;TYPE:SUPPORT-INTERFACE
G1 F3000 E0
G1 F900 X71.585 Y95.249 E0.01557
G1 X72.323 Y94.759 E0.08628
G1 X72.449 Y94.683 E0.09803
G1 X73.243 Y94.237 E0.17072
G1 X73.393 Y94.159 E0.18422
G1 X74.208 Y93.776 E0.2561
G1 X74.351 Y93.716 E0.26848
G1 X75.21 Y93.387 E0.34191
G1 X75.36 Y93.335 E0.35458
G1 X76.21 Y93.08 E0.42542
G1 X76.383 Y93.034 E0.43971
G1 X77.278 Y92.833 E0.51293
G1 X77.408 Y92.81 E0.52347
G1 X78.313 Y92.676 E0.5965
G1 X78.482 Y92.658 E0.61006
G1 X79.555 Y92.583 E0.69592
G1 X80.06 Y92.575 E0.73624
G1 X81.484 Y92.575 E0.84991
G1 X82.152 Y92.533 E0.90334
G1 X82.823 Y92.404 E0.95788
G1 X83.472 Y92.191 E1.01241
G1 X84.103 Y91.89 E1.06821
G1 X84.778 Y91.516 E1.12981
G1 X85.608 Y91.126 E1.20302
G1 X85.751 Y91.066 E1.2154
G1 X86.61 Y90.737 E1.28882
G1 X86.76 Y90.685 E1.30149
G1 X87.61 Y90.43 E1.37233
G1 X87.783 Y90.384 E1.38662
G1 X88.678 Y90.183 E1.45984
G1 X88.808 Y90.16 E1.47038
G1 X89.713 Y90.026 E1.54341
G1 X89.882 Y90.008 E1.55698
G1 X90.955 Y89.933 E1.64284
G1 X91.46 Y89.925 E1.68315
G1 X98.203 Y89.926 E2.22141
G1 X99.327 Y89.971 E2.3112
G1 X100.244 Y90.073 E2.38485
G1 X100.419 Y90.098 E2.39897
G1 X101.308 Y90.262 E2.47113
G1 X101.431 Y90.29 E2.4812
G1 X102.325 Y90.524 E2.55496
G1 X102.488 Y90.573 E2.56855
G1 X103.33 Y90.86 E2.63956
G1 X103.496 Y90.923 E2.65373
G1 X104.299 Y91.264 E2.72337
G1 X104.488 Y91.352 E2.74001
G1 X105.282 Y91.761 E2.81131
G1 X105.507 Y91.887 E2.83189
G1 X105.74 Y92.01 E2.85293
G1 X106.357 Y92.272 E2.90643
G1 X107.015 Y92.457 E2.96099
G1 X107.686 Y92.556 E3.01514
G1 X108.135 Y92.575 E3.05101
G1 X111.884 Y92.575 E3.35027
G1 X112.552 Y92.533 E3.4037
G1 X113.223 Y92.404 E3.45824
G1 X113.872 Y92.191 E3.51277
G1 X114.503 Y91.89 E3.56857
G1 X115.178 Y91.516 E3.63017
G1 X116.008 Y91.126 E3.70338
G1 X116.151 Y91.066 E3.71575
G1 X117.01 Y90.737 E3.78918
G1 X117.16 Y90.685 E3.80185
G1 X118.01 Y90.43 E3.87269
G1 X118.183 Y90.384 E3.88698
G1 X119.078 Y90.183 E3.9602
G1 X119.208 Y90.16 E3.97074
G1 X120.113 Y90.026 E4.04377
G1 X120.282 Y90.008 E4.05734
G1 X121.355 Y89.933 E4.1432
G1 X121.86 Y89.925 E4.18351
G1 X128.603 Y89.926 E4.72177
G1 X129.727 Y89.971 E4.81156
G1 X130.644 Y90.073 E4.88521
G1 X130.819 Y90.098 E4.89933
G1 X131.708 Y90.262 E4.97149
G1 X131.831 Y90.29 E4.98156
G1 X132.725 Y90.524 E5.05532
G1 X132.888 Y90.573 E5.06891
G1 X133.73 Y90.86 E5.13992
G1 X133.896 Y90.923 E5.15409
G1 X134.699 Y91.264 E5.22373
G1 X134.888 Y91.352 E5.24037
G1 X135.682 Y91.761 E5.31167
G1 X135.907 Y91.887 E5.33225
G1 X136.14 Y92.01 E5.35328
G1 X136.757 Y92.272 E5.40679
G1 X137.415 Y92.457 E5.46135
G1 X138.086 Y92.556 E5.5155
G1 X138.535 Y92.575 E5.55137
G1 X140.003 Y92.576 E5.66855
G1 X141.004 Y92.612 E5.74851
G1 X142.044 Y92.723 E5.832
G1 X142.219 Y92.748 E5.84611
G1 X143.108 Y92.912 E5.91827
G1 X143.231 Y92.94 E5.92834
G1 X144.125 Y93.174 E6.0021
G1 X144.288 Y93.223 E6.01569
G1 X145.13 Y93.51 E6.0867
G1 X145.296 Y93.573 E6.10087
G1 X146.099 Y93.914 E6.17051
G1 X146.288 Y94.002 E6.18715
G1 X147.199 Y94.476 E6.26913
G1 X147.978 Y94.951 E6.34196
G1 X148.129 Y95.051 E6.35642
G1 X148.843 Y95.562 E6.4265
G1 X148.991 Y95.675 E6.44137
G1 X149.682 Y96.251 E6.51318
G1 X149.795 Y96.352 E6.52528
G1 X150.444 Y96.977 E6.5972
G1 X150.564 Y97.102 E6.61103
G1 X151.167 Y97.773 E6.68304
G1 X151.263 Y97.889 E6.69506
G1 X151.822 Y98.613 E6.76808
G1 X151.916 Y98.744 E6.78095
G1 X152.416 Y99.498 E6.85317
G1 X152.492 Y99.624 E6.86491
G1 X152.938 Y100.418 E6.93761
G1 X153.016 Y100.568 E6.9511
G1 X153.399 Y101.383 E7.02298
G1 X153.459 Y101.526 E7.03536
G1 X153.788 Y102.385 E7.10879
G1 X153.84 Y102.535 E7.12146
G1 X154.095 Y103.385 E7.1923
G1 X154.141 Y103.558 E7.20659
G1 X154.34 Y104.444 E7.27908
G1 X154.365 Y104.583 E7.29035
G1 X154.498 Y105.482 E7.36289
G1 X154.516 Y105.644 E7.3759
G1 X154.592 Y106.73 E7.46281
G1 X154.6 Y107.231 E7.5028
G1 X154.6 Y115.461 E8.15976
G1 X154.564 Y116.467 E8.24011
G1 X154.554 Y116.602 E8.25092
G1 X154.452 Y117.519 E8.32457
G1 X154.427 Y117.694 E8.33868
G1 X154.265 Y118.572 E8.40995
G1 X154.235 Y118.706 E8.42091
G1 X154.004 Y119.591 E8.49392
G1 X153.952 Y119.763 E8.50826
G1 X153.676 Y120.575 E8.57672
G1 X153.596 Y120.784 E8.59459
G1 X153.261 Y121.574 E8.66308
G1 X153.18 Y121.749 E8.67848
G1 X152.699 Y122.674 E8.7617
G1 X152.224 Y123.453 E8.83453
G1 X152.124 Y123.604 E8.84899
G1 X151.613 Y124.318 E8.91908
G1 X151.5 Y124.466 E8.93394
G1 X150.924 Y125.157 E9.00575
G1 X150.823 Y125.27 E9.01785
G1 X150.198 Y125.919 E9.08977
G1 X150.073 Y126.039 E9.1036
G1 X149.403 Y126.641 E9.1755
G1 X149.286 Y126.738 E9.18763
G1 X148.574 Y127.288 E9.25945
G1 X148.415 Y127.401 E9.27502
G1 X147.677 Y127.891 E9.34573
G1 X147.551 Y127.967 E9.35748
G1 X146.757 Y128.413 E9.43017
G1 X146.606 Y128.491 E9.44374
G1 X145.792 Y128.874 E9.51555
G1 X145.649 Y128.934 E9.52793
G1 X144.79 Y129.263 E9.60136
G1 X144.64 Y129.315 E9.61403
G1 X143.79 Y129.57 E9.68487
G1 X143.617 Y129.616 E9.69916
G1 X142.722 Y129.817 E9.77238
G1 X142.592 Y129.84 E9.78292
G1 X141.687 Y129.974 E9.85595
G1 X141.519 Y129.992 E9.86943
G1 X140.445 Y130.067 E9.95537
G1 X139.94 Y130.075 E9.99569
G1 X80.032 Y130.075 E14.77781
G1 X79.997 Y130.074 E14.7806
G1 X78.873 Y130.029 E14.87039
G1 X77.956 Y129.927 E14.94405
G1 X77.781 Y129.902 E14.95816
G1 X76.892 Y129.738 E15.03032
G1 X76.769 Y129.71 E15.04039
G1 X75.875 Y129.476 E15.11415
G1 X75.712 Y129.427 E15.12774
G1 X74.87 Y129.14 E15.19875
G1 X74.704 Y129.077 E15.21292
G1 X73.901 Y128.736 E15.28256
G1 X73.712 Y128.648 E15.2992
G1 X72.801 Y128.174 E15.38118
G1 X72.022 Y127.699 E15.45401
G1 X71.871 Y127.599 E15.46847
G1 X71.157 Y127.088 E15.53855
G1 X71.009 Y126.975 E15.55342
G1 X70.318 Y126.399 E15.62523
G1 X70.205 Y126.298 E15.63732
G1 X69.556 Y125.673 E15.70925
G1 X69.436 Y125.548 E15.72308
G1 X68.833 Y124.877 E15.79509
G1 X68.736 Y124.759 E15.80729
G1 X68.178 Y124.037 E15.88012
G1 X68.074 Y123.89 E15.8945
G1 X67.581 Y123.147 E15.96568
G1 X67.508 Y123.026 E15.97696
G1 X67.056 Y122.221 E16.05065
G1 X66.984 Y122.082 E16.06315
G1 X66.587 Y121.236 E16.13774
G1 X66.541 Y121.124 E16.14741
G1 X66.212 Y120.265 E16.22084
G1 X66.155 Y120.1 E16.23477
G1 X65.905 Y119.265 E16.30435
G1 X65.859 Y119.092 E16.31864
G1 X65.657 Y118.191 E16.39234
G1 X65.635 Y118.067 E16.4024
G1 X65.5 Y117.153 E16.47615
G1 X65.483 Y116.993 E16.48899
G1 X65.408 Y115.92 E16.57485
G1 X65.4 Y115.419 E16.61485
G1 X65.4 Y107.189 E17.2718
G1 X65.436 Y106.183 E17.35216
G1 X65.446 Y106.048 E17.36296
G1 X65.548 Y105.131 E17.43661
G1 X65.573 Y104.956 E17.45073
G1 X65.735 Y104.078 E17.52199
G1 X65.765 Y103.944 E17.53296
G1 X65.996 Y103.059 E17.60597
G1 X66.048 Y102.887 E17.62031
G1 X66.335 Y102.045 E17.69132
G1 X66.398 Y101.879 E17.70549
G1 X66.739 Y101.076 E17.77513
G1 X66.82 Y100.901 E17.79052
G1 X67.301 Y99.976 E17.87375
G1 X67.776 Y99.197 E17.94658
G1 X67.876 Y99.046 E17.96104
G1 X68.387 Y98.332 E18.03112
G1 X68.5 Y98.184 E18.04599
G1 X69.076 Y97.493 E18.1178
G1 X69.177 Y97.38 E18.12989
G1 X69.802 Y96.731 E18.20182
G1 X69.927 Y96.611 E18.21565
G1 X70.598 Y96.008 E18.28766
G1 X70.714 Y95.912 E18.29968
G1 X71.426 Y95.362 E18.3715
G0 F9000 X72 Y94.973
G1 F900 X72 Y127.684 E20.98263
G0 F9000 X73.6 Y128.589
G1 F900 X73.6 Y94.061 E23.73881
G0 F9000 X75.2 Y93.39
G1 F900 X75.2 Y129.252 E26.60147
G0 F9000 X76.8 Y129.717
G1 F900 X76.8 Y92.94 E29.53717
G0 F9000 X78.4 Y92.666
G1 F900 X78.4 Y129.976 E32.51541
G0 F9000 X80 Y130.074
G1 F900 X80 Y92.575 E35.50874
G0 F9000 X81.6 Y92.567
G1 F900 X81.6 Y130.075 E38.50279
G0 F9000 X83.2 Y130.075
G1 F900 X83.2 Y92.28 E41.51975
G0 F9000 X84.8 Y91.505
G1 F900 X84.8 Y130.075 E44.59858
G0 F9000 X86.4 Y130.075
G1 F900 X86.4 Y90.817 E47.73232
G0 F9000 X88 Y90.335
G1 F900 X88 Y130.075 E50.90454
G0 F9000 X89.6 Y130.075
G1 F900 X89.6 Y90.042 E54.10015
G0 F9000 X91.2 Y89.929
G1 F900 X91.2 Y130.075 E57.30477
G0 F9000 X92.8 Y130.075
G1 F900 X92.8 Y89.926 E60.50964
G0 F9000 X94.4 Y89.926
G1 F900 X94.4 Y130.075 E63.71451
G0 F9000 X96 Y130.075
G1 F900 X96 Y89.926 E66.91938
G0 F9000 X97.6 Y89.926
G1 F900 X97.6 Y130.075 E70.12424
G0 F9000 X99.2 Y130.075
G1 F900 X99.2 Y89.966 E73.32592
G0 F9000 X100.8 Y90.169
G1 F900 X100.8 Y130.075 E76.51139
G0 F9000 X102.4 Y130.075
G1 F900 X102.4 Y90.547 E79.66668
G0 F9000 X104 Y91.138
G1 F900 X104 Y130.075 E82.7748
G0 F9000 X105.6 Y130.075
G1 F900 X105.6 Y91.937 E85.81914
G0 F9000 X107.2 Y92.485
G1 F900 X107.2 Y130.075 E88.81974
G0 F9000 X108.8 Y130.075
G1 F900 X108.8 Y92.575 E91.81315
G0 F9000 X110.4 Y92.575
G1 F900 X110.4 Y130.075 E94.80656
G0 F9000 X112 Y130.075
G1 F900 X112 Y92.567 E97.80061
G0 F9000 X113.6 Y92.28
G1 F900 X113.6 Y130.075 E100.81757
G0 F9000 X115.2 Y130.075
G1 F900 X115.2 Y91.505 E103.8964
G0 F9000 X116.8 Y90.817
G1 F900 X116.8 Y130.075 E107.03014
G0 F9000 X118.4 Y130.075
G1 F900 X118.4 Y90.335 E110.20236
G0 F9000 X120 Y90.042
G1 F900 X120 Y130.075 E113.39797
G0 F9000 X121.6 Y130.075
G1 F900 X121.6 Y89.929 E116.60259
G0 F9000 X123.2 Y89.926
G1 F900 X123.2 Y130.075 E119.80746
G0 F9000 X124.8 Y130.075
G1 F900 X124.8 Y89.926 E123.01233
G0 F9000 X126.4 Y89.926
G1 F900 X126.4 Y130.075 E126.21719
G0 F9000 X128 Y130.075
G1 F900 X128 Y89.926 E129.42206
G0 F9000 X129.6 Y89.966
G1 F900 X129.6 Y130.075 E132.62373
G0 F9000 X131.2 Y130.075
G1 F900 X131.2 Y90.169 E135.8092
G0 F9000 X132.8 Y90.547
G1 F900 X132.8 Y130.075 E138.9645
G0 F9000 X134.4 Y130.075
G1 F900 X134.4 Y91.138 E142.07262
G0 F9000 X136 Y91.937
G1 F900 X136 Y130.075 E145.11696
G0 F9000 X137.6 Y130.075
G1 F900 X137.6 Y92.485 E148.11756
G0 F9000 X139.2 Y92.576
G1 F900 X139.2 Y130.075 E151.11089
G0 F9000 X140.8 Y130.043
G1 F900 X140.8 Y92.605 E154.09935
G0 F9000 X142.4 Y92.782
G1 F900 X142.4 Y129.869 E157.0598
G0 F9000 X144 Y129.507
G1 F900 X144 Y93.142 E159.96261
G0 F9000 X145.6 Y93.703
G1 F900 X145.6 Y128.953 E162.77641
G0 F9000 X147.2 Y128.165
G1 F900 X147.2 Y94.477 E165.46554
G0 F9000 X148.8 Y95.532
G1 F900 X148.8 Y127.114 E167.98655
G0 F9000 X150.4 Y125.71
G1 F900 X150.4 Y96.935 E170.28349
G0 F9000 X152 Y98.871
G1 F900 X152 Y123.778 E172.27168
G0 F9000 X153.6 Y120.774
G1 F900 X153.6 Y101.895 E173.77868
G1 F3000 E168.77868
G0 F9000 X70.4 Y96.185
G1 F3000 E173.77868
G1 F900 X70.4 Y126.467 E176.19592
G0 F9000 X68.8 Y124.836
G1 F900 X68.8 Y97.824 E178.35214
G0 F9000 X67.2 Y100.17
G1 F900 X67.2 Y122.477 E180.13278
G0 F9000 X65.6 Y117.83
G1 F900 X65.6 Y104.809 E181.17217
G0 F600 X65.6 Y104.809 Z0.48
G0 F9000 X67.018 Y122.062
;TIME_ELAPSED:163.641510
;LAYER:-5
M140 S60
;TYPE:SUPPORT
G1 F900 X67.543 Y123.006 E181.26702
G1 X67.608 Y123.115 E181.27816
G1 X68.107 Y123.866 E181.35733
G1 X68.22 Y124.025 E181.37446
G1 X68.766 Y124.732 E181.4529
G1 X68.862 Y124.849 E181.46619
G1 X69.464 Y125.519 E181.54528
G1 X69.571 Y125.632 E181.55894
G1 X70.239 Y126.274 E181.64029
G1 X71.04 Y126.946 E181.7321
G1 X71.178 Y127.053 E181.74743
G1 X71.893 Y127.565 E181.82465
G1 X72.042 Y127.663 E181.84031
G1 X72.821 Y128.138 E181.92042
G1 X72.945 Y128.208 E181.93293
G1 X73.518 Y128.503 E181.98952
G1 X66.965 Y121.95 E182.80325
G1 X66.622 Y121.218 E182.87423
G1 X66.573 Y121.096 E182.88578
G1 X66.248 Y120.25 E182.96535
G1 X66.192 Y120.085 E182.98065
G1 X66.005 Y119.462 E183.03777
G1 X76.011 Y129.469 E184.28035
G1 X76.779 Y129.67 E184.35006
G1 X77.79 Y129.862 E184.44042
G1 X77.956 Y129.886 E184.45515
G1 X65.594 Y117.524 E185.99023
G1 X65.538 Y117.146 E186.02378
G1 X65.524 Y117.002 E186.03648
G1 X65.447 Y115.932 E186.13068
G1 X65.446 Y115.848 E186.13806
G1 X79.615 Y130.017 E187.89753
G1 X79.998 Y130.033 E187.93119
G1 X80.033 Y130.034 E187.93426
G1 X81.158 Y130.034 E188.03304
G1 X65.439 Y114.315 E189.98499
G1 X65.439 Y112.787 E190.11916
G1 X82.686 Y130.034 E192.26085
G1 X84.213 Y130.034 E192.39493
G1 X65.439 Y111.26 E194.72624
G1 X65.439 Y109.733 E194.86032
G1 X85.74 Y130.034 E197.38125
G1 X87.268 Y130.034 E197.51542
G1 X65.439 Y108.205 E200.22609
G1 X65.439 Y107.19 E200.31521
G1 X65.457 Y106.696 E200.35862
G1 X88.795 Y130.034 E203.25667
G1 X90.322 Y130.034 E203.39075
G1 X65.57 Y105.281 E206.46445
G1 X65.584 Y105.148 E206.4762
G1 X65.613 Y104.96 E206.4929
G1 X65.798 Y103.982 E206.5803
G1 X91.85 Y130.034 E209.81537
G1 X93.377 Y130.034 E209.94945
G1 X66.125 Y102.781 E213.3336
G1 X66.366 Y102.072 E213.39935
G1 X66.441 Y101.879 E213.41753
G1 X66.533 Y101.662 E213.43823
G1 X94.905 Y130.034 E216.96139
G1 X96.432 Y130.034 E217.09547
G1 X67.011 Y100.613 E220.7489
G1 X67.262 Y100.124 E220.79716
G1 X67.336 Y99.996 E220.81015
G1 X67.557 Y99.632 E220.84754
G1 X97.959 Y130.034 E224.62278
G1 X99.487 Y130.034 E224.75695
G1 X68.163 Y98.71 E228.64669
G1 X68.418 Y98.355 E228.68507
G1 X68.527 Y98.214 E228.70072
G1 X68.831 Y97.85 E228.74236
G1 X101.014 Y130.034 E232.73883
G1 X102.541 Y130.034 E232.87291
G1 X69.553 Y97.045 E236.96934
G1 X69.83 Y96.758 E237.00436
G1 X69.954 Y96.638 E237.01951
G1 X70.333 Y96.298 E237.06422
G1 X104.069 Y130.034 E241.25347
G1 X105.596 Y130.034 E241.38755
G1 X71.171 Y95.608 E245.66242
G1 X71.448 Y95.394 E245.69316
G1 X71.607 Y95.281 E245.71029
G1 X72.066 Y94.977 E245.75863
G1 X107.123 Y130.034 E250.11192
G1 X108.651 Y130.034 E250.24609
G1 X73.025 Y94.407 E254.6701
G1 X73.401 Y94.198 E254.70787
G1 X74.042 Y93.898 E254.77002
G1 X110.178 Y130.034 E259.25729
G1 X111.705 Y130.034 E259.39137
G1 X75.131 Y93.459 E263.9331
G1 X75.219 Y93.425 E263.94139
G1 X75.383 Y93.369 E263.9566
G1 X76.225 Y93.115 E264.03383
G1 X76.296 Y93.096 E264.04028
G1 X113.233 Y130.034 E268.62709
G1 X114.76 Y130.034 E268.76117
G1 X77.554 Y92.828 E273.38132
G1 X78.324 Y92.713 E273.44968
G1 X78.471 Y92.698 E273.46265
G1 X78.92 Y92.667 E273.50217
G1 X116.287 Y130.034 E278.14231
G1 X117.815 Y130.034 E278.27648
G1 X80.395 Y92.614 E282.92321
G1 X81.484 Y92.614 E283.01883
G1 X81.897 Y92.588 E283.05516
G1 X119.342 Y130.034 E287.70505
G1 X120.87 Y130.034 E287.83922
G1 X83.168 Y92.332 E292.52096
G1 X83.487 Y92.227 E292.55045
G1 X84.121 Y91.925 E292.61211
G1 X84.229 Y91.865 E292.62296
G1 X122.397 Y130.034 E297.36263
G1 X123.924 Y130.034 E297.49671
G1 X85.235 Y91.344 E302.30108
G1 X85.622 Y91.162 E302.33863
G1 X85.778 Y91.097 E302.35347
G1 X86.311 Y90.893 E302.40358
G1 X125.452 Y130.034 E307.26401
G1 X126.979 Y130.034 E307.39809
G1 X87.461 Y90.516 E312.30534
G1 X87.626 Y90.465 E312.3205
G1 X87.788 Y90.422 E312.33522
G1 X88.676 Y90.224 E312.41511
G1 X88.694 Y90.221 E312.41671
G1 X128.506 Y130.034 E317.36053
G1 X130.034 Y130.034 E317.49469
G1 X90.037 Y90.037 E322.46142
G1 X90.941 Y89.972 E322.541
G1 X91.46 Y89.965 E322.58658
G1 X91.493 Y89.965 E322.58948
G1 X131.561 Y130.034 E327.56508
G1 X133.088 Y130.034 E327.69917
G1 X93.02 Y89.965 E332.67477
G1 X94.547 Y89.965 E332.80885
G1 X134.616 Y130.034 E337.78452
G1 X136.143 Y130.034 E337.9186
G1 X96.075 Y89.965 E342.89421
G1 X97.602 Y89.965 E343.02829
G1 X137.67 Y130.034 E348.0039
G1 X139.198 Y130.034 E348.13806
G1 X99.169 Y90.005 E353.10877
G1 X99.338 Y90.011 E353.12361
G1 X100.224 Y90.11 E353.2019
G1 X100.408 Y90.137 E353.21822
G1 X100.926 Y90.235 E353.26452
G1 X140.7 Y130.009 E358.20355
G1 X141.527 Y129.95 E358.27635
G1 X141.675 Y129.934 E358.28942
G1 X142.091 Y129.872 E358.32635
G1 X103.013 Y90.794 E363.17896
G1 X103.3 Y90.892 E363.20559
G1 X103.492 Y90.965 E363.22363
