;FLAVOR:Marlin
;TIME:10152
;Filament used: 3.27293m
;Layer height: 0.12
;MINX:72.2
;MINY:98.65
;MINZ:0.12
;MAXX:147.8
;MAXY:125.2
;MAXZ:43.08
;TARGET_MACHINE.NAME:Creality Ender-3 Pro
;Generated with Cura_SteamEngine 5.6.0
M82 ;absolute extrusion mode
; Ender 3 Custom Start G-code
G92 E0 ; Reset Extruder
G28 ; Home all axes
G1 Z5.0 F3000 ; Move Z Axis up a bit during heating to not damage bed
M104 S175 ; Start heating up the nozzle most of the way
M190 S60 ; Start heating the bed, wait until target temperature reached
M109 S200 ; Finish heating the nozzle
G1 Z2.0 F3000 ; Move Z Axis up little to prevent scratching of Heat Bed
G1 X0.1 Y20 Z0.3 F5000.0 ; Move to start position
G1 X0.1 Y200.0 Z0.3 F1500.0 E15 ; Draw the first line
G1 X0.4 Y200.0 Z0.3 F5000.0 ; Move to side a little
G1 X0.4 Y20 Z0.3 F1500.0 E30 ; Draw the second line
G92 E0 ; Reset Extruder
G1 Z2.0 F3000 ; Move Z Axis up little to prevent scratching of Heat Bed
G1 X5 Y20 Z0.3 F5000.0 ; Move over to prevent blob squish
G92 E0
G92 E0
G1 F1500 E-6.5
;LAYER_COUNT:359
;LAYER:0
M107
G0 F6000 X75.286 Y102.858 Z0.12
;TYPE:SKIRT
G1 F1500 E0
G1 F1200 X77.105 Y101.774 E0.04226
G1 X77.493 Y101.627 E0.05054
G1 X79.269 Y101.355 E0.08639
G1 X85.499 Y101.313 E0.21072
G1 X86.71 Y100.188 E0.24371
G1 X88.562 Y99.085 E0.28672
G1 X88.805 Y98.99 E0.29193
G1 X90.669 Y98.705 E0.32956
G1 X99.04 Y98.65 E0.49662
G1 X100.952 Y99.119 E0.5359
G1 X102.979 Y100.17 E0.58147
G1 X104.034 Y101.3 E0.61232
G1 X115.912 Y101.3 E0.84936
G1 X117.092 Y100.2 E0.88155
G1 X118.961 Y99.085 E0.92498
G1 X119.204 Y98.99 E0.93019
G1 X121.069 Y98.705 E0.96784
G1 X129.44 Y98.65 E1.1349
G1 X131.352 Y99.119 E1.17418
G1 X133.379 Y100.17 E1.21975
G1 X134.434 Y101.3 E1.2506
G1 X140.853 Y101.3 E1.3787
G1 X142.749 Y101.766 E1.41766
G1 X144.777 Y102.819 E1.46326
G1 X146.236 Y104.38 E1.5059
G1 X147.404 Y106.339 E1.55142
G1 X147.455 Y106.48 E1.55441
G1 X147.735 Y108.245 E1.59007
G1 X147.8 Y118.242 E1.78958
G1 X147.332 Y120.151 E1.8288
G1 X146.281 Y122.177 E1.87435
G1 X144.72 Y123.636 E1.91699
G1 X142.697 Y124.843 E1.964
G1 X140.979 Y125.125 E1.99874
G1 X79.147 Y125.2 E3.23267
G1 X77.251 Y124.734 E3.27163
G1 X75.223 Y123.681 E3.31723
G1 X73.764 Y122.12 E3.35987
G1 X72.596 Y120.161 E3.40539
G1 X72.545 Y120.02 E3.40838
G1 X72.265 Y118.255 E3.44404
G1 X72.2 Y108.258 E3.64355
G1 X72.668 Y106.349 E3.68277
G1 X73.719 Y104.323 E3.72832
G1 X75.286 Y102.858 E3.77113
G0 F6000 X75.525 Y103.182
G1 F1200 X77.31 Y102.118 E3.8126
G1 X77.594 Y102.016 E3.81862
G1 X79.272 Y101.755 E3.85251
G1 X85.657 Y101.712 E3.97993
G1 X86.949 Y100.512 E4.01512
G1 X88.767 Y99.429 E4.05735
G1 X88.91 Y99.378 E4.06038
G1 X90.672 Y99.105 E4.09596
G1 X98.995 Y99.05 E4.26206
G1 X100.809 Y99.495 E4.29933
G1 X102.734 Y100.493 E4.3426
G1 X103.861 Y101.7 E4.37556
G1 X116.07 Y101.7 E4.6192
G1 X117.334 Y100.522 E4.65368
G1 X119.166 Y99.429 E4.69625
G1 X119.309 Y99.378 E4.69928
G1 X121.072 Y99.105 E4.73489
G1 X129.395 Y99.05 E4.90098
G1 X131.209 Y99.495 E4.93826
G1 X133.134 Y100.493 E4.98153
G1 X134.261 Y101.7 E5.01448
G1 X140.807 Y101.7 E5.14512
G1 X142.606 Y102.142 E5.18209
G1 X144.532 Y103.142 E5.22539
G1 X145.912 Y104.619 E5.26573
G1 X147.06 Y106.544 E5.31046
G1 X147.335 Y108.248 E5.3449
G1 X147.4 Y118.197 E5.54345
G1 X146.956 Y120.008 E5.58066
G1 X145.958 Y121.932 E5.62392
G1 X144.481 Y123.312 E5.66425
G1 X142.557 Y124.46 E5.70897
G1 X140.914 Y124.73 E5.74219
G1 X79.193 Y124.8 E6.9739
G1 X77.394 Y124.358 E7.01087
G1 X75.468 Y123.358 E7.05418
G1 X74.088 Y121.881 E7.09452
G1 X72.94 Y119.956 E7.13925
G1 X72.665 Y118.252 E7.17369
G1 X72.6 Y108.303 E7.37224
G1 X73.044 Y106.492 E7.40945
G1 X74.042 Y104.568 E7.4527
G1 X75.525 Y103.182 E7.49321
G0 F6000 X75.764 Y103.506
G1 F1200 X77.515 Y102.462 E7.53389
G1 X77.656 Y102.411 E7.53689
G1 X79.275 Y102.155 E7.5696
G1 X85.815 Y102.111 E7.70011
G1 X87.188 Y100.836 E7.7375
G1 X88.972 Y99.773 E7.77895
G1 X90.675 Y99.505 E7.81335
G1 X98.95 Y99.45 E7.97849
G1 X100.666 Y99.871 E8.01375
G1 X102.489 Y100.816 E8.05473
G1 X103.687 Y102.1 E8.08977
G1 X116.228 Y102.1 E8.34004
G1 X117.576 Y100.844 E8.37681
G1 X119.371 Y99.773 E8.41852
G1 X121.075 Y99.505 E8.45294
G1 X129.35 Y99.45 E8.61808
G1 X131.066 Y99.871 E8.65335
G1 X132.889 Y100.816 E8.69432
G1 X134.087 Y102.1 E8.72937
G1 X140.76 Y102.1 E8.86253
G1 X142.464 Y102.519 E8.89755
G1 X144.287 Y103.465 E8.93854
G1 X145.591 Y104.861 E8.97666
G1 X146.677 Y106.681 E9.01896
G1 X146.935 Y108.251 E9.05071
G1 X147 Y118.152 E9.2483
G1 X146.58 Y119.865 E9.28349
G1 X145.635 Y121.687 E9.32445
G1 X144.239 Y122.991 E9.36258
G1 X142.419 Y124.077 E9.40487
G1 X140.849 Y124.335 E9.43662
G1 X79.24 Y124.4 E10.6661
G1 X77.536 Y123.981 E10.70111
G1 X75.713 Y123.035 E10.7421
G1 X74.409 Y121.639 E10.78022
G1 X73.323 Y119.819 E10.82252
G1 X73.065 Y118.249 E10.85427
G1 X73 Y108.348 E11.05186
G1 X73.42 Y106.635 E11.08706
G1 X74.365 Y104.813 E11.12801
G1 X75.764 Y103.506 E11.16622
G0 F6000 X76.003 Y103.83
G1 F1200 X77.72 Y102.806 E11.20612
G1 X79.278 Y102.555 E11.23761
G1 X86.048 Y102.51 E11.37272
G1 X86.186 Y102.312 E11.37753
G1 X87.427 Y101.16 E11.41132
G1 X89.112 Y100.156 E11.45047
G1 X90.678 Y99.905 E11.48212
G1 X98.905 Y99.85 E11.6463
G1 X100.523 Y100.247 E11.67954
G1 X102.244 Y101.139 E11.71823
G1 X103.514 Y102.5 E11.75538
G1 X116.456 Y102.5 E12.01365
G1 X116.585 Y102.315 E12.01815
G1 X117.818 Y101.166 E12.05178
G1 X119.511 Y100.156 E12.09112
G1 X121.078 Y99.905 E12.12279
G1 X129.305 Y99.85 E12.28698
G1 X130.923 Y100.247 E12.32022
G1 X132.644 Y101.139 E12.35891
G1 X133.914 Y102.5 E12.39605
G1 X140.714 Y102.5 E12.53176
G1 X142.321 Y102.895 E12.56478
G1 X144.042 Y103.788 E12.60347
G1 X145.27 Y105.103 E12.63938
G1 X146.294 Y106.819 E12.67926
G1 X146.54 Y108.316 E12.70953
G1 X146.6 Y118.107 E12.90492
G1 X146.204 Y119.722 E12.93811
G1 X145.312 Y121.442 E12.97677
G1 X143.997 Y122.67 E13.01268
G1 X142.281 Y123.694 E13.05256
G1 X140.784 Y123.94 E13.08283
G1 X79.286 Y124 E14.31009
G1 X77.679 Y123.605 E14.34312
G1 X75.958 Y122.712 E14.38181
G1 X74.73 Y121.397 E14.41771
G1 X73.706 Y119.681 E14.45759
G1 X73.46 Y118.184 E14.48787
G1 X73.4 Y108.393 E14.68326
G1 X73.796 Y106.778 E14.71645
G1 X74.688 Y105.058 E14.75511
G1 X76.003 Y103.83 E14.79102
G0 F6000 X76.245 Y104.151
G1 F1200 X77.857 Y103.189 E14.82848
G1 X79.281 Y102.955 E14.85728
G1 X86.274 Y102.908 E14.99683
G1 X86.458 Y102.605 E15.00391
G1 X87.666 Y101.484 E15.03679
G1 X89.251 Y100.539 E15.07362
G1 X90.681 Y100.305 E15.10254
G1 X98.86 Y100.25 E15.26576
G1 X100.38 Y100.623 E15.29699
G1 X101.999 Y101.462 E15.33338
G1 X103.117 Y102.66 E15.36609
G1 X103.27 Y102.9 E15.37177
G1 X116.681 Y102.9 E15.6394
G1 X116.858 Y102.608 E15.64621
G1 X118.06 Y101.488 E15.679
G1 X119.651 Y100.539 E15.71597
G1 X121.081 Y100.305 E15.74488
G1 X129.26 Y100.25 E15.90811
G1 X130.78 Y100.623 E15.93934
G1 X132.399 Y101.462 E15.97573
G1 X133.517 Y102.66 E16.00843
G1 X133.67 Y102.9 E16.01411
G1 X140.668 Y102.9 E16.15376
G1 X142.178 Y103.271 E16.18479
G1 X143.797 Y104.111 E16.22119
G1 X144.949 Y105.345 E16.25488
G1 X145.911 Y106.957 E16.29234
G1 X146.145 Y108.381 E16.32114
G1 X146.2 Y118.062 E16.51434
G1 X145.828 Y119.579 E16.54551
G1 X144.989 Y121.197 E16.58188
G1 X143.755 Y122.349 E16.61557
G1 X142.143 Y123.311 E16.65303
G1 X140.719 Y123.545 E16.68183
G1 X79.332 Y123.6 E17.90688
G1 X77.822 Y123.229 E17.93791
G1 X76.203 Y122.389 E17.9743
G1 X75.051 Y121.155 E18.00799
G1 X74.089 Y119.543 E18.04546
G1 X73.855 Y118.119 E18.07425
G1 X73.8 Y108.438 E18.26745
G1 X74.172 Y106.921 E18.29862
G1 X75.011 Y105.303 E18.33499
G1 X76.245 Y104.151 E18.36868
G0 F6000 X76.487 Y104.472
G1 F1200 X77.995 Y103.572 E18.40373
G1 X79.346 Y103.35 E18.43105
G1 X86.518 Y103.307 E18.57418
G1 X86.73 Y102.898 E18.58337
G1 X87.905 Y101.808 E18.61536
G1 X89.391 Y100.922 E18.64988
G1 X90.746 Y100.7 E18.67728
G1 X98.815 Y100.65 E18.83831
G1 X100.237 Y100.999 E18.86753
G1 X101.754 Y101.785 E18.90163
G1 X102.825 Y102.933 E18.93296
G1 X103.042 Y103.3 E18.94147
G1 X116.924 Y103.3 E19.2185
G1 X117.131 Y102.901 E19.22747
G1 X118.302 Y101.81 E19.25941
G1 X119.791 Y100.922 E19.294
G1 X121.146 Y100.7 E19.3214
G1 X129.215 Y100.65 E19.48243
G1 X130.637 Y100.999 E19.51165
G1 X132.154 Y101.785 E19.54575
G1 X133.225 Y102.933 E19.57708
G1 X133.442 Y103.3 E19.58559
G1 X140.621 Y103.3 E19.72885
G1 X142.036 Y103.648 E19.75793
G1 X143.552 Y104.434 E19.79201
G1 X144.628 Y105.587 E19.82348
G1 X145.528 Y107.095 E19.85853
G1 X145.75 Y108.446 E19.88585
G1 X145.8 Y118.017 E20.07685
G1 X145.452 Y119.436 E20.10601
G1 X144.666 Y120.952 E20.14009
G1 X143.513 Y122.028 E20.17156
G1 X142.005 Y122.928 E20.20661
G1 X140.654 Y123.15 E20.23393
G1 X79.379 Y123.2 E21.45674
G1 X77.964 Y122.852 E21.48582
G1 X76.448 Y122.066 E21.51989
G1 X75.372 Y120.913 E21.55137
G1 X74.472 Y119.405 E21.58641
G1 X74.25 Y118.054 E21.61374
G1 X74.2 Y108.483 E21.80474
G1 X74.548 Y107.064 E21.83389
G1 X75.334 Y105.548 E21.86797
G1 X76.487 Y104.472 E21.89944
G0 F6000 X76.729 Y104.793
G1 F1200 X78.133 Y103.955 E21.93207
G1 X79.411 Y103.745 E21.95792
G1 X86.762 Y103.706 E22.10462
G1 X87.053 Y103.144 E22.11725
G1 X88.144 Y102.132 E22.14695
G1 X89.531 Y101.305 E22.17917
G1 X90.811 Y101.095 E22.20506
G1 X98.77 Y101.05 E22.36389
G1 X100.094 Y101.375 E22.3911
G1 X101.507 Y102.107 E22.42285
G1 X102.504 Y103.176 E22.45202
G1 X102.814 Y103.7 E22.46417
G1 X117.167 Y103.7 E22.7506
G1 X117.453 Y103.148 E22.76301
G1 X118.544 Y102.132 E22.79276
G1 X119.931 Y101.305 E22.82499
G1 X121.211 Y101.095 E22.85087
G1 X129.17 Y101.05 E23.00971
G1 X130.494 Y101.375 E23.03691
G1 X131.907 Y102.107 E23.06867
G1 X132.904 Y103.176 E23.09784
G1 X133.214 Y103.7 E23.10999
G1 X140.575 Y103.7 E23.25689
G1 X141.893 Y104.024 E23.28397
G1 X143.307 Y104.757 E23.31576
G1 X144.307 Y105.829 E23.34501
G1 X145.145 Y107.233 E23.37764
G1 X145.355 Y108.511 E23.40349
G1 X145.4 Y117.972 E23.59229
G1 X145.076 Y119.293 E23.61944
G1 X144.343 Y120.707 E23.65122
G1 X143.271 Y121.707 E23.68048
G1 X141.867 Y122.545 E23.71311
G1 X140.589 Y122.755 E23.73895
G1 X79.425 Y122.8 E24.95955
G1 X78.107 Y122.476 E24.98663
G1 X76.693 Y121.743 E25.01842
G1 X75.693 Y120.671 E25.04767
G1 X74.855 Y119.267 E25.0803
G1 X74.645 Y117.989 E25.10615
G1 X74.6 Y108.528 E25.29495
G1 X74.924 Y107.207 E25.3221
G1 X75.657 Y105.793 E25.35388
G1 X76.729 Y104.793 E25.38314
G0 F6000 X76.974 Y105.112
G1 F1200 X78.271 Y104.338 E25.41328
G1 X79.476 Y104.14 E25.43765
G1 X87.006 Y104.105 E25.58792
G1 X87.376 Y103.39 E25.60398
G1 X88.383 Y102.456 E25.63139
G1 X89.671 Y101.688 E25.66132
G1 X90.876 Y101.49 E25.68569
G1 X98.725 Y101.45 E25.84233
G1 X99.951 Y101.751 E25.86752
G1 X101.26 Y102.429 E25.89694
G1 X102.183 Y103.419 E25.92395
G1 X102.586 Y104.1 E25.93974
G1 X117.41 Y104.1 E26.23557
G1 X117.776 Y103.393 E26.25146
G1 X118.783 Y102.456 E26.27891
G1 X120.071 Y101.688 E26.30883
G1 X121.276 Y101.49 E26.3332
G1 X129.125 Y101.45 E26.48984
G1 X130.351 Y101.751 E26.51503
G1 X131.66 Y102.429 E26.54445
G1 X132.583 Y103.419 E26.57146
G1 X132.986 Y104.1 E26.58725
G1 X140.529 Y104.1 E26.73778
G1 X141.75 Y104.4 E26.76287
G1 X143.06 Y105.079 E26.79232
G1 X143.988 Y106.074 E26.81947
G1 X144.762 Y107.371 E26.84961
G1 X144.96 Y108.576 E26.87398
G1 X145 Y117.927 E27.06059
G1 X144.7 Y119.15 E27.08572
G1 X144.021 Y120.46 E27.11517
G1 X143.026 Y121.388 E27.14232
G1 X141.729 Y122.162 E27.17246
G1 X140.524 Y122.36 E27.19683
G1 X79.471 Y122.4 E28.41521
G1 X78.25 Y122.1 E28.4403
G1 X76.94 Y121.421 E28.46975
G1 X76.012 Y120.426 E28.4969
G1 X75.238 Y119.129 E28.52704
G1 X75.04 Y117.924 E28.55141
G1 X75 Y108.573 E28.73802
G1 X75.3 Y107.35 E28.76315
G1 X75.979 Y106.04 E28.7926
G1 X76.974 Y105.112 E28.81975
G0 F6000 X77.216 Y105.434
G1 F1200 X78.411 Y104.721 E28.84752
G1 X79.541 Y104.535 E28.87037
G1 X87.25 Y104.504 E29.02421
G1 X87.699 Y103.636 E29.04372
G1 X88.622 Y102.78 E29.06884
G1 X89.811 Y102.071 E29.09646
G1 X90.941 Y101.885 E29.11932
G1 X98.68 Y101.85 E29.27376
G1 X99.808 Y102.127 E29.29694
G1 X101.013 Y102.751 E29.32402
G1 X101.864 Y103.664 E29.34893
G1 X102.358 Y104.5 E29.3683
G1 X117.653 Y104.5 E29.67353
G1 X118.099 Y103.638 E29.6929
G1 X119.022 Y102.78 E29.71805
G1 X120.211 Y102.071 E29.74567
G1 X121.341 Y101.885 E29.76853
G1 X129.08 Y101.85 E29.92297
G1 X130.208 Y102.127 E29.94615
G1 X131.413 Y102.751 E29.97323
G1 X132.264 Y103.664 E29.99814
G1 X132.758 Y104.5 E30.01752
G1 X140.483 Y104.5 E30.17168
G1 X141.607 Y104.776 E30.19477
G1 X142.813 Y105.401 E30.22188
G1 X143.666 Y106.316 E30.24684
G1 X144.379 Y107.511 E30.27461
G1 X144.565 Y108.641 E30.29747
G1 X144.6 Y117.882 E30.48188
G1 X144.324 Y119.007 E30.505
G1 X143.699 Y120.213 E30.53211
G1 X142.784 Y121.066 E30.55707
G1 X141.589 Y121.779 E30.58484
G1 X140.459 Y121.965 E30.60769
G1 X79.517 Y122 E31.82386
G1 X78.393 Y121.724 E31.84695
G1 X77.187 Y121.099 E31.87406
G1 X76.334 Y120.184 E31.89902
G1 X75.621 Y118.989 E31.92679
G1 X75.435 Y117.859 E31.94965
G1 X75.4 Y108.618 E32.13406
G1 X75.676 Y107.493 E32.15718
G1 X76.301 Y106.287 E32.18429
G1 X77.216 Y105.434 E32.20925
G0 F6000 X77.458 Y105.756
G1 F1200 X78.551 Y105.104 E32.23465
G1 X79.606 Y104.93 E32.25599
G1 X87.494 Y104.903 E32.4134
G1 X88.022 Y103.882 E32.43634
G1 X88.861 Y103.104 E32.45917
G1 X89.951 Y102.454 E32.4845
G1 X91.006 Y102.28 E32.50584
G1 X98.635 Y102.25 E32.65808
G1 X99.665 Y102.503 E32.67925
G1 X100.766 Y103.073 E32.70399
G1 X101.545 Y103.909 E32.72679
G1 X102.13 Y104.9 E32.74976
G1 X117.896 Y104.9 E33.06439
G1 X118.422 Y103.883 E33.08724
G1 X119.261 Y103.104 E33.11008
G1 X120.351 Y102.454 E33.13541
G1 X121.406 Y102.28 E33.15675
G1 X129.035 Y102.25 E33.30899
G1 X130.065 Y102.503 E33.33016
G1 X131.166 Y103.073 E33.3549
G1 X131.945 Y103.909 E33.37771
G1 X132.53 Y104.9 E33.40067
G1 X140.436 Y104.9 E33.55844
G1 X141.465 Y105.153 E33.57959
G1 X142.566 Y105.723 E33.60433
G1 X143.344 Y106.558 E33.62711
G1 X143.996 Y107.651 E33.6525
G1 X144.17 Y108.706 E33.67384
G1 X144.2 Y117.836 E33.85604
G1 X143.947 Y118.865 E33.87719
G1 X143.377 Y119.966 E33.90193
G1 X142.542 Y120.744 E33.92471
G1 X141.449 Y121.396 E33.9501
G1 X140.394 Y121.57 E33.97144
G1 X79.564 Y121.6 E35.18537
G1 X78.535 Y121.347 E35.20652
G1 X77.434 Y120.777 E35.23126
G1 X76.656 Y119.942 E35.25403
G1 X76.004 Y118.849 E35.27943
G1 X75.83 Y117.794 E35.30077
G1 X75.8 Y108.664 E35.48297
G1 X76.053 Y107.635 E35.50412
G1 X76.623 Y106.534 E35.52886
G1 X77.458 Y105.756 E35.55163
G0 F6000 X77.7 Y106.078
G1 F1200 X78.691 Y105.487 E35.57466
G1 X79.671 Y105.325 E35.59448
G1 X87.785 Y105.302 E35.75641
G1 X87.847 Y105.091 E35.76079
G1 X88.345 Y104.128 E35.78243
G1 X89.1 Y103.428 E35.80298
G1 X90.091 Y102.837 E35.826
G1 X91.071 Y102.675 E35.84582
G1 X98.59 Y102.65 E35.99588
G1 X99.522 Y102.879 E36.01503
G1 X100.519 Y103.395 E36.03743
G1 X101.222 Y104.15 E36.05802
G1 X101.774 Y105.076 E36.07953
G1 X101.839 Y105.3 E36.08419
G1 X118.185 Y105.3 E36.41039
G1 X118.247 Y105.091 E36.41474
G1 X118.745 Y104.128 E36.43637
G1 X119.5 Y103.428 E36.45692
G1 X120.491 Y102.837 E36.47995
G1 X121.471 Y102.675 E36.49977
G1 X128.99 Y102.65 E36.64982
G1 X129.922 Y102.879 E36.66897
G1 X130.919 Y103.395 E36.69137
G1 X131.622 Y104.15 E36.71196
G1 X132.174 Y105.076 E36.73348
G1 X132.239 Y105.3 E36.73813
G1 X140.39 Y105.3 E36.90079
G1 X141.322 Y105.529 E36.91994
G1 X142.319 Y106.045 E36.94235
G1 X143.022 Y106.8 E36.96293
G1 X143.613 Y107.791 E36.98596
G1 X143.775 Y108.771 E37.00578
G1 X143.8 Y117.79 E37.18577
G1 X143.571 Y118.722 E37.20492
G1 X143.055 Y119.719 E37.22732
G1 X142.3 Y120.422 E37.24791
G1 X141.309 Y121.013 E37.27094
G1 X140.329 Y121.175 E37.29076
G1 X79.61 Y121.2 E38.50247
G1 X78.678 Y120.971 E38.52162
G1 X77.681 Y120.455 E38.54403
G1 X76.978 Y119.7 E38.56461
G1 X76.387 Y118.709 E38.58764
G1 X76.225 Y117.729 E38.60746
G1 X76.2 Y108.71 E38.78745
G1 X76.429 Y107.778 E38.8066
G1 X76.945 Y106.781 E38.829
G1 X77.7 Y106.078 E38.84959
G0 F6000 X77.939 Y106.402
G1 F1200 X78.831 Y105.87 E38.87032
G1 X79.736 Y105.72 E38.88862
G1 X88.101 Y105.701 E39.05556
G1 X88.202 Y105.275 E39.06429
G1 X88.668 Y104.374 E39.08454
G1 X89.339 Y103.752 E39.10279
G1 X90.231 Y103.22 E39.12352
G1 X91.136 Y103.07 E39.14183
G1 X98.544 Y103.05 E39.28966
