;FLAVOR:Marlin
;TIME:11021
;Filament used: 3.56954m
;Layer height: 0.12
;MINX:72.2
;MINY:97.3
;MINZ:0.12
;MAXX:147.8
;MAXY:125.2
;MAXZ:45.96
;TARGET_MACHINE.NAME:Creality Ender-3 Pro
;Generated with Cura_SteamEngine 5.6.0
M82 ;absolute extrusion mode
; Ender 3 Custom Start G-code
G92 E0 ; Reset Extruder
G28 ; Home all axes
G1 Z5.0 F3000 ; Move Z Axis up a bit during heating to not damage bed
M104 S175 ; Start heating up the nozzle most of the way
M190 S60 ; Start heating the bed, wait until target temperature reached
M109 S200 ; Finish heating the nozzle
G1 Z2.0 F3000 ; Move Z Axis up little to prevent scratching of Heat Bed
G1 X0.1 Y20 Z0.3 F5000.0 ; Move to start position
G1 X0.1 Y200.0 Z0.3 F1500.0 E15 ; Draw the first line
G1 X0.4 Y200.0 Z0.3 F5000.0 ; Move to side a little
G1 X0.4 Y20 Z0.3 F1500.0 E30 ; Draw the second line
G92 E0 ; Reset Extruder
G1 Z2.0 F3000 ; Move Z Axis up little to prevent scratching of Heat Bed
G1 X5 Y20 Z0.3 F5000.0 ; Move over to prevent blob squish
G92 E0
G92 E0
G1 F1500 E-6.5
;LAYER_COUNT:383
;LAYER:0
M107
G0 F6000 X75.295 Y102.849 Z0.12
;TYPE:SKIRT
G1 F1500 E0
G1 F1200 X77.019 Y101.827 E0.04
G1 X77.501 Y101.624 E0.05043
G1 X79.343 Y101.348 E0.0876
G1 X81.949 Y101.323 E0.13961
G1 X82.469 Y100.323 E0.1621
G1 X84.03 Y98.864 E0.20474
G1 X86.053 Y97.657 E0.25175
G1 X87.833 Y97.37 E0.28773
G1 X98.493 Y97.3 E0.50047
G1 X100.401 Y97.768 E0.53968
G1 X102.427 Y98.819 E0.58522
G1 X103.904 Y100.398 E0.62837
G1 X104.441 Y101.3 E0.64932
G1 X115.56 Y101.3 E0.87121
G1 X116.064 Y100.319 E0.89322
G1 X117.615 Y98.875 E0.93551
G1 X119.656 Y97.657 E0.98294
G1 X121.433 Y97.37 E1.01886
G1 X132.093 Y97.3 E1.2316
G1 X134.001 Y97.768 E1.2708
G1 X136.027 Y98.819 E1.31635
G1 X137.504 Y100.398 E1.3595
G1 X138.041 Y101.3 E1.38045
G1 X140.853 Y101.3 E1.43656
G1 X142.749 Y101.766 E1.47553
G1 X144.777 Y102.819 E1.52113
G1 X146.236 Y104.38 E1.56377
G1 X147.404 Y106.339 E1.60928
G1 X147.455 Y106.48 E1.61228
G1 X147.735 Y108.245 E1.64794
G1 X147.8 Y118.242 E1.84744
G1 X147.332 Y120.151 E1.88667
G1 X146.281 Y122.177 E1.93222
G1 X144.72 Y123.636 E1.97486
G1 X142.697 Y124.843 E2.02187
G1 X140.979 Y125.125 E2.05661
G1 X79.147 Y125.2 E3.29053
G1 X77.251 Y124.734 E3.3295
G1 X75.223 Y123.681 E3.3751
G1 X73.764 Y122.12 E3.41774
G1 X72.596 Y120.161 E3.46325
G1 X72.545 Y120.02 E3.46625
G1 X72.265 Y118.255 E3.50191
G1 X72.2 Y108.258 E3.70141
G1 X72.668 Y106.349 E3.74064
G1 X73.719 Y104.323 E3.78619
G1 X75.295 Y102.849 E3.82925
G0 F6000 X75.534 Y103.173
G1 F1200 X77.174 Y102.196 E3.86734
G1 X77.609 Y102.013 E3.87676
G1 X79.402 Y101.744 E3.91294
G1 X82.193 Y101.721 E3.96864
G1 X82.792 Y100.568 E3.99457
G1 X84.269 Y99.188 E4.03491
G1 X86.193 Y98.04 E4.07962
G1 X87.836 Y97.77 E4.11285
G1 X98.448 Y97.7 E4.32463
G1 X100.258 Y98.144 E4.36182
G1 X102.182 Y99.142 E4.40507
G1 X103.58 Y100.637 E4.44592
G1 X104.213 Y101.7 E4.47061
G1 X115.805 Y101.7 E4.70194
G1 X116.388 Y100.565 E4.7274
G1 X117.86 Y99.194 E4.76755
G1 X119.793 Y98.04 E4.81247
G1 X121.436 Y97.77 E4.8457
G1 X132.048 Y97.7 E5.05748
G1 X133.858 Y98.144 E5.09467
G1 X135.782 Y99.142 E5.13792
G1 X137.18 Y100.637 E5.17877
G1 X137.813 Y101.7 E5.20346
G1 X140.807 Y101.7 E5.26321
G1 X142.606 Y102.142 E5.30018
G1 X144.532 Y103.142 E5.34348
G1 X145.912 Y104.619 E5.38382
G1 X147.06 Y106.544 E5.42855
G1 X147.335 Y108.248 E5.463
G1 X147.4 Y118.197 E5.66154
G1 X146.956 Y120.008 E5.69875
G1 X145.958 Y121.932 E5.74201
G1 X144.481 Y123.312 E5.78235
G1 X142.557 Y124.46 E5.82706
G1 X140.914 Y124.73 E5.86028
G1 X79.193 Y124.8 E7.09199
G1 X77.394 Y124.358 E7.12896
G1 X75.468 Y123.358 E7.17227
G1 X74.088 Y121.881 E7.21261
G1 X72.94 Y119.956 E7.25734
G1 X72.665 Y118.252 E7.29178
G1 X72.6 Y108.303 E7.49033
G1 X73.044 Y106.492 E7.52754
G1 X74.042 Y104.568 E7.57079
G1 X75.534 Y103.173 E7.61156
G0 F6000 X75.773 Y103.497
G1 F1200 X77.379 Y102.54 E7.64886
G1 X77.716 Y102.402 E7.65613
G1 X79.461 Y102.14 E7.69134
G1 X82.437 Y102.119 E7.75074
G1 X83.115 Y100.813 E7.7801
G1 X84.511 Y99.509 E7.81822
G1 X86.331 Y98.423 E7.86052
G1 X87.901 Y98.165 E7.89227
G1 X98.403 Y98.1 E8.10185
G1 X100.115 Y98.52 E8.13703
G1 X101.937 Y99.465 E8.17799
G1 X103.256 Y100.876 E8.21653
G1 X103.985 Y102.1 E8.24496
G1 X116.05 Y102.1 E8.48573
G1 X116.712 Y100.811 E8.51465
G1 X118.105 Y99.513 E8.55265
G1 X119.931 Y98.423 E8.59509
G1 X121.501 Y98.165 E8.62684
G1 X132.003 Y98.1 E8.83642
G1 X133.715 Y98.52 E8.8716
G1 X135.537 Y99.465 E8.91256
G1 X136.856 Y100.876 E8.9511
G1 X137.585 Y102.1 E8.97953
G1 X140.76 Y102.1 E9.04289
G1 X142.464 Y102.519 E9.07791
G1 X144.287 Y103.465 E9.1189
G1 X145.591 Y104.861 E9.15702
G1 X146.677 Y106.681 E9.19932
G1 X146.935 Y108.251 E9.23107
G1 X147 Y118.152 E9.42866
G1 X146.58 Y119.865 E9.46385
G1 X145.635 Y121.687 E9.50481
G1 X144.239 Y122.991 E9.54294
G1 X142.419 Y124.077 E9.58523
G1 X140.849 Y124.335 E9.61698
G1 X79.24 Y124.4 E10.84646
G1 X77.536 Y123.981 E10.88147
G1 X75.713 Y123.035 E10.92246
G1 X74.409 Y121.639 E10.96058
G1 X73.323 Y119.819 E11.00288
G1 X73.065 Y118.249 E11.03463
G1 X73 Y108.348 E11.23222
G1 X73.42 Y106.635 E11.26742
G1 X74.365 Y104.813 E11.30838
G1 X75.773 Y103.497 E11.34684
G0 F6000 X76.012 Y103.821
G1 F1200 X77.584 Y102.884 E11.38336
G1 X77.827 Y102.789 E11.38856
G1 X79.464 Y102.54 E11.42161
G1 X82.681 Y102.517 E11.48581
G1 X83.438 Y101.058 E11.51861
G1 X84.753 Y99.83 E11.55451
G1 X86.469 Y98.806 E11.59439
G1 X87.966 Y98.56 E11.62467
G1 X98.358 Y98.5 E11.83206
G1 X99.972 Y98.896 E11.86522
G1 X101.692 Y99.788 E11.90389
G1 X102.932 Y101.115 E11.94013
G1 X103.757 Y102.5 E11.9723
G1 X116.295 Y102.5 E12.22251
G1 X117.036 Y101.057 E12.25488
G1 X118.35 Y99.832 E12.29073
G1 X120.069 Y98.806 E12.33068
G1 X121.566 Y98.56 E12.36096
G1 X131.958 Y98.5 E12.56834
G1 X133.572 Y98.896 E12.60151
G1 X135.292 Y99.788 E12.64017
G1 X136.532 Y101.115 E12.67642
G1 X137.357 Y102.5 E12.70859
G1 X140.714 Y102.5 E12.77558
G1 X142.321 Y102.895 E12.80861
G1 X144.042 Y103.788 E12.8473
G1 X145.27 Y105.103 E12.8832
G1 X146.294 Y106.819 E12.92308
G1 X146.54 Y108.316 E12.95336
G1 X146.6 Y118.107 E13.14875
G1 X146.204 Y119.722 E13.18193
G1 X145.312 Y121.442 E13.2206
G1 X143.997 Y122.67 E13.25651
G1 X142.281 Y123.694 E13.29638
G1 X140.784 Y123.94 E13.32666
G1 X79.286 Y124 E14.55392
G1 X77.679 Y123.605 E14.58694
G1 X75.958 Y122.712 E14.62563
G1 X74.73 Y121.397 E14.66154
G1 X73.706 Y119.681 E14.70142
G1 X73.46 Y118.184 E14.73169
G1 X73.4 Y108.393 E14.92709
G1 X73.796 Y106.778 E14.96027
G1 X74.688 Y105.058 E14.99894
G1 X76.012 Y103.821 E15.0351
G0 F6000 X76.251 Y104.145
G1 F1200 X77.789 Y103.228 E15.07083
G1 X77.932 Y103.177 E15.07386
G1 X79.467 Y102.94 E15.10486
G1 X82.925 Y102.915 E15.17387
G1 X83.761 Y101.303 E15.2101
G1 X84.995 Y100.151 E15.24379
G1 X86.607 Y99.189 E15.28125
G1 X88.031 Y98.955 E15.31005
G1 X98.313 Y98.9 E15.51524
G1 X99.829 Y99.272 E15.54639
G1 X101.447 Y100.111 E15.58277
G1 X102.608 Y101.354 E15.61671
G1 X103.529 Y102.9 E15.65262
G1 X116.539 Y102.9 E15.91225
G1 X117.36 Y101.303 E15.94808
G1 X118.595 Y100.151 E15.98179
G1 X120.207 Y99.189 E16.01925
G1 X121.631 Y98.955 E16.04805
G1 X131.913 Y98.9 E16.25324
G1 X133.429 Y99.272 E16.28439
G1 X135.047 Y100.111 E16.32076
G1 X136.208 Y101.354 E16.35471
G1 X137.129 Y102.9 E16.39062
G1 X140.668 Y102.9 E16.46124
G1 X142.178 Y103.271 E16.49227
G1 X143.797 Y104.111 E16.52867
G1 X144.949 Y105.345 E16.56236
G1 X145.911 Y106.957 E16.59982
G1 X146.145 Y108.381 E16.62862
G1 X146.2 Y118.062 E16.82182
G1 X145.828 Y119.579 E16.85299
G1 X144.989 Y121.197 E16.88936
G1 X143.755 Y122.349 E16.92305
G1 X142.143 Y123.311 E16.96051
G1 X140.719 Y123.545 E16.98931
G1 X79.332 Y123.6 E18.21435
G1 X77.822 Y123.229 E18.24538
G1 X76.203 Y122.389 E18.28178
G1 X75.051 Y121.155 E18.31547
G1 X74.089 Y119.543 E18.35293
G1 X73.855 Y118.119 E18.38173
G1 X73.8 Y108.438 E18.57493
G1 X74.172 Y106.921 E18.6061
G1 X75.011 Y105.303 E18.64247
G1 X76.251 Y104.145 E18.67633
G0 F6000 X76.49 Y104.469
G1 F1200 X77.994 Y103.572 E18.71128
G1 X79.47 Y103.34 E18.74109
G1 X83.236 Y103.313 E18.81625
G1 X83.319 Y103.023 E18.82227
G1 X84.084 Y101.548 E18.85543
G1 X85.237 Y100.472 E18.8869
G1 X86.745 Y99.572 E18.92195
G1 X88.096 Y99.35 E18.94927
G1 X98.268 Y99.3 E19.15227
G1 X99.686 Y99.648 E19.1814
G1 X101.202 Y100.434 E19.21548
G1 X102.284 Y101.593 E19.24712
G1 X103.139 Y103.027 E19.28044
G1 X103.211 Y103.3 E19.28607
G1 X116.84 Y103.3 E19.55806
G1 X116.919 Y103.023 E19.5638
G1 X117.684 Y101.548 E19.59696
G1 X118.837 Y100.472 E19.62843
G1 X120.345 Y99.572 E19.66348
G1 X121.696 Y99.35 E19.6908
G1 X131.868 Y99.3 E19.8938
G1 X133.286 Y99.648 E19.92294
G1 X134.802 Y100.434 E19.95701
G1 X135.884 Y101.593 E19.98866
G1 X136.739 Y103.027 E20.02197
G1 X136.811 Y103.3 E20.02761
G1 X140.621 Y103.3 E20.10364
G1 X142.036 Y103.648 E20.13272
G1 X143.552 Y104.434 E20.1668
G1 X144.628 Y105.587 E20.19827
G1 X145.528 Y107.095 E20.23332
G1 X145.75 Y108.446 E20.26064
G1 X145.8 Y118.017 E20.45164
G1 X145.452 Y119.436 E20.4808
G1 X144.666 Y120.952 E20.51487
G1 X143.513 Y122.028 E20.54635
G1 X142.005 Y122.928 E20.58139
G1 X140.654 Y123.15 E20.60872
G1 X79.379 Y123.2 E21.83152
G1 X77.964 Y122.852 E21.8606
G1 X76.448 Y122.066 E21.89468
G1 X75.372 Y120.913 E21.92615
G1 X74.472 Y119.405 E21.9612
G1 X74.25 Y118.054 E21.98852
G1 X74.2 Y108.483 E22.17952
G1 X74.548 Y107.064 E22.20868
G1 X75.334 Y105.548 E22.24276
G1 X76.49 Y104.469 E22.27432
G0 F6000 X76.729 Y104.793
G1 F1200 X78.134 Y103.955 E22.30696
G1 X79.473 Y103.74 E22.33403
G1 X83.549 Y103.711 E22.41537
G1 X83.674 Y103.207 E22.42573
G1 X84.407 Y101.793 E22.45752
G1 X85.479 Y100.793 E22.48677
G1 X86.883 Y99.955 E22.5194
G1 X88.161 Y99.745 E22.54525
G1 X98.223 Y99.7 E22.74605
G1 X99.543 Y100.024 E22.77317
G1 X100.957 Y100.757 E22.80496
G1 X101.96 Y101.832 E22.8343
G1 X102.795 Y103.232 E22.86683
G1 X102.869 Y103.7 E22.87628
G1 X117.153 Y103.7 E23.16133
G1 X117.274 Y103.207 E23.17146
G1 X118.007 Y101.793 E23.20325
G1 X119.079 Y100.793 E23.2325
G1 X120.483 Y99.955 E23.26513
G1 X121.761 Y99.745 E23.29098
G1 X131.823 Y99.7 E23.49178
G1 X133.143 Y100.024 E23.5189
G1 X134.557 Y100.757 E23.55069
G1 X135.56 Y101.832 E23.58003
G1 X136.395 Y103.232 E23.61256
G1 X136.469 Y103.7 E23.62201
G1 X140.575 Y103.7 E23.70395
G1 X141.893 Y104.024 E23.73104
G1 X143.307 Y104.757 E23.76282
G1 X144.307 Y105.829 E23.79208
G1 X145.145 Y107.233 E23.82471
G1 X145.355 Y108.511 E23.85055
G1 X145.4 Y117.972 E24.03936
G1 X145.076 Y119.293 E24.0665
G1 X144.343 Y120.707 E24.09829
G1 X143.271 Y121.707 E24.12754
G1 X141.867 Y122.545 E24.16017
G1 X140.589 Y122.755 E24.18602
G1 X79.425 Y122.8 E25.40661
G1 X78.107 Y122.476 E25.4337
G1 X76.693 Y121.743 E25.46548
G1 X75.693 Y120.671 E25.49474
G1 X74.855 Y119.267 E25.52737
G1 X74.645 Y117.989 E25.55321
G1 X74.6 Y108.528 E25.74202
G1 X74.924 Y107.207 E25.76916
G1 X75.657 Y105.793 E25.80095
G1 X76.729 Y104.793 E25.8302
G0 F6000 X76.974 Y105.112
G1 F1200 X78.271 Y104.338 E25.86035
G1 X79.476 Y104.14 E25.88472
G1 X83.863 Y104.109 E25.97226
G1 X84.05 Y103.35 E25.98786
G1 X84.729 Y102.04 E26.01731
G1 X85.724 Y101.112 E26.04446
G1 X87.021 Y100.338 E26.0746
G1 X88.226 Y100.14 E26.09897
G1 X98.178 Y100.1 E26.29758
G1 X99.4 Y100.4 E26.32269
G1 X100.71 Y101.079 E26.35213
G1 X101.638 Y102.074 E26.37929
G1 X102.412 Y103.372 E26.40944
G1 X102.527 Y104.1 E26.42415
G1 X117.466 Y104.1 E26.72228
G1 X117.65 Y103.35 E26.73769
G1 X118.329 Y102.04 E26.76713
G1 X119.324 Y101.112 E26.79428
G1 X120.621 Y100.338 E26.82443
G1 X121.826 Y100.14 E26.8488
G1 X131.778 Y100.1 E27.0474
G1 X133 Y100.4 E27.07251
G1 X134.31 Y101.079 E27.10196
G1 X135.238 Y102.074 E27.12911
G1 X136.012 Y103.372 E27.15927
G1 X136.127 Y104.1 E27.17397
G1 X140.529 Y104.1 E27.26182
G1 X141.75 Y104.4 E27.28691
G1 X143.06 Y105.079 E27.31636
G1 X143.988 Y106.074 E27.34351
G1 X144.762 Y107.371 E27.37365
G1 X144.96 Y108.576 E27.39802
G1 X145 Y117.927 E27.58463
G1 X144.7 Y119.15 E27.60976
G1 X144.021 Y120.46 E27.63921
G1 X143.026 Y121.388 E27.66636
G1 X141.729 Y122.162 E27.6965
G1 X140.524 Y122.36 E27.72087
G1 X79.471 Y122.4 E28.93925
G1 X78.25 Y122.1 E28.96434
G1 X76.94 Y121.421 E28.99379
G1 X76.012 Y120.426 E29.02094
G1 X75.238 Y119.129 E29.05108
G1 X75.04 Y117.924 E29.07545
G1 X75 Y108.573 E29.26206
G1 X75.3 Y107.35 E29.28719
G1 X75.979 Y106.04 E29.31664
G1 X76.974 Y105.112 E29.34379
G0 F6000 X77.216 Y105.434
G1 F1200 X78.411 Y104.721 E29.37156
G1 X79.541 Y104.535 E29.39441
G1 X84.177 Y104.507 E29.48693
G1 X84.426 Y103.493 E29.50777
G1 X85.051 Y102.287 E29.53487
G1 X85.966 Y101.434 E29.55984
G1 X87.161 Y100.721 E29.58761
G1 X88.291 Y100.535 E29.61046
G1 X98.133 Y100.5 E29.80687
G1 X99.257 Y100.776 E29.82997
G1 X100.463 Y101.401 E29.85707
G1 X101.316 Y102.316 E29.88204
G1 X102.029 Y103.512 E29.90982
G1 X102.186 Y104.5 E29.92979
G1 X117.779 Y104.5 E30.24096
G1 X118.026 Y103.493 E30.26165
G1 X118.651 Y102.287 E30.28876
G1 X119.566 Y101.434 E30.31373
G1 X120.761 Y100.721 E30.34149
G1 X121.891 Y100.535 E30.36435
G1 X131.733 Y100.5 E30.56076
G1 X132.857 Y100.776 E30.58385
G1 X134.063 Y101.401 E30.61096
G1 X134.916 Y102.316 E30.63593
G1 X135.629 Y103.512 E30.66371
G1 X135.786 Y104.5 E30.68368
G1 X140.483 Y104.5 E30.77741
G1 X141.607 Y104.776 E30.80051
G1 X142.813 Y105.401 E30.82761
G1 X143.666 Y106.316 E30.85258
G1 X144.379 Y107.511 E30.88035
G1 X144.565 Y108.641 E30.9032
G1 X144.6 Y117.882 E31.08762
G1 X144.324 Y119.007 E31.11073
G1 X143.699 Y120.213 E31.13784
G1 X142.784 Y121.066 E31.1628
G1 X141.589 Y121.779 E31.19057
G1 X140.459 Y121.965 E31.21343
G1 X79.517 Y122 E32.42959
G1 X78.393 Y121.724 E32.45269
G1 X77.187 Y121.099 E32.47979
G1 X76.334 Y120.184 E32.50476
G1 X75.621 Y118.989 E32.53253
G1 X75.435 Y117.859 E32.55538
G1 X75.4 Y108.618 E32.7398
G1 X75.676 Y107.493 E32.76291
G1 X76.301 Y106.287 E32.79002
G1 X77.216 Y105.434 E32.81498
G0 F6000 X77.458 Y105.756
G1 F1200 X78.551 Y105.104 E32.84038
G1 X79.606 Y104.93 E32.86172
G1 X84.55 Y104.905 E32.96038
G1 X84.562 Y104.615 E32.96618
G1 X84.803 Y103.635 E32.98632
G1 X85.373 Y102.534 E33.01106
G1 X86.208 Y101.756 E33.03383
G1 X87.301 Y101.104 E33.05923
G1 X88.356 Y100.93 E33.08057
G1 X98.086 Y100.9 E33.27474
G1 X99.115 Y101.153 E33.29589
G1 X100.216 Y101.723 E33.32063
G1 X100.994 Y102.558 E33.34341
G1 X101.646 Y103.652 E33.36882
G1 X101.845 Y104.9 E33.39404
G1 X118.15 Y104.9 E33.71943
G1 X118.162 Y104.615 E33.72512
G1 X118.403 Y103.635 E33.74526
G1 X118.973 Y102.534 E33.77
G1 X119.808 Y101.756 E33.79277
G1 X120.901 Y101.104 E33.81817
G1 X121.956 Y100.93 E33.83951
G1 X131.686 Y100.9 E34.03368
G1 X132.715 Y101.153 E34.05483
G1 X133.816 Y101.723 E34.07957
G1 X134.594 Y102.558 E34.10235
G1 X135.246 Y103.652 E34.12776
G1 X135.445 Y104.9 E34.15298
G1 X140.436 Y104.9 E34.25258
G1 X141.465 Y105.153 E34.27373
G1 X142.566 Y105.723 E34.29847
G1 X143.344 Y106.558 E34.32125
G1 X143.996 Y107.651 E34.34664
G1 X144.17 Y108.706 E34.36798
G1 X144.2 Y117.836 E34.55018
G1 X143.947 Y118.865 E34.57133
G1 X143.377 Y119.966 E34.59607
G1 X142.542 Y120.744 E34.61885
G1 X141.449 Y121.396 E34.64424
G1 X140.394 Y121.57 E34.66558
G1 X79.564 Y121.6 E35.87951
G1 X78.535 Y121.347 E35.90066
G1 X77.434 Y120.777 E35.9254
G1 X76.656 Y119.942 E35.94817
G1 X76.004 Y118.849 E35.97357
G1 X75.83 Y117.794 E35.99491
G1 X75.8 Y108.664 E36.17711
G1 X76.053 Y107.635 E36.19826
G1 X76.623 Y106.534 E36.223
G1 X77.458 Y105.756 E36.24577
G0 F6000 X77.7 Y106.078
G1 F1200 X78.691 Y105.487 E36.2688
G1 X79.671 Y105.325 E36.28862
G1 X84.95 Y105.303 E36.39397
G1 X84.95 Y104.71 E36.4058
G1 X85.179 Y103.778 E36.42496
G1 X85.695 Y102.781 E36.44736
G1 X86.45 Y102.078 E36.46795
G1 X87.441 Y101.487 E36.49097
G1 X88.421 Y101.325 E36.5108
G1 X98.04 Y101.3 E36.70275
G1 X98.972 Y101.529 E36.72191
G1 X99.969 Y102.045 E36.74431
G1 X100.672 Y102.8 E36.7649
G1 X101.263 Y103.792 E36.78794
G1 X101.43 Y104.835 E36.80902
G1 X101.439 Y105.3 E36.8183
G1 X118.55 Y105.3 E37.15977
G1 X118.55 Y104.71 E37.17154
G1 X118.779 Y103.778 E37.1907
G1 X119.295 Y102.781 E37.2131
G1 X120.05 Y102.078 E37.23369
G1 X121.041 Y101.487 E37.25671
G1 X122.021 Y101.325 E37.27653
G1 X131.64 Y101.3 E37.46849
G1 X132.572 Y101.529 E37.48764
G1 X133.569 Y102.045 E37.51005
