;FLAVOR:Marlin
;TIME:3056
;Filament used: 0.79651m
;Layer height: 0.12
;MINX:84.754
;MINY:84.752
;MINZ:0.12
;MAXX:135.247
;MAXY:135.246
;MAXZ:5.04
;TARGET_MACHINE.NAME:Creality Ender-3 Pro
;Generated with Cura_SteamEngine 5.6.0
M82 ;absolute extrusion mode
; Ender 3 Custom Start G-code
G92 E0 ; Reset Extruder
G28 ; Home all axes
G1 Z5.0 F3000 ; Move Z Axis up a bit during heating to not damage bed
M104 S175 ; Start heating up the nozzle most of the way
M190 S60 ; Start heating the bed, wait until target temperature reached
M109 S200 ; Finish heating the nozzle
G1 Z2.0 F3000 ; Move Z Axis up little to prevent scratching of Heat Bed
G1 X0.1 Y20 Z0.3 F5000.0 ; Move to start position
G1 X0.1 Y200.0 Z0.3 F1500.0 E15 ; Draw the first line
G1 X0.4 Y200.0 Z0.3 F5000.0 ; Move to side a little
G1 X0.4 Y20 Z0.3 F1500.0 E30 ; Draw the second line
G92 E0 ; Reset Extruder
G1 Z2.0 F3000 ; Move Z Axis up little to prevent scratching of Heat Bed
G1 X5 Y20 Z0.3 F5000.0 ; Move over to prevent blob squish
G92 E0
G92 E0
G1 F1500 E-6.5
;LAYER_COUNT:42
;LAYER:0
M107
G0 F6000 X94.333 Y90.196 Z0.12
;TYPE:SKIRT
G1 F1500 E0
G1 F1200 X96.066 Y89.025 E0.04174
G1 X97.783 Y88.333 E0.07868
G1 X98.72 Y88.158 E0.0977
G1 X98.908 Y88.149 E0.10146
G1 X99.387 Y87.607 E0.11589
G1 X101.307 Y86.283 E0.16244
G1 X103.322 Y85.738 E0.20409
G1 X105.491 Y85.611 E0.24745
G1 X106.176 Y85.799 E0.26163
G1 X106.663 Y85.483 E0.27321
G1 X109.05 Y84.752 E0.32303
G1 X111.063 Y84.847 E0.36325
G1 X113.237 Y85.388 E0.40796
G1 X113.852 Y85.803 E0.42276
G1 X114.533 Y85.643 E0.43672
G1 X116.871 Y85.682 E0.48339
G1 X118.83 Y86.428 E0.52522
G1 X120.807 Y87.688 E0.572
G1 X121.17 Y88.192 E0.5844
G1 X121.886 Y88.257 E0.59875
G1 X124.046 Y89.002 E0.64434
G1 X125.667 Y90.297 E0.68575
G1 X127.06 Y91.977 E0.7293
G1 X127.321 Y92.67 E0.74408
G1 X127.858 Y92.873 E0.75553
G1 X129.784 Y94.286 E0.8032
G1 X130.989 Y96.097 E0.84661
G1 X131.67 Y97.787 E0.88297
G1 X131.842 Y98.718 E0.90187
G1 X131.851 Y98.896 E0.90542
G1 X132.309 Y99.27 E0.91722
G1 X133.698 Y101.242 E0.96536
G1 X134.253 Y103.257 E1.00707
G1 X134.35 Y105.313 E1.04814
G1 X134.277 Y105.99 E1.06173
G1 X134.214 Y106.21 E1.0663
G1 X134.577 Y106.822 E1.0805
G1 X135.247 Y109.058 E1.12708
G1 X135.152 Y111.106 E1.16799
G1 X134.683 Y112.878 E1.20457
G1 X134.365 Y113.626 E1.22079
G1 X134.202 Y113.868 E1.22662
G1 X134.359 Y114.546 E1.24051
G1 X134.29 Y116.609 E1.2817
G1 X134.145 Y117.407 E1.29788
G1 X133.4 Y119.063 E1.33412
G1 X132.66 Y120.278 E1.36251
G1 X132.166 Y120.897 E1.37832
G1 X131.81 Y121.159 E1.38714
G1 X131.742 Y121.883 E1.40165
G1 X130.997 Y124.044 E1.44726
G1 X129.651 Y125.71 E1.49001
G1 X127.896 Y127.17 E1.53556
G1 X127.302 Y127.36 E1.54801
G1 X127.092 Y127.907 E1.5597
G1 X125.627 Y129.857 E1.60837
G1 X123.88 Y130.999 E1.65003
G1 X122.012 Y131.745 E1.69017
G1 X121.105 Y131.847 E1.70838
G1 X120.728 Y132.309 E1.72028
G1 X118.764 Y133.694 E1.76824
G1 X116.748 Y134.248 E1.80996
G1 X114.762 Y134.357 E1.84966
G1 X114.1 Y134.304 E1.86291
G1 X113.797 Y134.214 E1.86922
G1 X113.359 Y134.499 E1.87964
G1 X110.994 Y135.246 E1.92914
G1 X108.933 Y135.152 E1.97031
G1 X107.353 Y134.75 E2.00285
G1 X106.309 Y134.328 E2.02532
G1 X106.123 Y134.206 E2.02976
G1 X105.548 Y134.363 E2.04165
G1 X103.319 Y134.273 E2.08617
G1 X102.545 Y134.122 E2.10191
G1 X101.038 Y133.452 E2.13482
G1 X99.39 Y132.469 E2.17311
G1 X98.863 Y131.813 E2.18991
G1 X98.113 Y131.744 E2.20494
G1 X95.942 Y130.994 E2.25077
G1 X94.31 Y129.683 E2.29255
G1 X92.828 Y127.882 E2.33909
G1 X92.648 Y127.316 E2.35095
G1 X92.142 Y127.124 E2.36175
G1 X90.201 Y125.685 E2.40996
G1 X89.018 Y123.906 E2.4526
G1 X88.305 Y122.134 E2.49072
G1 X88.156 Y121.342 E2.5068
G1 X88.15 Y121.088 E2.51187
G1 X87.637 Y120.643 E2.52542
G1 X86.311 Y118.777 E2.5711
G1 X85.752 Y116.754 E2.61299
G1 X85.614 Y114.853 E2.65103
G1 X85.804 Y113.804 E2.6723
G1 X85.435 Y113.177 E2.68682
G1 X84.754 Y110.96 E2.7331
G1 X84.849 Y108.895 E2.77435
G1 X85.319 Y107.1 E2.81138
G1 X85.609 Y106.381 E2.82685
G1 X85.803 Y106.117 E2.83339
G1 X85.644 Y105.418 E2.8477
G1 X85.683 Y103.14 E2.89316
G1 X86.43 Y101.167 E2.93527
G1 X87.691 Y99.187 E2.98211
G1 X88.189 Y98.829 E2.99435
G1 X88.257 Y98.118 E3.0086
G1 X89.003 Y95.954 E3.05428
G1 X90.351 Y94.285 E3.0971
G1 X91.735 Y93.164 E3.13264
G1 X92.492 Y92.713 E3.15022
G1 X92.686 Y92.64 E3.15436
G1 X92.869 Y92.151 E3.16478
G1 X94.333 Y90.196 E3.21352
G0 F6000 X94.613 Y90.489
G1 F1200 X96.253 Y89.381 E3.25302
G1 X97.898 Y88.718 E3.28841
G1 X98.793 Y88.551 E3.30658
G1 X99.091 Y88.546 E3.31253
G1 X99.656 Y87.907 E3.32955
G1 X101.477 Y86.651 E3.3737
G1 X103.387 Y86.135 E3.41318
G1 X105.447 Y86.014 E3.45436
G1 X106.243 Y86.233 E3.47083
G1 X106.837 Y85.848 E3.48496
G1 X109.098 Y85.155 E3.53215
G1 X111.007 Y85.245 E3.57029
G1 X113.073 Y85.759 E3.61278
G1 X113.773 Y86.232 E3.62964
G1 X114.574 Y86.044 E3.64606
G1 X116.794 Y86.081 E3.69036
G1 X118.651 Y86.788 E3.73002
G1 X120.526 Y87.983 E3.77439
G1 X120.951 Y88.573 E3.7889
G1 X121.801 Y88.651 E3.80593
G1 X123.848 Y89.357 E3.84914
G1 X125.388 Y90.587 E3.88848
G1 X126.71 Y92.181 E3.9298
G1 X127.011 Y92.98 E3.94684
G1 X127.663 Y93.227 E3.96076
G1 X129.491 Y94.568 E4.006
G1 X130.634 Y96.286 E4.04718
G1 X131.284 Y97.9 E4.0819
G1 X131.449 Y98.791 E4.09998
G1 X131.454 Y99.089 E4.10593
G1 X132.014 Y99.546 E4.12036
G1 X133.33 Y101.414 E4.16596
G1 X133.855 Y103.319 E4.20539
G1 X133.952 Y105.27 E4.24437
G1 X133.879 Y105.947 E4.25796
G1 X133.777 Y106.258 E4.26449
G1 X134.208 Y106.984 E4.28134
G1 X134.844 Y109.106 E4.32555
G1 X134.754 Y111.046 E4.36431
G1 X134.296 Y112.776 E4.40002
G1 X133.998 Y113.468 E4.41505
G1 X133.77 Y113.779 E4.42275
G1 X133.957 Y114.585 E4.43926
G1 X133.896 Y116.538 E4.47825
G1 X133.76 Y117.288 E4.49347
G1 X133.035 Y118.899 E4.52872
G1 X132.319 Y120.069 E4.55609
G1 X131.888 Y120.604 E4.5698
G1 X131.429 Y120.943 E4.58119
G1 X131.349 Y121.797 E4.59831
G1 X130.641 Y123.848 E4.64161
G1 X129.368 Y125.425 E4.68205
G1 X127.699 Y126.813 E4.72537
G1 X126.998 Y127.038 E4.74007
G1 X126.739 Y127.711 E4.75446
G1 X125.35 Y129.56 E4.80061
G1 X123.695 Y130.642 E4.84007
G1 X121.911 Y131.354 E4.8784
G1 X120.898 Y131.468 E4.89874
G1 X120.453 Y132.013 E4.91278
G1 X118.59 Y133.327 E4.95828
G1 X116.68 Y133.852 E4.99781
G1 X114.794 Y133.958 E5.0355
G1 X114.132 Y133.905 E5.04876
G1 X113.741 Y133.774 E5.05699
G1 X113.187 Y134.134 E5.07017
G1 X110.943 Y134.843 E5.11713
G1 X108.992 Y134.754 E5.15611
G1 X107.452 Y134.362 E5.18782
G1 X106.46 Y133.958 E5.2092
G1 X106.206 Y133.769 E5.21551
G1 X105.503 Y133.961 E5.23006
G1 X103.395 Y133.88 E5.27216
G1 X102.666 Y133.738 E5.28698
G1 X101.243 Y133.108 E5.31803
G1 X99.657 Y132.162 E5.35489
G1 X99.069 Y131.431 E5.37361
G1 X98.198 Y131.35 E5.39107
G1 X96.14 Y130.64 E5.43451
G1 X94.591 Y129.395 E5.47417
G1 X93.186 Y127.687 E5.5183
G1 X92.97 Y127.01 E5.53249
G1 X92.334 Y126.769 E5.54606
G1 X90.497 Y125.407 E5.59169
G1 X89.373 Y123.717 E5.6322
G1 X88.691 Y122.022 E5.66866
G1 X88.549 Y121.268 E5.68397
G1 X88.551 Y120.906 E5.6912
G1 X87.936 Y120.373 E5.70744
G1 X86.678 Y118.603 E5.75077
G1 X86.148 Y116.684 E5.7905
G1 X86.017 Y114.876 E5.82668
G1 X86.224 Y113.729 E5.84993
G1 X85.802 Y113.012 E5.86654
G1 X85.157 Y110.912 E5.91038
G1 X85.247 Y108.953 E5.94951
G1 X85.69 Y107.25 E5.98463
G1 X85.962 Y106.576 E5.99913
G1 X86.233 Y106.207 E6.00827
G1 X86.045 Y105.378 E6.02523
G1 X86.082 Y103.216 E6.06838
G1 X86.79 Y101.346 E6.10829
G1 X87.987 Y99.467 E6.15275
G1 X88.57 Y99.048 E6.16708
G1 X88.65 Y98.204 E6.18399
G1 X89.359 Y96.15 E6.22736
G1 X90.634 Y94.571 E6.26786
G1 X91.987 Y93.475 E6.30261
G1 X92.695 Y93.057 E6.31901
G1 X92.992 Y92.964 E6.32522
G1 X93.224 Y92.344 E6.33843
G1 X94.613 Y90.489 E6.38468
G0 F6000 X94.893 Y90.782
G1 F1200 X96.44 Y89.737 E6.42194
G1 X98.013 Y89.103 E6.45578
G1 X98.866 Y88.944 E6.4731
G1 X99.27 Y88.947 E6.48116
G1 X99.925 Y88.207 E6.50088
G1 X101.647 Y87.02 E6.54262
G1 X103.453 Y86.531 E6.57996
G1 X105.403 Y86.417 E6.61894
G1 X106.309 Y86.666 E6.63769
G1 X107.009 Y86.213 E6.65433
G1 X109.146 Y85.558 E6.69893
G1 X110.951 Y85.643 E6.73499
G1 X112.906 Y86.13 E6.7752
G1 X113.693 Y86.661 E6.79414
G1 X114.615 Y86.445 E6.81304
G1 X116.717 Y86.48 E6.855
G1 X118.472 Y87.148 E6.89247
G1 X120.245 Y88.278 E6.93443
G1 X120.732 Y88.954 E6.95105
G1 X121.716 Y89.045 E6.97077
G1 X123.65 Y89.712 E7.0116
G1 X125.109 Y90.877 E7.04886
G1 X126.36 Y92.385 E7.08796
G1 X126.701 Y93.29 E7.10726
G1 X127.47 Y93.582 E7.12368
G1 X129.197 Y94.848 E7.16641
G1 X130.279 Y96.475 E7.2054
G1 X130.898 Y98.013 E7.23849
G1 X131.056 Y98.864 E7.25576
G1 X131.053 Y99.278 E7.26402
G1 X131.719 Y99.822 E7.28118
G1 X132.962 Y101.586 E7.32425
G1 X133.458 Y103.386 E7.36151
G1 X133.554 Y105.227 E7.39829
G1 X133.486 Y105.862 E7.41104
G1 X133.339 Y106.306 E7.42037
G1 X133.84 Y107.148 E7.43993
G1 X134.441 Y109.154 E7.48172
G1 X134.356 Y110.986 E7.51831
G1 X133.909 Y112.674 E7.55316
G1 X133.649 Y113.267 E7.56608
G1 X133.339 Y113.691 E7.57656
G1 X133.555 Y114.625 E7.59569
G1 X133.502 Y116.466 E7.63245
G1 X133.374 Y117.17 E7.64673
G1 X132.67 Y118.735 E7.68097
G1 X132.007 Y119.818 E7.70632
G1 X131.609 Y120.313 E7.71899
G1 X131.048 Y120.727 E7.7329
G1 X130.955 Y121.712 E7.75265
G1 X130.286 Y123.652 E7.7936
G1 X129.085 Y125.14 E7.83176
G1 X127.502 Y126.456 E7.87284
G1 X126.694 Y126.715 E7.88977
G1 X126.387 Y127.514 E7.90686
G1 X125.073 Y129.263 E7.95051
G1 X123.51 Y130.285 E7.98778
G1 X121.813 Y130.962 E8.02424
G1 X120.976 Y131.056 E8.04105
G1 X120.718 Y131.056 E8.0462
G1 X120.178 Y131.717 E8.06323
G1 X118.416 Y132.96 E8.10626
G1 X116.612 Y133.456 E8.1436
G1 X114.826 Y133.559 E8.1793
G1 X114.212 Y133.51 E8.19159
G1 X113.686 Y133.333 E8.20267
G1 X113.014 Y133.77 E8.21866
G1 X110.893 Y134.44 E8.26305
G1 X109.051 Y134.356 E8.29985
G1 X107.551 Y133.974 E8.33074
G1 X106.659 Y133.607 E8.34999
G1 X106.289 Y133.332 E8.35919
G1 X105.458 Y133.559 E8.37638
G1 X103.471 Y133.487 E8.41606
G1 X102.787 Y133.354 E8.42996
G1 X101.405 Y132.742 E8.46013
G1 X99.924 Y131.856 E8.49457
G1 X99.275 Y131.048 E8.51525
G1 X98.284 Y130.957 E8.53511
G1 X96.336 Y130.284 E8.57624
G1 X94.874 Y129.11 E8.61365
G1 X93.543 Y127.492 E8.65546
G1 X93.292 Y126.704 E8.67197
G1 X92.526 Y126.414 E8.68831
G1 X90.791 Y125.128 E8.73141
G1 X89.729 Y123.53 E8.7697
G1 X89.077 Y121.91 E8.80455
G1 X88.949 Y121.232 E8.81832
G1 X88.952 Y120.724 E8.82846
G1 X88.235 Y120.103 E8.84739
G1 X87.045 Y118.429 E8.88837
G1 X86.544 Y116.614 E8.92595
G1 X86.42 Y114.899 E8.96026
G1 X86.601 Y113.896 E8.9806
G1 X86.666 Y113.69 E8.98491
G1 X86.17 Y112.85 E9.00438
G1 X85.56 Y110.864 E9.04584
G1 X85.645 Y109.01 E9.08288
G1 X86.061 Y107.4 E9.11606
G1 X86.315 Y106.771 E9.1296
G1 X86.664 Y106.297 E9.14135
G1 X86.446 Y105.337 E9.16099
G1 X86.481 Y103.292 E9.20181
G1 X87.15 Y101.525 E9.23951
G1 X88.282 Y99.748 E9.28156
G1 X88.951 Y99.267 E9.298
G1 X89.044 Y98.289 E9.31761
G1 X89.714 Y96.346 E9.35862
G1 X90.916 Y94.857 E9.39681
G1 X92.239 Y93.786 E9.43078
G1 X92.856 Y93.426 E9.44503
G1 X93.298 Y93.287 E9.45428
G1 X93.579 Y92.537 E9.47026
G1 X94.893 Y90.782 E9.51402
G0 F6000 X95.173 Y91.075
G1 F1200 X96.627 Y90.093 E9.54903
G1 X98.128 Y89.488 E9.58133
G1 X98.9 Y89.344 E9.597
G1 X99.448 Y89.348 E9.60793
G1 X100.191 Y88.509 E9.6303
G1 X101.817 Y87.388 E9.66971
G1 X103.519 Y86.927 E9.7049
G1 X105.359 Y86.82 E9.74168
G1 X106.375 Y87.099 E9.76271
G1 X107.181 Y86.578 E9.78186
G1 X109.194 Y85.961 E9.82388
G1 X110.895 Y86.041 E9.85786
G1 X112.739 Y86.501 E9.89579
G1 X113.613 Y87.09 E9.91682
G1 X114.656 Y86.846 E9.93819
G1 X116.64 Y86.879 E9.97779
G1 X118.293 Y87.508 E10.01309
G1 X119.964 Y88.573 E10.05263
G1 X120.513 Y89.335 E10.07137
G1 X121.631 Y89.439 E10.09378
G1 X123.452 Y90.067 E10.13222
G1 X124.83 Y91.167 E10.16741
G1 X126.01 Y92.589 E10.20428
G1 X126.391 Y93.6 E10.22584
G1 X127.275 Y93.936 E10.24472
G1 X128.905 Y95.131 E10.28505
G1 X129.923 Y96.662 E10.32174
G1 X130.512 Y98.126 E10.35323
G1 X130.656 Y98.898 E10.3689
G1 X130.652 Y99.467 E10.38026
G1 X131.424 Y100.098 E10.40016
G1 X132.594 Y101.758 E10.44068
G1 X133.061 Y103.453 E10.47577
G1 X133.156 Y105.184 E10.51037
G1 X133.092 Y105.778 E10.52229
G1 X132.902 Y106.354 E10.53439
G1 X133.472 Y107.312 E10.55664
G1 X134.038 Y109.202 E10.59601
G1 X133.958 Y110.926 E10.63045
G1 X133.522 Y112.572 E10.66443
G1 X133.3 Y113.067 E10.67526
G1 X132.908 Y113.603 E10.68851
G1 X133.154 Y114.665 E10.71027
G1 X133.108 Y116.394 E10.74478
G1 X132.988 Y117.053 E10.75815
G1 X132.328 Y118.527 E10.79038
G1 X131.695 Y119.567 E10.81467
G1 X131.329 Y120.022 E10.82633
G1 X130.667 Y120.511 E10.84275
G1 X130.562 Y121.627 E10.86512
G1 X129.931 Y123.456 E10.90373
G1 X128.802 Y124.855 E10.93961
G1 X127.305 Y126.099 E10.97845
G1 X126.39 Y126.392 E10.99762
G1 X126.034 Y127.318 E11.01742
G1 X124.796 Y128.966 E11.05856
G1 X123.325 Y129.928 E11.09363
G1 X121.715 Y130.57 E11.12822
G1 X120.931 Y130.658 E11.14396
G1 X120.529 Y130.654 E11.15199
G1 X119.902 Y131.423 E11.17179
G1 X118.244 Y132.592 E11.21227
G1 X116.544 Y133.06 E11.24746
G1 X114.858 Y133.16 E11.28116
G1 X114.291 Y133.115 E11.29252
G1 X113.63 Y132.893 E11.30643
G1 X112.841 Y133.406 E11.32521
G1 X110.843 Y134.037 E11.36702
G1 X109.11 Y133.958 E11.40164
G1 X107.65 Y133.586 E11.43171
G1 X106.86 Y133.258 E11.44878
G1 X106.371 Y132.894 E11.46095
G1 X105.411 Y133.157 E11.48081
G1 X103.547 Y133.094 E11.51803
G1 X102.908 Y132.97 E11.53102
G1 X101.567 Y132.376 E11.56029
G1 X100.192 Y131.55 E11.5923
G1 X99.481 Y130.665 E11.61495
G1 X98.37 Y130.564 E11.63722
G1 X96.533 Y129.929 E11.676
G1 X95.155 Y128.822 E11.71128
G1 X93.9 Y127.297 E11.75069
G1 X93.614 Y126.398 E11.76952
G1 X92.719 Y126.06 E11.78861
G1 X91.085 Y124.849 E11.8292
G1 X90.085 Y123.343 E11.86527
G1 X89.463 Y121.798 E11.89851
G1 X89.349 Y121.196 E11.91074
G1 X89.353 Y120.542 E11.92379
G1 X88.534 Y119.833 E11.94541
G1 X87.412 Y118.255 E11.98405
G1 X86.94 Y116.545 E12.01945
G1 X86.823 Y114.922 E12.05192
G1 X86.995 Y113.967 E12.07128
G1 X87.103 Y113.643 E12.0781
G1 X86.537 Y112.686 E12.10029
G1 X85.963 Y110.816 E12.13932
G1 X86.043 Y109.07 E12.1742
G1 X86.432 Y107.55 E12.20551
G1 X86.668 Y106.966 E12.21808
G1 X87.095 Y106.386 E12.23246
G1 X86.847 Y105.296 E12.25477
G1 X86.88 Y103.368 E12.29325
G1 X87.51 Y101.704 E12.32875
G1 X88.577 Y100.029 E12.36839
G1 X89.332 Y99.486 E12.38694
G1 X89.437 Y98.375 E12.40921
G1 X90.07 Y96.542 E12.44791
G1 X91.199 Y95.143 E12.48379
G1 X92.44 Y94.132 E12.51573
G1 X93.018 Y93.795 E12.52909
G1 X93.604 Y93.611 E12.54134
G1 X93.934 Y92.73 E12.56012
G1 X95.173 Y91.075 E12.60137
G0 F6000 X95.453 Y91.368
G1 F1200 X96.815 Y90.448 E12.63417
G1 X98.24 Y89.874 E12.66483
G1 X98.935 Y89.744 E12.67894
G1 X99.627 Y89.75 E12.69275
G1 X100.46 Y88.809 E12.71783
G1 X101.987 Y87.756 E12.75485
G1 X103.584 Y87.324 E12.78786
G1 X105.315 Y87.223 E12.82246
G1 X106.442 Y87.532 E12.84579
G1 X107.353 Y86.943 E12.86743
G1 X109.242 Y86.364 E12.90686
G1 X110.839 Y86.439 E12.93877
G1 X112.574 Y86.872 E12.97445
G1 X113.535 Y87.519 E12.99757
G1 X114.701 Y87.247 E13.02147
G1 X116.563 Y87.278 E13.05863
G1 X118.114 Y87.868 E13.09174
G1 X119.683 Y88.868 E13.12887
G1 X120.294 Y89.716 E13.14973
G1 X121.545 Y89.832 E13.1748
G1 X123.257 Y90.423 E13.21095
G1 X124.549 Y91.454 E13.24393
G1 X125.66 Y92.793 E13.27866
G1 X126.081 Y93.91 E13.30248
G1 X127.08 Y94.29 E13.32381
G1 X128.613 Y95.414 E13.36174
G1 X129.567 Y96.849 E13.39613
G1 X130.126 Y98.238 E13.42601
G1 X130.256 Y98.933 E13.44012
G1 X130.25 Y99.656 E13.45455
G1 X131.129 Y100.374 E13.4772
G1 X132.226 Y101.93 E13.51519
G1 X132.664 Y103.521 E13.54812
G1 X132.758 Y105.141 E13.58051
G1 X132.699 Y105.693 E13.59158
G1 X132.465 Y106.401 E13.60646
G1 X133.103 Y107.474 E13.63138
G1 X133.635 Y109.25 E13.66837
G1 X133.56 Y110.867 E13.70068
G1 X133.157 Y112.408 E13.73246
G1 X132.952 Y112.865 E13.74246
G1 X132.476 Y113.515 E13.75854
G1 X132.753 Y114.707 E13.78296
G1 X132.714 Y116.322 E13.8152
G1 X132.602 Y116.937 E13.82767
G1 X131.986 Y118.319 E13.85787
G1 X131.353 Y119.359 E13.88216
G1 X131.052 Y119.729 E13.89168
G1 X130.286 Y120.295 E13.91069
G1 X130.169 Y121.54 E13.93564
G1 X129.575 Y123.26 E13.97196
G1 X128.519 Y124.57 E14.00554
G1 X127.108 Y125.742 E14.04214
