;FLAVOR:Marlin
;TIME:1173
;Filament used: 0.379678m
;Layer height: 0.12
;MINX:80.95
;MINY:97.7
;MINZ:0.12
;MAXX:139.05
;MAXY:122.3
;MAXZ:5.04
;TARGET_MACHINE.NAME:Creality Ender-3 Pro
;Generated with Cura_SteamEngine 5.6.0
M82 ;absolute extrusion mode
; Ender 3 Custom Start G-code
G92 E0 ; Reset Extruder
G28 ; Home all axes
G1 Z5.0 F3000 ; Move Z Axis up a bit during heating to not damage bed
M104 S175 ; Start heating up the nozzle most of the way
M190 S60 ; Start heating the bed, wait until target temperature reached
M109 S200 ; Finish heating the nozzle
G1 Z2.0 F3000 ; Move Z Axis up little to prevent scratching of Heat Bed
G1 X0.1 Y20 Z0.3 F5000.0 ; Move to start position
G1 X0.1 Y200.0 Z0.3 F1500.0 E15 ; Draw the first line
G1 X0.4 Y200.0 Z0.3 F5000.0 ; Move to side a little
G1 X0.4 Y20 Z0.3 F1500.0 E30 ; Draw the second line
G92 E0 ; Reset Extruder
G1 Z2.0 F3000 ; Move Z Axis up little to prevent scratching of Heat Bed
G1 X5 Y20 Z0.3 F5000.0 ; Move over to prevent blob squish
G92 E0
G92 E0
G1 F1500 E-6.5
;LAYER_COUNT:42
;LAYER:0
M107
G0 F6000 X84.03 Y99.264 Z0.12
;TYPE:SKIRT
G1 F1500 E0
G1 F1200 X86.053 Y98.057 E0.04701
G1 X87.771 Y97.775 E0.08175
G1 X132.103 Y97.7 E0.96645
G1 X133.999 Y98.166 E1.00541
G1 X136.027 Y99.219 E1.05101
G1 X137.486 Y100.78 E1.09365
G1 X138.693 Y102.803 E1.14066
G1 X138.98 Y104.583 E1.17664
G1 X139.05 Y115.343 E1.39138
G1 X138.582 Y117.251 E1.43058
G1 X137.531 Y119.277 E1.47613
G1 X135.97 Y120.736 E1.51877
G1 X133.947 Y121.943 E1.56578
G1 X132.229 Y122.225 E1.60052
G1 X87.897 Y122.3 E2.48522
G1 X86.001 Y121.834 E2.52418
G1 X83.973 Y120.781 E2.56978
G1 X82.514 Y119.22 E2.61242
G1 X81.307 Y117.197 E2.65943
G1 X81.02 Y115.417 E2.69541
G1 X80.95 Y104.657 E2.91014
G1 X81.418 Y102.749 E2.94935
G1 X82.469 Y100.723 E2.9949
G1 X84.03 Y99.264 E3.03754
G0 F6000 X84.269 Y99.588
G1 F1200 X86.193 Y98.44 E3.08225
G1 X87.836 Y98.17 E3.11547
G1 X132.057 Y98.1 E3.99795
G1 X133.856 Y98.542 E4.03492
G1 X135.782 Y99.542 E4.07823
G1 X137.162 Y101.019 E4.11857
G1 X138.31 Y102.943 E4.16328
G1 X138.58 Y104.586 E4.19651
G1 X138.65 Y115.298 E4.41028
G1 X138.206 Y117.108 E4.44747
G1 X137.208 Y119.032 E4.49072
G1 X135.731 Y120.412 E4.53106
G1 X133.807 Y121.56 E4.57577
G1 X132.164 Y121.83 E4.609
G1 X87.943 Y121.9 E5.49148
G1 X86.144 Y121.458 E5.52845
G1 X84.218 Y120.458 E5.57176
G1 X82.838 Y118.981 E5.6121
G1 X81.69 Y117.057 E5.65681
G1 X81.42 Y115.414 E5.69003
G1 X81.35 Y104.702 E5.90381
G1 X81.794 Y102.892 E5.941
G1 X82.792 Y100.968 E5.98425
G1 X84.269 Y99.588 E6.02459
G0 F6000 X84.511 Y99.909
G1 F1200 X86.331 Y98.823 E6.06689
G1 X87.901 Y98.565 E6.09864
G1 X132.01 Y98.5 E6.97888
G1 X133.714 Y98.919 E7.0139
G1 X135.537 Y99.865 E7.05489
G1 X136.841 Y101.261 E7.09301
G1 X137.927 Y103.081 E7.1353
G1 X138.185 Y104.651 E7.16705
G1 X138.25 Y115.253 E7.37863
G1 X137.83 Y116.965 E7.41381
G1 X136.885 Y118.787 E7.45477
G1 X135.489 Y120.091 E7.49289
G1 X133.669 Y121.177 E7.53519
G1 X132.099 Y121.435 E7.56694
G1 X87.99 Y121.5 E8.44718
G1 X86.286 Y121.081 E8.4822
G1 X84.463 Y120.135 E8.52319
G1 X83.159 Y118.739 E8.56131
G1 X82.073 Y116.919 E8.6036
G1 X81.815 Y115.349 E8.63535
G1 X81.75 Y104.747 E8.84693
G1 X82.17 Y103.035 E8.88211
G1 X83.115 Y101.213 E8.92307
G1 X84.511 Y99.909 E8.96119
G0 F6000 X84.753 Y100.23
G1 F1200 X86.469 Y99.206 E9.00107
G1 X87.966 Y98.96 E9.03135
G1 X131.964 Y98.9 E9.90937
G1 X133.571 Y99.295 E9.9424
G1 X135.292 Y100.188 E9.98109
G1 X136.52 Y101.503 E10.017
G1 X137.544 Y103.219 E10.05687
G1 X137.79 Y104.716 E10.08715
G1 X137.85 Y115.208 E10.29653
G1 X137.454 Y116.822 E10.3297
G1 X136.562 Y118.542 E10.36836
G1 X135.247 Y119.77 E10.40427
G1 X133.531 Y120.794 E10.44415
G1 X132.034 Y121.04 E10.47442
G1 X88.036 Y121.1 E11.35245
G1 X86.429 Y120.705 E11.38547
G1 X84.708 Y119.812 E11.42417
G1 X83.48 Y118.497 E11.46007
G1 X82.456 Y116.781 E11.49995
G1 X82.21 Y115.284 E11.53022
G1 X82.15 Y104.792 E11.73961
G1 X82.546 Y103.178 E11.77277
G1 X83.438 Y101.458 E11.81144
G1 X84.753 Y100.23 E11.84734
G0 F6000 X84.995 Y100.551
G1 F1200 X86.607 Y99.589 E11.8848
G1 X88.031 Y99.355 E11.9136
G1 X131.918 Y99.3 E12.78942
G1 X133.428 Y99.671 E12.82045
G1 X135.047 Y100.511 E12.85685
G1 X136.199 Y101.745 E12.89053
G1 X137.161 Y103.357 E12.928
G1 X137.395 Y104.781 E12.95679
G1 X137.45 Y115.163 E13.16398
G1 X137.078 Y116.679 E13.19513
G1 X136.239 Y118.297 E13.2315
G1 X135.005 Y119.449 E13.26519
G1 X133.393 Y120.411 E13.30266
G1 X131.969 Y120.645 E13.33145
G1 X88.082 Y120.7 E14.20727
G1 X86.572 Y120.329 E14.2383
G1 X84.953 Y119.489 E14.2747
G1 X83.801 Y118.255 E14.30838
G1 X82.839 Y116.643 E14.34585
G1 X82.605 Y115.219 E14.37465
G1 X82.55 Y104.837 E14.58183
G1 X82.922 Y103.321 E14.61298
G1 X83.761 Y101.703 E14.64936
G1 X84.995 Y100.551 E14.68304
G0 F6000 X85.237 Y100.872
G1 F1200 X86.745 Y99.972 E14.71809
G1 X88.096 Y99.75 E14.74541
G1 X131.871 Y99.7 E15.61899
G1 X133.286 Y100.048 E15.64807
G1 X134.802 Y100.834 E15.68215
G1 X135.878 Y101.987 E15.71362
G1 X136.778 Y103.495 E15.74867
G1 X137 Y104.846 E15.77599
G1 X137.05 Y115.118 E15.98098
G1 X136.702 Y116.536 E16.01012
G1 X135.916 Y118.052 E16.04419
G1 X134.763 Y119.128 E16.07567
G1 X133.255 Y120.028 E16.11071
G1 X131.904 Y120.25 E16.13804
G1 X88.129 Y120.3 E17.01161
G1 X86.714 Y119.952 E17.04069
G1 X85.198 Y119.166 E17.07477
G1 X84.122 Y118.013 E17.10624
G1 X83.222 Y116.505 E17.14129
G1 X83 Y115.154 E17.16861
G1 X82.95 Y104.882 E17.3736
G1 X83.298 Y103.464 E17.40274
G1 X84.084 Y101.948 E17.43682
G1 X85.237 Y100.872 E17.46829
G0 F6000 X85.479 Y101.193
G1 F1200 X86.883 Y100.355 E17.50092
G1 X88.161 Y100.145 E17.52677
G1 X131.825 Y100.1 E18.39813
G1 X133.143 Y100.424 E18.42521
G1 X134.557 Y101.157 E18.457
G1 X135.557 Y102.229 E18.48625
G1 X136.395 Y103.633 E18.51888
G1 X136.605 Y104.911 E18.54473
G1 X136.65 Y115.073 E18.74752
G1 X136.326 Y116.393 E18.77465
G1 X135.593 Y117.807 E18.80643
G1 X134.521 Y118.807 E18.83569
G1 X133.117 Y119.645 E18.86832
G1 X131.839 Y119.855 E18.89416
G1 X88.175 Y119.9 E19.76553
G1 X86.857 Y119.576 E19.79261
G1 X85.443 Y118.843 E19.8244
G1 X84.443 Y117.771 E19.85365
G1 X83.605 Y116.367 E19.88628
G1 X83.395 Y115.089 E19.91213
G1 X83.35 Y104.927 E20.11492
G1 X83.674 Y103.607 E20.14205
G1 X84.407 Y102.193 E20.17383
G1 X85.479 Y101.193 E20.20309
G0 F6000 X85.724 Y101.512
G1 F1200 X87.021 Y100.738 E20.23323
G1 X88.226 Y100.54 E20.2576
G1 X131.779 Y100.5 E21.12674
G1 X133 Y100.8 E21.15184
G1 X134.31 Y101.479 E21.18128
G1 X135.238 Y102.474 E21.20843
G1 X136.012 Y103.771 E21.23857
G1 X136.21 Y104.976 E21.26294
G1 X136.25 Y115.028 E21.46354
G1 X135.95 Y116.25 E21.48866
G1 X135.271 Y117.56 E21.5181
G1 X134.276 Y118.488 E21.54525
G1 X132.979 Y119.262 E21.57539
G1 X131.774 Y119.46 E21.59976
G1 X88.221 Y119.5 E22.46891
G1 X87 Y119.2 E22.494
G1 X85.69 Y118.521 E22.52345
G1 X84.762 Y117.526 E22.5506
G1 X83.988 Y116.229 E22.58074
G1 X83.79 Y115.024 E22.60511
G1 X83.75 Y104.972 E22.80571
G1 X84.05 Y103.75 E22.83082
G1 X84.729 Y102.44 E22.86027
G1 X85.724 Y101.512 E22.88742
G0 F6000 X85.966 Y101.834
G1 F1200 X87.161 Y101.121 E22.91519
G1 X88.291 Y100.935 E22.93804
G1 X131.733 Y100.9 E23.80498
G1 X132.857 Y101.176 E23.82807
G1 X134.063 Y101.801 E23.85518
G1 X134.916 Y102.716 E23.88014
G1 X135.629 Y103.911 E23.90791
G1 X135.815 Y105.041 E23.93077
G1 X135.85 Y114.983 E24.12917
G1 X135.574 Y116.107 E24.15227
G1 X134.949 Y117.313 E24.17937
G1 X134.034 Y118.166 E24.20434
G1 X132.839 Y118.879 E24.23211
G1 X131.709 Y119.065 E24.25496
G1 X88.267 Y119.1 E25.12189
G1 X87.143 Y118.824 E25.14499
G1 X85.937 Y118.199 E25.1721
G1 X85.084 Y117.284 E25.19706
G1 X84.371 Y116.089 E25.22483
G1 X84.185 Y114.959 E25.24769
G1 X84.15 Y105.017 E25.44609
G1 X84.426 Y103.893 E25.46919
G1 X85.051 Y102.687 E25.49629
G1 X85.966 Y101.834 E25.52126
G0 F6000 X86.208 Y102.156
G1 F1200 X87.301 Y101.504 E25.54666
G1 X88.356 Y101.33 E25.56799
G1 X131.686 Y101.3 E26.43269
G1 X132.715 Y101.553 E26.45384
G1 X133.816 Y102.123 E26.47858
G1 X134.594 Y102.958 E26.50135
G1 X135.246 Y104.051 E26.52675
G1 X135.42 Y105.106 E26.54809
G1 X135.45 Y114.936 E26.74426
G1 X135.197 Y115.965 E26.76541
G1 X134.627 Y117.066 E26.79015
G1 X133.792 Y117.844 E26.81292
G1 X132.699 Y118.496 E26.83832
G1 X131.644 Y118.67 E26.85966
G1 X88.314 Y118.7 E27.72436
G1 X87.285 Y118.447 E27.7455
G1 X86.184 Y117.877 E27.77024
G1 X85.406 Y117.042 E27.79302
G1 X84.754 Y115.949 E27.81842
G1 X84.58 Y114.894 E27.83976
G1 X84.55 Y105.064 E28.03592
G1 X84.803 Y104.035 E28.05707
G1 X85.373 Y102.934 E28.08181
G1 X86.208 Y102.156 E28.10459
G0 F6000 X86.45 Y102.478
G1 F1200 X87.441 Y101.887 E28.12761
G1 X88.421 Y101.725 E28.14744
G1 X131.64 Y101.7 E29.00992
G1 X132.572 Y101.929 E29.02907
G1 X133.569 Y102.445 E29.05147
G1 X134.272 Y103.2 E29.07206
G1 X134.863 Y104.191 E29.09509
G1 X135.025 Y105.171 E29.11491
G1 X135.05 Y114.89 E29.30886
G1 X134.821 Y115.822 E29.32802
G1 X134.305 Y116.819 E29.35042
G1 X133.55 Y117.522 E29.37101
G1 X132.559 Y118.113 E29.39403
G1 X131.579 Y118.275 E29.41385
G1 X88.36 Y118.3 E30.27634
G1 X87.428 Y118.071 E30.29549
G1 X86.431 Y117.555 E30.31789
G1 X85.728 Y116.8 E30.33848
G1 X85.137 Y115.809 E30.36151
G1 X84.975 Y114.829 E30.38133
G1 X84.95 Y105.11 E30.57528
G1 X85.179 Y104.178 E30.59443
G1 X85.695 Y103.181 E30.61684
G1 X86.45 Y102.478 E30.63742
G0 F6000 X86.689 Y102.802
G1 F1200 X87.581 Y102.27 E30.65815
G1 X88.486 Y102.12 E30.67646
G1 X131.594 Y102.1 E31.53672
G1 X132.429 Y102.305 E31.55388
G1 X133.324 Y102.768 E31.57399
G1 X133.948 Y103.439 E31.59228
G1 X134.48 Y104.331 E31.613
G1 X134.63 Y105.236 E31.63131
G1 X134.65 Y114.844 E31.82305
G1 X134.445 Y115.679 E31.84021
G1 X133.982 Y116.574 E31.86032
G1 X133.311 Y117.198 E31.8786
G1 X132.419 Y117.73 E31.89933
G1 X131.514 Y117.88 E31.91763
G1 X88.406 Y117.9 E32.7779
G1 X87.571 Y117.695 E32.79506
G1 X86.676 Y117.232 E32.81517
G1 X86.052 Y116.561 E32.83345
G1 X85.52 Y115.669 E32.85418
G1 X85.37 Y114.764 E32.87249
G1 X85.35 Y105.156 E33.06423
G1 X85.555 Y104.321 E33.08138
G1 X86.018 Y103.426 E33.10149
G1 X86.689 Y102.802 E33.11978
G0 F6000 X86.928 Y103.126
G1 F1200 X87.721 Y102.653 E33.13821
G1 X88.552 Y102.515 E33.15502
G1 X131.548 Y102.5 E34.01305
G1 X132.286 Y102.681 E34.02821
G1 X133.079 Y103.091 E34.04603
G1 X133.624 Y103.678 E34.06201
G1 X134.097 Y104.471 E34.08044
G1 X134.235 Y105.302 E34.09725
G1 X134.25 Y114.798 E34.28675
G1 X134.069 Y115.536 E34.30192
G1 X133.659 Y116.329 E34.31973
G1 X133.072 Y116.874 E34.33572
G1 X132.279 Y117.347 E34.35414
G1 X131.448 Y117.485 E34.37095
G1 X88.452 Y117.5 E35.22898
G1 X87.714 Y117.319 E35.24415
G1 X86.921 Y116.909 E35.26196
G1 X86.376 Y116.322 E35.27795
G1 X85.903 Y115.529 E35.29638
G1 X85.765 Y114.698 E35.31319
G1 X85.75 Y105.202 E35.50269
G1 X85.931 Y104.464 E35.51785
G1 X86.341 Y103.671 E35.53567
G1 X86.928 Y103.126 E35.55165
G0 F6000 X87.167 Y103.45
G1 F1200 X87.861 Y103.036 E35.56778
G1 X88.618 Y102.91 E35.58309
G1 X131.498 Y102.9 E36.43881
G1 X132.147 Y103.059 E36.45215
G1 X132.834 Y103.414 E36.46758
G1 X133.3 Y103.917 E36.48126
G1 X133.714 Y104.611 E36.49739
G1 X133.84 Y105.368 E36.5127
G1 X133.85 Y114.748 E36.69989
G1 X133.691 Y115.397 E36.71322
G1 X133.336 Y116.084 E36.72866
G1 X132.833 Y116.55 E36.74234
G1 X132.139 Y116.964 E36.75847
G1 X131.382 Y117.09 E36.77378
G1 X88.502 Y117.1 E37.6295
G1 X87.853 Y116.941 E37.64283
G1 X87.166 Y116.586 E37.65826
G1 X86.7 Y116.083 E37.67195
G1 X86.286 Y115.389 E37.68808
G1 X86.16 Y114.632 E37.70339
G1 X86.15 Y105.252 E37.89058
G1 X86.309 Y104.603 E37.90391
G1 X86.664 Y103.916 E37.91934
G1 X87.167 Y103.45 E37.93303
G0 F6000 X87.406 Y103.774
G1 F1200 X88.001 Y103.419 E37.94685
G1 X88.684 Y103.305 E37.96067
G1 X131.448 Y103.3 E38.81408
G1 X132.008 Y103.437 E38.82558
G1 X132.588 Y103.737 E38.83861
G1 X132.976 Y104.156 E38.85001
G1 X133.331 Y104.751 E38.86383
G1 X133.445 Y105.434 E38.87765
G1 X133.45 Y114.698 E39.06253
G1 X133.313 Y115.258 E39.07403
G1 X133.013 Y115.838 E39.08706
G1 X132.594 Y116.226 E39.09846
G1 X131.999 Y116.581 E39.11228
G1 X131.316 Y116.695 E39.1261
G1 X88.552 Y116.7 E39.97951
G1 X87.992 Y116.563 E39.99101
G1 X87.412 Y116.263 E40.00404
G1 X87.024 Y115.844 E40.01544
G1 X86.669 Y115.249 E40.02926
G1 X86.555 Y114.566 E40.04308
G1 X86.55 Y105.302 E40.22796
G1 X86.687 Y104.742 E40.23946
G1 X86.987 Y104.162 E40.25249
G1 X87.406 Y103.774 E40.26389
G0 F6000 X87.648 Y104.095
G1 F1200 X88.139 Y103.802 E40.2753
G1 X88.75 Y103.7 E40.28766
G1 X131.398 Y103.7 E41.13875
G1 X131.869 Y103.815 E41.14842
G1 X132.342 Y104.06 E41.15905
G1 X132.655 Y104.398 E41.16825
G1 X132.948 Y104.889 E41.17966
G1 X133.05 Y105.5 E41.19202
G1 X133.05 Y114.648 E41.37458
G1 X132.935 Y115.119 E41.38425
G1 X132.69 Y115.592 E41.39488
G1 X132.352 Y115.905 E41.40408
G1 X131.861 Y116.198 E41.41549
G1 X131.25 Y116.3 E41.42785
G1 X88.602 Y116.3 E42.27893
G1 X88.131 Y116.185 E42.28861
G1 X87.658 Y115.94 E42.29924
G1 X87.345 Y115.602 E42.30843
G1 X87.052 Y115.111 E42.31984
G1 X86.95 Y114.5 E42.33221
G1 X86.95 Y105.352 E42.51476
G1 X87.065 Y104.881 E42.52444
G1 X87.31 Y104.408 E42.53507
G1 X87.648 Y104.095 E42.54426
G0 F6000 X87.89 Y104.416
G1 F1200 X87.633 Y104.654 E42.55125
G1 X87.443 Y105.02 E42.55948
G1 X87.35 Y105.402 E42.56733
G1 X87.35 Y114.5 E42.74889
G1 X87.435 Y114.973 E42.75848
G1 X87.666 Y115.36 E42.76747
G1 X87.904 Y115.617 E42.77446
G1 X88.27 Y115.807 E42.78269
G1 X88.652 Y115.9 E42.79054
G1 X131.25 Y115.9 E43.64063
G1 X131.723 Y115.815 E43.65022
G1 X132.11 Y115.584 E43.65921
G1 X132.367 Y115.346 E43.6662
G1 X132.557 Y114.98 E43.67443
G1 X132.65 Y114.598 E43.68228
G1 X132.65 Y105.5 E43.86384
G1 X132.565 Y105.027 E43.87343
G1 X132.334 Y104.64 E43.88242
G1 X132.096 Y104.383 E43.88941
G1 X131.73 Y104.193 E43.89764
G1 X131.348 Y104.1 E43.90549
G1 X88.75 Y104.1 E44.75558
G1 X88.277 Y104.185 E44.76517
G1 X87.89 Y104.416 E44.77416
G0 F6000 X88.095 Y104.76
G1 F1200 X88.422 Y104.565 E44.78176
G1 X88.75 Y104.5 E44.78843
G1 X131.299 Y104.5 E45.63754
G1 X131.588 Y104.57 E45.64348
G1 X131.851 Y104.707 E45.6494
G1 X131.99 Y104.845 E45.65331
G1 X132.185 Y105.172 E45.6609
G1 X132.25 Y105.5 E45.66758
G1 X132.25 Y114.549 E45.84816
G1 X132.18 Y114.838 E45.85409
G1 X132.043 Y115.101 E45.86001
G1 X131.905 Y115.24 E45.86392
G1 X131.578 Y115.435 E45.87152
G1 X131.25 Y115.5 E45.87819
G1 X88.701 Y115.5 E46.7273
G1 X88.412 Y115.43 E46.73324
G1 X88.149 Y115.293 E46.73915
G1 X88.01 Y115.155 E46.74306
G1 X87.815 Y114.828 E46.75066
G1 X87.75 Y114.5 E46.75733
G1 X87.75 Y105.451 E46.93792
G1 X87.82 Y105.162 E46.94385
G1 X87.957 Y104.899 E46.94977
G1 X88.095 Y104.76 E46.95368
G0 F6000 X88.589 Y105.381
G1 F1200 X88.75 Y105.3 E46.95727
G1 X131.25 Y105.3 E47.80541
G1 X131.369 Y105.339 E47.80791
G1 X131.45 Y105.5 E47.8115
G1 X131.45 Y114.5 E47.99111
G1 X131.411 Y114.619 E47.99361
G1 X131.25 Y114.7 E47.9972
G1 X88.75 Y114.7 E48.84534
G1 X88.631 Y114.661 E48.84783
G1 X88.55 Y114.5 E48.85143
G1 X88.55 Y105.5 E49.03104
G1 X88.589 Y105.381 E49.03354
G0 F6000 X88.3 Y105.104
G1 F1200 X88.57 Y104.943 E49.03981
G1 X88.75 Y104.9 E49.0435
G1 X131.25 Y104.9 E49.89164
G1 X131.494 Y104.959 E49.89664
G1 X131.646 Y105.05 E49.90018
G1 X131.807 Y105.32 E49.90645
G1 X131.85 Y105.5 E49.91015
G1 X131.85 Y114.5 E50.08975
G1 X131.791 Y114.744 E50.09476
G1 X131.7 Y114.896 E50.0983
G1 X131.43 Y115.057 E50.10457
G1 X131.25 Y115.1 E50.10826
G1 X88.75 Y115.1 E50.9564
G1 X88.506 Y115.041 E50.96141
G1 X88.354 Y114.95 E50.96494
G1 X88.193 Y114.68 E50.97121
G1 X88.15 Y114.5 E50.97491
G1 X88.15 Y105.5 E51.15451
G1 X88.209 Y105.256 E51.15952
G1 X88.3 Y105.104 E51.16306
G1 F1500 E44.66306
;MESH:HQ_test.stl
G0 F6000 X89.95 Y106.7
G0 X89.922 Y113.328
G0 X130.25 Y113.5
;TYPE:WALL-INNER
G1 F1500 E51.16306
G1 F1200 X130.25 Y106.5 E51.30275
G1 X89.75 Y106.5 E52.11097
G1 X89.75 Y113.5 E52.25066
G1 X130.25 Y113.5 E53.05889
G0 F6000 X130.65 Y113.9
G1 F1200 X130.65 Y106.1 E53.21454
G1 X89.35 Y106.1 E54.03873
G1 X89.35 Y113.9 E54.19439
G1 X130.65 Y113.9 E55.01857
G0 F6000 X131.05 Y114.3
;TYPE:WALL-OUTER
G1 F1200 X131.05 Y105.7 E55.19019
G1 X88.95 Y105.7 E56.03035
G1 X88.95 Y114.3 E56.20197
G1 X131.05 Y114.3 E57.04212
G0 F6000 X130.78 Y114.03
G0 X130.15 Y113.14
