;FLAVOR:Marlin
;TIME:598
;Filament used: 0.26672m
;Layer height: 0.12
;MINX:81.1
;MINY:81.1
;MINZ:0.12
;MAXX:138.9
;MAXY:138.9
;MAXZ:2.04
;TARGET_MACHINE.NAME:Creality Ender-3 Pro
;Generated with Cura_SteamEngine 5.6.0
M82 ;absolute extrusion mode
; Ender 3 Custom Start G-code
G92 E0 ; Reset Extruder
G28 ; Home all axes
G1 Z5.0 F3000 ; Move Z Axis up a bit during heating to not damage bed
M104 S175 ; Start heating up the nozzle most of the way
M190 S60 ; Start heating the bed, wait until target temperature reached
M109 S200 ; Finish heating the nozzle
G1 Z2.0 F3000 ; Move Z Axis up little to prevent scratching of Heat Bed
G1 X0.1 Y20 Z0.3 F5000.0 ; Move to start position
G1 X0.1 Y200.0 Z0.3 F1500.0 E15 ; Draw the first line
G1 X0.4 Y200.0 Z0.3 F5000.0 ; Move to side a little
G1 X0.4 Y20 Z0.3 F1500.0 E30 ; Draw the second line
G92 E0 ; Reset Extruder
G1 Z2.0 F3000 ; Move Z Axis up little to prevent scratching of Heat Bed
G1 X5 Y20 Z0.3 F5000.0 ; Move over to prevent blob squish
G92 E0
G92 E0
G1 F1500 E-6.5
;LAYER_COUNT:17
;LAYER:0
M107
G0 F6000 X89.024 Y90.118 Z0.12
;TYPE:SKIRT
G1 F1500 E0
G1 F1200 X90.176 Y88.972 E0.03243
G1 X91.772 Y87.565 E0.07489
G1 X92.89 Y86.701 E0.10308
G1 X94.382 Y85.685 E0.13911
G1 X96.303 Y84.55 E0.18363
G1 X97.52 Y83.931 E0.21088
G1 X99.416 Y83.111 E0.2521
G1 X101.337 Y82.431 E0.29277
G1 X103.01 Y81.957 E0.32747
G1 X104.587 Y81.609 E0.3597
G1 X106.512 Y81.318 E0.39855
G1 X108.463 Y81.142 E0.43764
G1 X110.253 Y81.1 E0.47337
G1 X111.59 Y81.143 E0.50007
G1 X113.89 Y81.363 E0.54618
G1 X115.262 Y81.584 E0.57391
G1 X117.432 Y82.076 E0.61831
G1 X118.761 Y82.463 E0.64594
G1 X120.883 Y83.225 E0.69093
G1 X122.181 Y83.79 E0.71918
G1 X123.997 Y84.718 E0.75988
G1 X125.693 Y85.731 E0.7993
G1 X126.799 Y86.483 E0.82599
G1 X128.496 Y87.796 E0.86881
G1 X129.882 Y89.024 E0.90577
G1 X131.028 Y90.176 E0.93819
G1 X132.435 Y91.772 E0.98065
G1 X133.299 Y92.89 E1.00885
G1 X134.315 Y94.382 E1.04487
G1 X135.45 Y96.303 E1.0894
G1 X136.069 Y97.52 E1.11665
G1 X136.889 Y99.416 E1.15787
G1 X137.569 Y101.336 E1.19852
G1 X138.043 Y103.009 E1.23322
G1 X138.391 Y104.586 E1.26545
G1 X138.682 Y106.511 E1.3043
G1 X138.858 Y108.462 E1.34339
G1 X138.9 Y110.252 E1.37912
G1 X138.857 Y111.59 E1.40584
G1 X138.637 Y113.89 E1.45195
G1 X138.416 Y115.262 E1.47968
G1 X137.924 Y117.432 E1.52408
G1 X137.537 Y118.761 E1.55171
G1 X136.775 Y120.883 E1.5967
G1 X136.21 Y122.181 E1.62495
G1 X135.295 Y123.974 E1.66512
G1 X134.269 Y125.693 E1.70507
G1 X133.517 Y126.799 E1.73176
G1 X132.204 Y128.496 E1.77458
G1 X130.976 Y129.882 E1.81153
G1 X129.824 Y131.028 E1.84396
G1 X128.228 Y132.435 E1.88642
G1 X127.11 Y133.299 E1.91462
G1 X125.618 Y134.315 E1.95064
G1 X123.697 Y135.45 E1.99517
G1 X122.48 Y136.069 E2.02241
G1 X120.584 Y136.889 E2.06364
G1 X118.663 Y137.569 E2.10431
G1 X116.99 Y138.043 E2.13901
G1 X115.413 Y138.391 E2.17123
G1 X113.488 Y138.682 E2.21009
G1 X111.537 Y138.858 E2.24918
G1 X109.747 Y138.9 E2.28491
G1 X108.41 Y138.857 E2.3116
G1 X106.11 Y138.637 E2.35771
G1 X104.738 Y138.416 E2.38545
G1 X102.568 Y137.924 E2.42985
G1 X101.239 Y137.537 E2.45747
G1 X99.117 Y136.775 E2.50247
G1 X97.819 Y136.21 E2.53072
G1 X96.003 Y135.282 E2.57142
G1 X94.307 Y134.269 E2.61084
G1 X93.2 Y133.516 E2.63756
G1 X91.503 Y132.203 E2.68037
G1 X90.117 Y130.975 E2.71733
G1 X88.971 Y129.823 E2.74976
G1 X87.564 Y128.227 E2.79222
G1 X86.7 Y127.109 E2.82041
G1 X85.685 Y125.62 E2.85637
G1 X84.548 Y123.695 E2.90099
G1 X83.941 Y122.502 E2.9277
G1 X83.111 Y120.584 E2.96941
G1 X82.431 Y118.663 E3.01007
G1 X81.957 Y116.99 E3.04478
G1 X81.609 Y115.413 E3.077
G1 X81.318 Y113.488 E3.11585
G1 X81.142 Y111.537 E3.15495
G1 X81.1 Y109.748 E3.19066
G1 X81.143 Y108.41 E3.21737
G1 X81.363 Y106.11 E3.26348
G1 X81.584 Y104.738 E3.29121
G1 X82.076 Y102.568 E3.33562
G1 X82.463 Y101.239 E3.36324
G1 X83.225 Y99.117 E3.40824
G1 X83.79 Y97.819 E3.43649
G1 X84.705 Y96.026 E3.47666
G1 X85.731 Y94.307 E3.51661
G1 X86.483 Y93.201 E3.5433
G1 X87.796 Y91.504 E3.58612
G1 X89.024 Y90.118 E3.62307
G0 F6000 X89.306 Y90.402
G1 F1200 X90.458 Y89.256 E3.6555
G1 X92.017 Y87.882 E3.69697
G1 X93.135 Y87.018 E3.72516
G1 X94.607 Y86.016 E3.7607
G1 X96.484 Y84.907 E3.80421
G1 X97.701 Y84.288 E3.83145
G1 X99.575 Y83.478 E3.8722
G1 X101.446 Y82.816 E3.9118
G1 X103.096 Y82.348 E3.94603
G1 X104.647 Y82.005 E3.97773
G1 X106.572 Y81.714 E4.01658
G1 X108.473 Y81.542 E4.05467
G1 X110.24 Y81.5 E4.08994
G1 X111.577 Y81.543 E4.11664
G1 X113.826 Y81.758 E4.16172
G1 X115.198 Y81.979 E4.18946
G1 X117.32 Y82.46 E4.23288
G1 X118.649 Y82.847 E4.2605
G1 X120.723 Y83.592 E4.30448
G1 X122.021 Y84.157 E4.33273
G1 X123.792 Y85.062 E4.37242
G1 X125.468 Y86.062 E4.41137
G1 X126.574 Y86.814 E4.43806
G1 X128.231 Y88.096 E4.47987
G1 X129.598 Y89.306 E4.5163
G1 X130.744 Y90.458 E4.54873
G1 X132.118 Y92.017 E4.5902
G1 X132.982 Y93.135 E4.61839
G1 X133.984 Y94.607 E4.65393
G1 X135.093 Y96.484 E4.69743
G1 X135.712 Y97.701 E4.72468
G1 X136.522 Y99.575 E4.76542
G1 X137.184 Y101.445 E4.80501
G1 X137.652 Y103.095 E4.83924
G1 X137.995 Y104.646 E4.87094
G1 X138.286 Y106.571 E4.90979
G1 X138.458 Y108.472 E4.94788
G1 X138.5 Y110.239 E4.98315
G1 X138.457 Y111.577 E5.00987
G1 X138.242 Y113.826 E5.05495
G1 X138.021 Y115.198 E5.08269
G1 X137.54 Y117.32 E5.12611
G1 X137.153 Y118.649 E5.15373
G1 X136.408 Y120.723 E5.19771
G1 X135.843 Y122.021 E5.22596
G1 X134.939 Y123.792 E5.26564
G1 X133.938 Y125.468 E5.3046
G1 X133.186 Y126.574 E5.33129
G1 X131.904 Y128.231 E5.3731
G1 X130.694 Y129.598 E5.40953
G1 X129.542 Y130.744 E5.44195
G1 X127.983 Y132.118 E5.48342
G1 X126.865 Y132.982 E5.51162
G1 X125.393 Y133.984 E5.54716
G1 X123.516 Y135.093 E5.59066
G1 X122.299 Y135.712 E5.61791
G1 X120.425 Y136.522 E5.65865
G1 X118.554 Y137.184 E5.69826
G1 X116.904 Y137.652 E5.73249
G1 X115.353 Y137.995 E5.76419
G1 X113.428 Y138.286 E5.80304
G1 X111.527 Y138.458 E5.84113
G1 X109.76 Y138.5 E5.8764
G1 X108.423 Y138.457 E5.9031
G1 X106.174 Y138.242 E5.94818
G1 X104.802 Y138.021 E5.97591
G1 X102.68 Y137.54 E6.01934
G1 X101.351 Y137.153 E6.04696
G1 X99.277 Y136.408 E6.09094
G1 X97.979 Y135.843 E6.11919
G1 X96.208 Y134.938 E6.15888
G1 X94.532 Y133.938 E6.19782
G1 X93.425 Y133.185 E6.22454
G1 X91.768 Y131.903 E6.26635
G1 X90.401 Y130.693 E6.30278
G1 X89.255 Y129.541 E6.33521
G1 X87.881 Y127.982 E6.37668
G1 X87.017 Y126.864 E6.40488
G1 X86.016 Y125.395 E6.44035
G1 X84.905 Y123.514 E6.48395
G1 X84.298 Y122.321 E6.51066
G1 X83.478 Y120.425 E6.55188
G1 X82.816 Y118.554 E6.59149
G1 X82.348 Y116.904 E6.62572
G1 X82.005 Y115.353 E6.65742
G1 X81.714 Y113.428 E6.69627
G1 X81.542 Y111.527 E6.73436
G1 X81.5 Y109.761 E6.76961
G1 X81.543 Y108.423 E6.79633
G1 X81.758 Y106.174 E6.84141
G1 X81.979 Y104.802 E6.86915
G1 X82.46 Y102.68 E6.91257
G1 X82.847 Y101.351 E6.94019
G1 X83.592 Y99.277 E6.98417
G1 X84.157 Y97.979 E7.01242
G1 X85.061 Y96.208 E7.0521
G1 X86.062 Y94.532 E7.09106
G1 X86.814 Y93.426 E7.11775
G1 X88.096 Y91.769 E7.15955
G1 X89.306 Y90.402 E7.19599
G0 F6000 X89.606 Y90.667
G1 F1200 X90.722 Y89.556 E7.22741
G1 X92.262 Y88.199 E7.26837
G1 X93.38 Y87.335 E7.29657
G1 X94.81 Y86.36 E7.33111
G1 X96.665 Y85.264 E7.37411
G1 X97.882 Y84.645 E7.40135
G1 X99.734 Y83.845 E7.44161
G1 X101.555 Y83.201 E7.48016
G1 X103.183 Y82.739 E7.51393
G1 X104.707 Y82.401 E7.54508
G1 X106.632 Y82.11 E7.58393
G1 X108.483 Y81.942 E7.62102
G1 X110.227 Y81.9 E7.65584
G1 X111.564 Y81.943 E7.68253
G1 X113.762 Y82.153 E7.7266
G1 X115.134 Y82.374 E7.75433
G1 X117.208 Y82.844 E7.79677
G1 X118.514 Y83.224 E7.82391
G1 X120.563 Y83.959 E7.86735
G1 X121.861 Y84.524 E7.8956
G1 X123.61 Y85.418 E7.9348
G1 X125.243 Y86.393 E7.97276
G1 X126.349 Y87.145 E7.99945
G1 X127.966 Y88.396 E8.04025
G1 X129.333 Y89.606 E8.07668
G1 X130.444 Y90.722 E8.1081
G1 X131.801 Y92.262 E8.14906
G1 X132.665 Y93.38 E8.17726
G1 X133.64 Y94.81 E8.2118
G1 X134.736 Y96.665 E8.2548
G1 X135.355 Y97.882 E8.28204
G1 X136.155 Y99.734 E8.3223
G1 X136.799 Y101.554 E8.36083
G1 X137.261 Y103.182 E8.3946
G1 X137.599 Y104.706 E8.42575
G1 X137.89 Y106.631 E8.46461
G1 X138.058 Y108.482 E8.5017
G1 X138.1 Y110.226 E8.53651
G1 X138.057 Y111.564 E8.56322
G1 X137.847 Y113.762 E8.60729
G1 X137.626 Y115.134 E8.63502
G1 X137.156 Y117.208 E8.67746
G1 X136.776 Y118.514 E8.7046
G1 X136.041 Y120.563 E8.74804
G1 X135.476 Y121.861 E8.77629
G1 X134.595 Y123.587 E8.81497
G1 X133.607 Y125.243 E8.85345
G1 X132.855 Y126.349 E8.88014
G1 X131.604 Y127.966 E8.92094
G1 X130.394 Y129.333 E8.95737
G1 X129.278 Y130.444 E8.98879
G1 X127.738 Y131.801 E9.02976
G1 X126.62 Y132.665 E9.05795
G1 X125.19 Y133.64 E9.09249
G1 X123.335 Y134.736 E9.13549
G1 X122.118 Y135.355 E9.16274
G1 X120.266 Y136.155 E9.203
G1 X118.445 Y136.799 E9.24154
G1 X116.817 Y137.261 E9.27531
G1 X115.293 Y137.599 E9.30646
G1 X113.368 Y137.89 E9.34532
G1 X111.517 Y138.058 E9.38241
G1 X109.773 Y138.1 E9.41722
G1 X108.436 Y138.057 E9.44392
G1 X106.238 Y137.847 E9.48798
G1 X104.866 Y137.626 E9.51571
G1 X102.792 Y137.156 E9.55815
G1 X101.486 Y136.776 E9.58529
G1 X99.437 Y136.041 E9.62873
G1 X98.139 Y135.476 E9.65698
G1 X96.39 Y134.582 E9.69618
G1 X94.757 Y133.607 E9.73414
G1 X93.65 Y132.854 E9.76086
G1 X92.033 Y131.603 E9.80165
G1 X90.666 Y130.393 E9.83809
G1 X89.555 Y129.277 E9.86951
G1 X88.198 Y127.737 E9.91047
G1 X87.334 Y126.619 E9.93867
G1 X86.347 Y125.17 E9.97366
G1 X85.262 Y123.333 E10.01623
G1 X84.655 Y122.14 E10.04295
G1 X83.845 Y120.266 E10.08369
G1 X83.201 Y118.445 E10.12223
G1 X82.739 Y116.817 E10.156
G1 X82.401 Y115.293 E10.18716
G1 X82.11 Y113.368 E10.22601
G1 X81.942 Y111.517 E10.2631
G1 X81.9 Y109.774 E10.29789
G1 X81.943 Y108.436 E10.32461
G1 X82.153 Y106.238 E10.36867
G1 X82.374 Y104.866 E10.3964
G1 X82.844 Y102.792 E10.43884
G1 X83.224 Y101.486 E10.46599
G1 X83.959 Y99.437 E10.50943
G1 X84.524 Y98.139 E10.53768
G1 X85.405 Y96.413 E10.57635
G1 X86.393 Y94.757 E10.61483
G1 X87.145 Y93.651 E10.64152
G1 X88.396 Y92.034 E10.68232
G1 X89.606 Y90.667 E10.71875
G0 F6000 X89.906 Y90.932
G1 F1200 X90.987 Y89.856 E10.74919
G1 X92.507 Y88.516 E10.78963
G1 X93.625 Y87.652 E10.81782
G1 X95.035 Y86.691 E10.85188
G1 X96.846 Y85.621 E10.89385
G1 X98.063 Y85.002 E10.9211
G1 X99.868 Y84.222 E10.96034
G1 X101.664 Y83.586 E10.99836
G1 X103.27 Y83.13 E11.03168
G1 X104.794 Y82.792 E11.06283
G1 X106.668 Y82.508 E11.10066
G1 X108.493 Y82.342 E11.13723
G1 X110.214 Y82.3 E11.17158
G1 X111.551 Y82.343 E11.19828
G1 X113.698 Y82.548 E11.24132
G1 X115.07 Y82.769 E11.26905
G1 X117.096 Y83.228 E11.3105
G1 X118.402 Y83.608 E11.33765
G1 X120.403 Y84.326 E11.38007
G1 X121.701 Y84.891 E11.40832
G1 X123.405 Y85.762 E11.44651
G1 X125.018 Y86.724 E11.48399
G1 X126.124 Y87.476 E11.51068
G1 X127.701 Y88.696 E11.55047
G1 X129.068 Y89.906 E11.5869
G1 X130.144 Y90.987 E11.61734
G1 X131.484 Y92.507 E11.65778
G1 X132.348 Y93.625 E11.68597
G1 X133.309 Y95.035 E11.72003
G1 X134.379 Y96.846 E11.762
G1 X134.998 Y98.063 E11.78925
G1 X135.788 Y99.893 E11.82903
G1 X136.414 Y101.663 E11.8665
G1 X136.87 Y103.269 E11.89981
G1 X137.208 Y104.793 E11.93096
G1 X137.492 Y106.667 E11.96879
G1 X137.658 Y108.492 E12.00536
G1 X137.7 Y110.213 E12.03971
G1 X137.657 Y111.551 E12.06643
G1 X137.452 Y113.698 E12.10947
G1 X137.231 Y115.07 E12.1372
G1 X136.772 Y117.096 E12.17866
G1 X136.392 Y118.402 E12.2058
G1 X135.674 Y120.403 E12.24823
G1 X135.109 Y121.701 E12.27648
G1 X134.239 Y123.405 E12.31466
G1 X133.276 Y125.018 E12.35215
G1 X132.524 Y126.124 E12.37884
G1 X131.304 Y127.701 E12.41863
G1 X130.094 Y129.068 E12.45506
G1 X129.013 Y130.144 E12.48549
G1 X127.493 Y131.484 E12.52593
G1 X126.375 Y132.348 E12.55413
G1 X124.965 Y133.309 E12.58818
G1 X123.154 Y134.379 E12.63016
G1 X121.937 Y134.998 E12.65741
G1 X120.132 Y135.778 E12.69665
G1 X118.336 Y136.414 E12.73467
G1 X116.73 Y136.87 E12.76798
G1 X115.206 Y137.208 E12.79914
G1 X113.332 Y137.492 E12.83696
G1 X111.507 Y137.658 E12.87353
G1 X109.786 Y137.7 E12.90789
G1 X108.449 Y137.657 E12.93458
G1 X106.302 Y137.452 E12.97762
G1 X104.93 Y137.231 E13.00535
G1 X102.904 Y136.772 E13.04681
G1 X101.598 Y136.392 E13.07395
G1 X99.597 Y135.674 E13.11638
G1 X98.299 Y135.109 E13.14463
G1 X96.595 Y134.238 E13.18282
G1 X94.982 Y133.276 E13.2203
G1 X93.875 Y132.523 E13.24702
G1 X92.298 Y131.303 E13.2868
G1 X90.931 Y130.093 E13.32324
G1 X89.855 Y129.012 E13.35367
G1 X88.515 Y127.492 E13.39411
G1 X87.651 Y126.374 E13.42231
G1 X86.691 Y124.966 E13.45632
G1 X85.619 Y123.152 E13.49837
G1 X85.012 Y121.959 E13.52508
G1 X84.222 Y120.132 E13.5648
G1 X83.586 Y118.336 E13.60282
G1 X83.13 Y116.73 E13.63614
G1 X82.792 Y115.206 E13.66729
G1 X82.508 Y113.332 E13.70512
G1 X82.342 Y111.507 E13.74169
G1 X82.3 Y109.787 E13.77602
G1 X82.343 Y108.449 E13.80273
G1 X82.548 Y106.302 E13.84578
G1 X82.769 Y104.93 E13.87351
G1 X83.228 Y102.904 E13.91496
G1 X83.608 Y101.598 E13.94211
G1 X84.326 Y99.597 E13.98453
G1 X84.891 Y98.299 E14.01278
G1 X85.761 Y96.595 E14.05096
G1 X86.724 Y94.982 E14.08845
G1 X87.476 Y93.876 E14.11514
G1 X88.696 Y92.299 E14.15493
G1 X89.906 Y90.932 E14.19136
G0 F6000 X90.206 Y91.197
G1 F1200 X91.251 Y90.156 E14.2208
G1 X92.752 Y88.833 E14.26073
G1 X93.87 Y87.969 E14.28893
G1 X95.26 Y87.022 E14.32249
G1 X97.027 Y85.978 E14.36345
G1 X98.244 Y85.359 E14.39069
G1 X100.027 Y84.589 E14.42945
G1 X101.773 Y83.971 E14.46641
G1 X103.357 Y83.521 E14.49928
G1 X104.881 Y83.183 E14.53043
G1 X106.704 Y82.906 E14.56723
G1 X108.503 Y82.742 E14.60328
G1 X110.201 Y82.7 E14.63717
G1 X111.538 Y82.743 E14.66387
G1 X113.634 Y82.943 E14.70588
G1 X115.006 Y83.164 E14.73362
G1 X116.984 Y83.612 E14.77409
G1 X118.29 Y83.992 E14.80123
G1 X120.243 Y84.693 E14.84264
G1 X121.541 Y85.258 E14.87089
G1 X123.223 Y86.118 E14.90859
G1 X124.793 Y87.055 E14.94508
G1 X125.899 Y87.807 E14.97177
G1 X127.436 Y88.996 E15.01055
G1 X128.803 Y90.206 E15.04698
G1 X129.844 Y91.251 E15.07641
G1 X131.167 Y92.752 E15.11634
G1 X132.031 Y93.87 E15.14454
G1 X132.978 Y95.26 E15.17811
G1 X134.022 Y97.027 E15.21906
G1 X134.641 Y98.244 E15.24631
G1 X135.411 Y100.027 E15.28507
G1 X136.029 Y101.772 E15.32201
G1 X136.479 Y103.356 E15.35487
G1 X136.817 Y104.88 E15.38602
G1 X137.094 Y106.703 E15.42282
G1 X137.258 Y108.502 E15.45887
G1 X137.3 Y110.2 E15.49277
G1 X137.257 Y111.538 E15.51948
G1 X137.057 Y113.634 E15.5615
G1 X136.836 Y115.006 E15.58923
G1 X136.388 Y116.984 E15.62971
G1 X136.008 Y118.29 E15.65685
G1 X135.307 Y120.243 E15.69826
G1 X134.742 Y121.541 E15.72651
G1 X133.895 Y123.2 E15.76368
G1 X132.945 Y124.793 E15.80069
G1 X132.193 Y125.899 E15.82738
G1 X131.004 Y127.436 E15.86616
G1 X129.794 Y128.803 E15.9026
G1 X128.749 Y129.844 E15.93203
G1 X127.248 Y131.167 E15.97196
G1 X126.13 Y132.031 E16.00016
G1 X124.74 Y132.978 E16.03372
G1 X122.973 Y134.022 E16.07468
G1 X121.756 Y134.641 E16.10193
G1 X119.973 Y135.411 E16.14068
G1 X118.227 Y136.029 E16.17765
G1 X116.643 Y136.479 E16.21051
G1 X115.119 Y136.817 E16.24166
G1 X113.296 Y137.094 E16.27846
G1 X111.497 Y137.258 E16.31451
G1 X109.799 Y137.3 E16.3484
G1 X108.462 Y137.257 E16.3751
G1 X106.366 Y137.057 E16.41712
G1 X104.994 Y136.836 E16.44485
G1 X103.016 Y136.388 E16.48532
G1 X101.71 Y136.008 E16.51246
G1 X99.757 Y135.307 E16.55387
G1 X98.459 Y134.742 E16.58212
G1 X96.777 Y133.882 E16.61982
G1 X95.207 Y132.945 E16.65631
G1 X94.1 Y132.192 E16.68303
G1 X92.563 Y131.003 E16.72181
G1 X91.196 Y129.793 E16.75824
G1 X90.155 Y128.748 E16.78767
G1 X88.832 Y127.247 E16.8276
G1 X87.968 Y126.129 E16.8558
G1 X87.022 Y124.741 E16.88932
G1 X85.976 Y122.971 E16.93035
G1 X85.369 Y121.778 E16.95706
G1 X84.589 Y119.973 E16.9963
G1 X83.971 Y118.227 E17.03326
G1 X83.521 Y116.643 E17.06612
G1 X83.183 Y115.119 E17.09728
G1 X82.906 Y113.296 E17.13407
G1 X82.742 Y111.497 E17.17012
G1 X82.7 Y109.8 E17.204
G1 X82.743 Y108.462 E17.23071
G1 X82.943 Y106.366 E17.27273
G1 X83.164 Y104.994 E17.30047
G1 X83.612 Y103.016 E17.34094
G1 X83.992 Y101.71 E17.36808
G1 X84.693 Y99.757 E17.40949
G1 X85.258 Y98.459 E17.43774
G1 X86.105 Y96.8 E17.47491
G1 X87.055 Y95.207 E17.51193
G1 X87.807 Y94.101 E17.53862
G1 X88.996 Y92.564 E17.5774
G1 X90.206 Y91.197 E17.61383
G0 F6000 X90.506 Y91.462
G1 F1200 X91.515 Y90.456 E17.64226
G1 X92.997 Y89.15 E17.68168
G1 X94.115 Y88.286 E17.70988
