;FLAVOR:Marlin
;TIME:234
;Filament used: 0.0794418m
;Layer height: 0.12
;MINX:96.2
;MINY:96.2
;MINZ:0.12
;MAXX:123.8
;MAXY:123.8
;MAXZ:1.44
;TARGET_MACHINE.NAME:Creality Ender-3 Pro
;Generated with Cura_SteamEngine 5.6.0
M82 ;absolute extrusion mode
; Ender 3 Custom Start G-code
G92 E0 ; Reset Extruder
G28 ; Home all axes
G1 Z5.0 F3000 ; Move Z Axis up a bit during heating to not damage bed
M104 S175 ; Start heating up the nozzle most of the way
M190 S60 ; Start heating the bed, wait until target temperature reached
M109 S200 ; Finish heating the nozzle
G1 Z2.0 F3000 ; Move Z Axis up little to prevent scratching of Heat Bed
G1 X0.1 Y20 Z0.3 F5000.0 ; Move to start position
G1 X0.1 Y200.0 Z0.3 F1500.0 E15 ; Draw the first line
G1 X0.4 Y200.0 Z0.3 F5000.0 ; Move to side a little
G1 X0.4 Y20 Z0.3 F1500.0 E30 ; Draw the second line
G92 E0 ; Reset Extruder
G1 Z2.0 F3000 ; Move Z Axis up little to prevent scratching of Heat Bed
G1 X5 Y20 Z0.3 F5000.0 ; Move over to prevent blob squish
G92 E0
G92 E0
G1 F1500 E-6.5
;LAYER_COUNT:12
;LAYER:0
M107
G0 F6000 X100.256 Y100.227 Z0.12
;TYPE:SKIRT
G1 F1500 E0
G1 F1200 X100.936 Y99.595 E0.01853
G1 X101.349 Y99.246 E0.02932
G1 X101.974 Y98.774 E0.04495
G1 X102.662 Y98.314 E0.06146
G1 X103.33 Y97.923 E0.07691
G1 X103.937 Y97.606 E0.09057
G1 X104.612 Y97.296 E0.1054
G1 X105.112 Y97.093 E0.11617
G1 X105.922 Y96.815 E0.13326
G1 X106.65 Y96.611 E0.14834
G1 X107.392 Y96.449 E0.1635
G1 X108.058 Y96.339 E0.17697
G1 X108.819 Y96.254 E0.19225
G1 X109.571 Y96.208 E0.20729
G1 X110.311 Y96.2 E0.22206
G1 X110.927 Y96.227 E0.23436
G1 X111.4 Y96.27 E0.24384
G1 X112.459 Y96.424 E0.26519
G1 X113.138 Y96.565 E0.27903
G1 X113.838 Y96.748 E0.29347
G1 X114.54 Y96.971 E0.30817
G1 X115.239 Y97.235 E0.32308
G1 X115.819 Y97.489 E0.33572
G1 X116.507 Y97.835 E0.35109
G1 X117.073 Y98.152 E0.36403
G1 X117.593 Y98.475 E0.37625
G1 X118.289 Y98.968 E0.39327
G1 X118.859 Y99.419 E0.40777
G1 X119.383 Y99.88 E0.4217
G1 X119.828 Y100.31 E0.43405
G1 X120.405 Y100.931 E0.45097
G1 X120.801 Y101.402 E0.46325
G1 X121.207 Y101.941 E0.47671
G1 X121.65 Y102.603 E0.49261
G1 X122.044 Y103.262 E0.50793
G1 X122.367 Y103.875 E0.52176
G1 X122.68 Y104.547 E0.53655
G1 X122.901 Y105.099 E0.54842
G1 X123.193 Y105.949 E0.56635
G1 X123.37 Y106.561 E0.57907
G1 X123.525 Y107.238 E0.59293
G1 X123.66 Y108.047 E0.6093
G1 X123.746 Y108.814 E0.6247
G1 X123.792 Y109.555 E0.63951
G1 X123.8 Y110.246 E0.6533
G1 X123.785 Y110.697 E0.66231
G1 X123.695 Y111.653 E0.68147
G1 X123.61 Y112.291 E0.69432
G1 X123.462 Y113.047 E0.70969
G1 X123.31 Y113.653 E0.72216
G1 X123.07 Y114.438 E0.73854
G1 X122.909 Y114.888 E0.74808
G1 X122.495 Y115.857 E0.76911
G1 X122.239 Y116.37 E0.78055
G1 X121.845 Y117.076 E0.79668
G1 X121.512 Y117.612 E0.80927
G1 X120.996 Y118.34 E0.82708
G1 X120.66 Y118.765 E0.83789
G1 X120.08 Y119.425 E0.85543
G1 X119.744 Y119.773 E0.86508
G1 X119.064 Y120.405 E0.88361
G1 X118.651 Y120.754 E0.8944
G1 X118.026 Y121.226 E0.91003
G1 X117.338 Y121.686 E0.92654
G1 X116.67 Y122.077 E0.94199
G1 X116.063 Y122.394 E0.95565
G1 X115.388 Y122.704 E0.97048
G1 X114.888 Y122.907 E0.98125
G1 X114.078 Y123.185 E0.99834
G1 X113.35 Y123.389 E1.01342
G1 X112.608 Y123.551 E1.02858
G1 X111.942 Y123.661 E1.04205
G1 X111.181 Y123.746 E1.05733
G1 X110.429 Y123.792 E1.07237
G1 X109.689 Y123.8 E1.08714
G1 X109.073 Y123.773 E1.09944
G1 X108.6 Y123.73 E1.10892
G1 X107.541 Y123.576 E1.13027
G1 X106.862 Y123.435 E1.14411
G1 X106.162 Y123.252 E1.15855
G1 X105.46 Y123.028 E1.17326
G1 X104.784 Y122.774 E1.18767
G1 X104.184 Y122.513 E1.20073
G1 X103.491 Y122.164 E1.21621
G1 X102.917 Y121.843 E1.22933
G1 X102.364 Y121.495 E1.24237
G1 X101.657 Y120.994 E1.25967
G1 X101.29 Y120.706 E1.26898
G1 X100.583 Y120.089 E1.2877
G1 X100.207 Y119.728 E1.2981
G1 X99.595 Y119.069 E1.31605
G1 X99.199 Y118.598 E1.32833
G1 X98.793 Y118.059 E1.3418
G1 X98.317 Y117.346 E1.35891
G1 X97.986 Y116.791 E1.3718
G1 X97.587 Y116.028 E1.38898
G1 X97.304 Y115.412 E1.40251
G1 X97.095 Y114.889 E1.41375
G1 X96.807 Y114.051 E1.43144
G1 X96.63 Y113.439 E1.44415
G1 X96.475 Y112.762 E1.45801
G1 X96.34 Y111.952 E1.4744
G1 X96.254 Y111.186 E1.48978
G1 X96.208 Y110.445 E1.50459
G1 X96.2 Y109.754 E1.51839
G1 X96.215 Y109.303 E1.52739
G1 X96.305 Y108.347 E1.54655
G1 X96.39 Y107.709 E1.5594
G1 X96.538 Y106.953 E1.57477
G1 X96.69 Y106.347 E1.58724
G1 X96.93 Y105.562 E1.60362
G1 X97.091 Y105.112 E1.61316
G1 X97.505 Y104.143 E1.63419
G1 X97.761 Y103.63 E1.64563
G1 X98.155 Y102.924 E1.66176
G1 X98.488 Y102.388 E1.67435
G1 X99.004 Y101.66 E1.69216
G1 X99.34 Y101.235 E1.70297
G1 X99.92 Y100.575 E1.72051
G1 X100.256 Y100.227 E1.73016
G0 F6000 X100.544 Y100.505
G1 F1200 X101.194 Y99.901 E1.74787
G1 X101.607 Y99.552 E1.75866
G1 X102.196 Y99.107 E1.77339
G1 X102.884 Y98.647 E1.78991
G1 X103.515 Y98.278 E1.80449
G1 X104.122 Y97.961 E1.81816
G1 X104.762 Y97.667 E1.83221
G1 X105.262 Y97.464 E1.84298
G1 X106.03 Y97.2 E1.85919
G1 X106.735 Y97.002 E1.8738
G1 X107.458 Y96.844 E1.88857
G1 X108.102 Y96.737 E1.9016
G1 X108.863 Y96.652 E1.91688
G1 X109.575 Y96.608 E1.93112
G1 X110.293 Y96.6 E1.94545
G1 X110.909 Y96.627 E1.95775
G1 X111.343 Y96.666 E1.96645
G1 X112.378 Y96.816 E1.98732
G1 X113.037 Y96.952 E2.00075
G1 X113.717 Y97.129 E2.01477
G1 X114.399 Y97.345 E2.02904
G1 X115.079 Y97.601 E2.04354
G1 X115.639 Y97.846 E2.05574
G1 X116.312 Y98.184 E2.07077
G1 X116.862 Y98.492 E2.08335
G1 X117.382 Y98.815 E2.09557
G1 X118.041 Y99.282 E2.11169
G1 X118.595 Y99.72 E2.12578
G1 X119.105 Y100.168 E2.13933
G1 X119.55 Y100.598 E2.15167
G1 X120.099 Y101.189 E2.16777
G1 X120.481 Y101.643 E2.17961
G1 X120.887 Y102.182 E2.19308
G1 X121.317 Y102.825 E2.20852
G1 X121.69 Y103.448 E2.22301
G1 X122.004 Y104.044 E2.23645
G1 X122.317 Y104.716 E2.25124
G1 X122.523 Y105.229 E2.26228
G1 X122.809 Y106.06 E2.27981
G1 X122.98 Y106.65 E2.29207
G1 X123.13 Y107.304 E2.30546
G1 X123.262 Y108.092 E2.32141
G1 X123.348 Y108.859 E2.33681
G1 X123.392 Y109.56 E2.35083
G1 X123.4 Y110.233 E2.36426
G1 X123.385 Y110.684 E2.37326
G1 X123.299 Y111.6 E2.39162
G1 X123.217 Y112.215 E2.404
G1 X123.074 Y112.95 E2.41895
G1 X122.928 Y113.536 E2.431
G1 X122.693 Y114.303 E2.44701
G1 X122.532 Y114.753 E2.45655
G1 X122.137 Y115.679 E2.47664
G1 X121.89 Y116.175 E2.48769
G1 X121.505 Y116.865 E2.50346
G1 X121.172 Y117.401 E2.51605
G1 X120.682 Y118.092 E2.53296
G1 X120.346 Y118.517 E2.54377
G1 X119.792 Y119.147 E2.56051
G1 X119.456 Y119.495 E2.57017
G1 X118.806 Y120.099 E2.58787
G1 X118.393 Y120.448 E2.59866
G1 X117.804 Y120.893 E2.6134
G1 X117.116 Y121.353 E2.62991
G1 X116.485 Y121.722 E2.6445
G1 X115.878 Y122.039 E2.65816
G1 X115.238 Y122.333 E2.67222
G1 X114.738 Y122.536 E2.68299
G1 X113.97 Y122.8 E2.6992
G1 X113.265 Y122.998 E2.71381
G1 X112.542 Y123.156 E2.72858
G1 X111.898 Y123.263 E2.74161
G1 X111.137 Y123.348 E2.75689
G1 X110.425 Y123.392 E2.77112
G1 X109.707 Y123.4 E2.78545
G1 X109.091 Y123.373 E2.79776
G1 X108.657 Y123.334 E2.80645
G1 X107.622 Y123.184 E2.82732
G1 X106.963 Y123.048 E2.84075
G1 X106.283 Y122.871 E2.85477
G1 X105.601 Y122.654 E2.86906
G1 X104.944 Y122.407 E2.88306
G1 X104.344 Y122.146 E2.89612
G1 X103.686 Y121.815 E2.91082
G1 X103.13 Y121.504 E2.92353
G1 X102.595 Y121.168 E2.93614
G1 X101.904 Y120.679 E2.95303
G1 X101.537 Y120.391 E2.96234
G1 X100.86 Y119.8 E2.98028
G1 X100.484 Y119.439 E2.99068
G1 X99.901 Y118.811 E3.00778
G1 X99.519 Y118.357 E3.01962
G1 X99.113 Y117.818 E3.03309
G1 X98.661 Y117.141 E3.04933
G1 X98.33 Y116.586 E3.06223
G1 X97.95 Y115.861 E3.07856
G1 X97.675 Y115.263 E3.0917
G1 X97.473 Y114.759 E3.10253
G1 X97.191 Y113.94 E3.11982
G1 X97.02 Y113.35 E3.13208
G1 X96.87 Y112.696 E3.14547
G1 X96.738 Y111.907 E3.16143
G1 X96.652 Y111.141 E3.17681
G1 X96.608 Y110.44 E3.19083
G1 X96.6 Y109.767 E3.20426
G1 X96.615 Y109.316 E3.21327
G1 X96.701 Y108.4 E3.23163
G1 X96.783 Y107.785 E3.24401
G1 X96.926 Y107.05 E3.25895
G1 X97.072 Y106.464 E3.271
G1 X97.307 Y105.697 E3.28701
G1 X97.468 Y105.247 E3.29655
G1 X97.863 Y104.321 E3.31664
G1 X98.11 Y103.825 E3.3277
G1 X98.495 Y103.135 E3.34347
G1 X98.828 Y102.599 E3.35606
G1 X99.318 Y101.908 E3.37296
G1 X99.654 Y101.483 E3.38377
G1 X100.208 Y100.853 E3.40052
G1 X100.544 Y100.505 E3.41017
G0 F6000 X100.832 Y100.783
G1 F1200 X101.452 Y100.207 E3.42706
G1 X101.865 Y99.858 E3.43785
G1 X102.418 Y99.44 E3.45168
G1 X103.106 Y98.98 E3.4682
G1 X103.7 Y98.633 E3.48193
G1 X104.307 Y98.316 E3.49559
G1 X104.912 Y98.038 E3.50888
G1 X105.412 Y97.835 E3.51965
G1 X106.138 Y97.585 E3.53497
G1 X106.82 Y97.393 E3.54911
G1 X107.524 Y97.239 E3.56349
G1 X108.146 Y97.135 E3.57608
G1 X108.907 Y97.05 E3.59136
G1 X109.58 Y97.008 E3.60481
G1 X110.275 Y97 E3.61868
G1 X110.891 Y97.027 E3.63099
G1 X111.286 Y97.062 E3.6389
G1 X112.297 Y97.208 E3.65929
G1 X112.956 Y97.344 E3.67272
G1 X113.596 Y97.51 E3.68591
G1 X114.258 Y97.72 E3.69977
G1 X114.919 Y97.968 E3.71386
G1 X115.46 Y98.204 E3.72564
G1 X116.117 Y98.533 E3.7403
G1 X116.651 Y98.832 E3.75251
G1 X117.171 Y99.155 E3.76473
G1 X117.793 Y99.596 E3.77995
G1 X118.347 Y100.034 E3.79404
G1 X118.827 Y100.456 E3.80679
G1 X119.272 Y100.886 E3.81914
G1 X119.793 Y101.447 E3.83442
G1 X120.161 Y101.884 E3.84582
G1 X120.567 Y102.423 E3.85929
G1 X120.984 Y103.047 E3.87427
G1 X121.336 Y103.635 E3.88794
G1 X121.641 Y104.213 E3.90098
G1 X121.954 Y104.885 E3.91578
G1 X122.145 Y105.36 E3.926
G1 X122.425 Y106.171 E3.94312
G1 X122.59 Y106.74 E3.95494
G1 X122.735 Y107.37 E3.96784
G1 X122.867 Y108.158 E3.98379
G1 X122.949 Y108.884 E3.99837
G1 X122.992 Y109.565 E4.01198
G1 X123 Y110.22 E4.02506
G1 X122.985 Y110.671 E4.03406
G1 X122.903 Y111.547 E4.05162
G1 X122.824 Y112.139 E4.06354
G1 X122.686 Y112.853 E4.07805
G1 X122.545 Y113.419 E4.08969
G1 X122.316 Y114.168 E4.10532
G1 X122.155 Y114.618 E4.11486
G1 X121.779 Y115.501 E4.13401
G1 X121.541 Y115.98 E4.14468
G1 X121.165 Y116.654 E4.16009
G1 X120.845 Y117.17 E4.1722
G1 X120.368 Y117.844 E4.18868
G1 X120.045 Y118.253 E4.19908
G1 X119.504 Y118.869 E4.21544
G1 X119.168 Y119.217 E4.22509
G1 X118.548 Y119.793 E4.24198
G1 X118.135 Y120.142 E4.25277
G1 X117.582 Y120.56 E4.26661
G1 X116.894 Y121.02 E4.28312
G1 X116.3 Y121.367 E4.29685
G1 X115.693 Y121.684 E4.31052
G1 X115.088 Y121.962 E4.3238
G1 X114.588 Y122.165 E4.33457
G1 X113.862 Y122.415 E4.3499
G1 X113.18 Y122.607 E4.36404
G1 X112.476 Y122.761 E4.37842
G1 X111.854 Y122.865 E4.391
G1 X111.093 Y122.95 E4.40628
G1 X110.42 Y122.992 E4.41974
G1 X109.725 Y123 E4.43361
G1 X109.109 Y122.973 E4.44591
G1 X108.714 Y122.938 E4.45383
G1 X107.703 Y122.792 E4.47421
G1 X107.044 Y122.656 E4.48764
G1 X106.404 Y122.49 E4.50084
G1 X105.742 Y122.28 E4.5147
G1 X105.104 Y122.04 E4.5283
G1 X104.504 Y121.779 E4.54136
G1 X103.881 Y121.466 E4.55527
G1 X103.343 Y121.165 E4.56757
G1 X102.808 Y120.829 E4.58018
G1 X102.151 Y120.364 E4.59624
G1 X101.784 Y120.076 E4.60555
G1 X101.137 Y119.511 E4.62269
G1 X100.761 Y119.15 E4.6331
G1 X100.207 Y118.553 E4.64935
G1 X99.839 Y118.116 E4.66075
G1 X99.433 Y117.577 E4.67422
G1 X99.005 Y116.936 E4.6896
G1 X98.674 Y116.381 E4.70249
G1 X98.313 Y115.693 E4.718
G1 X98.046 Y115.114 E4.73072
G1 X97.851 Y114.629 E4.74115
G1 X97.575 Y113.829 E4.75804
G1 X97.41 Y113.26 E4.76987
G1 X97.265 Y112.63 E4.78277
G1 X97.133 Y111.841 E4.79873
G1 X97.051 Y111.116 E4.81329
G1 X97.008 Y110.435 E4.82691
G1 X97 Y109.78 E4.83998
G1 X97.015 Y109.329 E4.84899
G1 X97.097 Y108.453 E4.86654
G1 X97.176 Y107.861 E4.87846
G1 X97.314 Y107.147 E4.89297
G1 X97.455 Y106.581 E4.90461
G1 X97.684 Y105.832 E4.92024
G1 X97.845 Y105.382 E4.92978
G1 X98.221 Y104.499 E4.94893
G1 X98.459 Y104.02 E4.95961
G1 X98.835 Y103.346 E4.97501
G1 X99.155 Y102.83 E4.98713
G1 X99.632 Y102.156 E5.00361
G1 X99.955 Y101.747 E5.01401
G1 X100.496 Y101.131 E5.03037
G1 X100.832 Y100.783 E5.04002
G0 F6000 X101.12 Y101.061
G1 F1200 X101.71 Y100.513 E5.05609
G1 X102.123 Y100.164 E5.06688
G1 X102.64 Y99.773 E5.07982
G1 X103.328 Y99.313 E5.09633
G1 X103.885 Y98.988 E5.1092
G1 X104.492 Y98.671 E5.12287
G1 X105.062 Y98.409 E5.13539
G1 X105.562 Y98.206 E5.14615
G1 X106.247 Y97.97 E5.16061
G1 X106.906 Y97.784 E5.17428
G1 X107.59 Y97.634 E5.18825
G1 X108.212 Y97.53 E5.20084
G1 X108.932 Y97.449 E5.2153
G1 X109.585 Y97.408 E5.22835
G1 X110.258 Y97.4 E5.24178
G1 X110.857 Y97.426 E5.25375
G1 X111.229 Y97.458 E5.2612
G1 X112.217 Y97.6 E5.28112
G1 X112.856 Y97.731 E5.29414
G1 X113.475 Y97.891 E5.3069
G1 X114.117 Y98.094 E5.32033
G1 X114.759 Y98.335 E5.33402
G1 X115.281 Y98.562 E5.34538
G1 X115.922 Y98.882 E5.35967
G1 X116.44 Y99.172 E5.37152
G1 X116.96 Y99.495 E5.38374
G1 X117.545 Y99.91 E5.39805
G1 X118.099 Y100.348 E5.41214
G1 X118.549 Y100.744 E5.42411
G1 X118.994 Y101.174 E5.43646
G1 X119.487 Y101.704 E5.4509
G1 X119.841 Y102.125 E5.46188
G1 X120.247 Y102.664 E5.47534
G1 X120.651 Y103.269 E5.48986
G1 X120.982 Y103.822 E5.50272
G1 X121.287 Y104.4 E5.51577
G1 X121.583 Y105.034 E5.52973
G1 X121.767 Y105.491 E5.53956
G1 X122.041 Y106.282 E5.55627
G1 X122.2 Y106.83 E5.56765
G1 X122.34 Y107.436 E5.58006
G1 X122.472 Y108.224 E5.59601
G1 X122.55 Y108.909 E5.60977
G1 X122.592 Y109.57 E5.62298
G1 X122.6 Y110.207 E5.6357
G1 X122.585 Y110.658 E5.6447
G1 X122.507 Y111.494 E5.66146
G1 X122.431 Y112.063 E5.67291
G1 X122.293 Y112.777 E5.68743
G1 X122.163 Y113.302 E5.69822
G1 X121.939 Y114.033 E5.71348
G1 X121.778 Y114.483 E5.72302
G1 X121.42 Y115.324 E5.74126
G1 X121.192 Y115.785 E5.75152
G1 X120.825 Y116.443 E5.76655
G1 X120.505 Y116.959 E5.77867
G1 X120.054 Y117.596 E5.79425
G1 X119.731 Y118.005 E5.80465
G1 X119.216 Y118.591 E5.82022
G1 X118.88 Y118.939 E5.82987
G1 X118.29 Y119.487 E5.84594
G1 X117.877 Y119.836 E5.85673
G1 X117.36 Y120.227 E5.86966
G1 X116.672 Y120.687 E5.88618
G1 X116.115 Y121.012 E5.89905
G1 X115.508 Y121.329 E5.91272
G1 X114.938 Y121.591 E5.92523
G1 X114.438 Y121.794 E5.936
G1 X113.753 Y122.03 E5.95046
G1 X113.094 Y122.216 E5.96413
G1 X112.41 Y122.366 E5.9781
G1 X111.788 Y122.47 E5.99069
G1 X111.068 Y122.551 E6.00515
G1 X110.415 Y122.592 E6.0182
G1 X109.742 Y122.6 E6.03163
G1 X109.143 Y122.574 E6.0436
G1 X108.771 Y122.542 E6.05105
G1 X107.783 Y122.4 E6.07097
G1 X107.144 Y122.269 E6.08399
G1 X106.525 Y122.109 E6.09674
G1 X105.883 Y121.906 E6.11018
G1 X105.263 Y121.673 E6.1234
G1 X104.683 Y121.421 E6.13602
G1 X104.076 Y121.117 E6.14957
G1 X103.555 Y120.826 E6.16148
G1 X103.039 Y120.503 E6.17362
G1 X102.398 Y120.049 E6.1893
G1 X102.031 Y119.761 E6.19861
G1 X101.414 Y119.222 E6.21496
G1 X101.038 Y118.861 E6.22536
G1 X100.513 Y118.296 E6.24075
G1 X100.159 Y117.875 E6.25173
G1 X99.753 Y117.336 E6.2652
G1 X99.349 Y116.731 E6.27971
G1 X99.018 Y116.176 E6.29261
G1 X98.676 Y115.525 E6.30728
G1 X98.417 Y114.965 E6.3196
G1 X98.229 Y114.498 E6.32964
G1 X97.959 Y113.718 E6.34612
G1 X97.8 Y113.17 E6.3575
G1 X97.66 Y112.564 E6.36991
G1 X97.528 Y111.775 E6.38588
G1 X97.45 Y111.091 E6.39962
G1 X97.408 Y110.43 E6.41283
G1 X97.4 Y109.793 E6.42555
G1 X97.415 Y109.342 E6.43455
G1 X97.493 Y108.506 E6.45131
G1 X97.569 Y107.937 E6.46276
G1 X97.707 Y107.223 E6.47728
G1 X97.837 Y106.698 E6.48807
G1 X98.061 Y105.967 E6.50333
G1 X98.222 Y105.517 E6.51287
G1 X98.58 Y104.676 E6.53111
G1 X98.808 Y104.215 E6.54137
G1 X99.175 Y103.557 E6.5564
G1 X99.495 Y103.041 E6.56852
G1 X99.946 Y102.404 E6.5841
G1 X100.269 Y101.995 E6.5945
G1 X100.784 Y101.409 E6.61007
G1 X101.12 Y101.061 E6.61972
G0 F6000 X101.408 Y101.339
G1 F1200 X101.969 Y100.818 E6.635
G1 X102.364 Y100.483 E6.64533
G1 X102.862 Y100.106 E6.6578
G1 X103.55 Y99.646 E6.67431
G1 X104.07 Y99.342 E6.68633
G1 X104.659 Y99.034 E6.6996
G1 X105.213 Y98.779 E6.71177
G1 X105.692 Y98.584 E6.72209
G1 X106.356 Y98.355 E6.73611
G1 X106.992 Y98.175 E6.7493
G1 X107.656 Y98.029 E6.76286
G1 X108.278 Y97.925 E6.77545
G1 X108.957 Y97.848 E6.78909
G1 X109.59 Y97.808 E6.80174
G1 X110.241 Y97.8 E6.81474
G1 X110.824 Y97.825 E6.82638
G1 X111.172 Y97.854 E6.83335
G1 X112.137 Y97.992 E6.8528
G1 X112.756 Y98.118 E6.86541
G1 X113.354 Y98.272 E6.87773
G1 X113.977 Y98.469 E6.89077
G1 X114.599 Y98.702 E6.90403
G1 X115.121 Y98.929 E6.91539
G1 X115.727 Y99.231 E6.9289
G1 X116.229 Y99.512 E6.94038
G1 X116.729 Y99.822 E6.95212
G1 X117.297 Y100.224 E6.96601
G1 X117.835 Y100.649 E6.97969
