;FLAVOR:Marlin
;TIME:2329
;Filament used: 0.643742m
;Layer height: 0.12
;MINX:86.163
;MINY:86.163
;MINZ:0.12
;MAXX:133.837
;MAXY:133.837
;MAXZ:5.04
;TARGET_MACHINE.NAME:Creality Ender-3 Pro
;Generated with Cura_SteamEngine 5.6.0
M82 ;absolute extrusion mode
; Ender 3 Custom Start G-code
G92 E0 ; Reset Extruder
G28 ; Home all axes
G1 Z5.0 F3000 ; Move Z Axis up a bit during heating to not damage bed
M104 S175 ; Start heating up the nozzle most of the way
M190 S60 ; Start heating the bed, wait until target temperature reached
M109 S200 ; Finish heating the nozzle
G1 Z2.0 F3000 ; Move Z Axis up little to prevent scratching of Heat Bed
G1 X0.1 Y20 Z0.3 F5000.0 ; Move to start position
G1 X0.1 Y200.0 Z0.3 F1500.0 E15 ; Draw the first line
G1 X0.4 Y200.0 Z0.3 F5000.0 ; Move to side a little
G1 X0.4 Y20 Z0.3 F1500.0 E30 ; Draw the second line
G92 E0 ; Reset Extruder
G1 Z2.0 F3000 ; Move Z Axis up little to prevent scratching of Heat Bed
G1 X5 Y20 Z0.3 F5000.0 ; Move over to prevent blob squish
G92 E0
G92 E0
G1 F1500 E-6.5
;LAYER_COUNT:42
;LAYER:0
M107
G0 F6000 X95.123 Y91.349 Z0.12
;TYPE:SKIRT
G1 F1500 E0
G1 F1200 X96.905 Y90.163 E0.04272
G1 X99.022 Y89.316 E0.08822
G1 X99.51 Y89.303 E0.09796
G1 X99.813 Y88.953 E0.1072
G1 X101.696 Y87.634 E0.15308
G1 X103.658 Y87.091 E0.19371
G1 X105.902 Y86.932 E0.2386
G1 X106.415 Y87.078 E0.24924
G1 X106.793 Y86.849 E0.25806
G1 X109.004 Y86.163 E0.30426
G1 X111.07 Y86.258 E0.34553
G1 X113.22 Y86.796 E0.38976
G1 X113.664 Y87.092 E0.40041
G1 X114.126 Y86.983 E0.40988
G1 X116.436 Y87.022 E0.45599
G1 X118.426 Y87.79 E0.49856
G1 X119.95 Y88.787 E0.5349
G1 X120.488 Y89.241 E0.54895
G1 X120.575 Y89.337 E0.55153
G1 X121.006 Y89.373 E0.56016
G1 X123.185 Y90.117 E0.60611
G1 X124.873 Y91.472 E0.64931
G1 X126.026 Y92.904 E0.686
G1 X126.437 Y93.599 E0.70211
G1 X126.76 Y93.736 E0.70911
G1 X128.651 Y95.123 E0.75591
G1 X129.837 Y96.905 E0.79863
G1 X130.684 Y99.022 E0.84413
G1 X130.697 Y99.51 E0.85388
G1 X131.047 Y99.813 E0.86311
G1 X132.366 Y101.696 E0.90899
G1 X132.909 Y103.658 E0.94962
G1 X133.068 Y105.902 E0.99451
G1 X132.922 Y106.415 E1.00516
G1 X133.151 Y106.793 E1.01398
G1 X133.837 Y109.004 E1.06018
G1 X133.742 Y111.07 E1.10145
G1 X133.204 Y113.22 E1.14568
G1 X132.908 Y113.664 E1.15633
G1 X133.017 Y114.131 E1.1659
G1 X132.981 Y115.992 E1.20304
G1 X132.763 Y117.061 E1.22481
G1 X131.968 Y118.791 E1.26281
G1 X131.281 Y119.875 E1.28842
G1 X130.764 Y120.503 E1.30465
G1 X130.661 Y120.596 E1.30742
G1 X130.627 Y121.003 E1.31557
G1 X129.883 Y123.185 E1.36158
G1 X128.528 Y124.873 E1.40477
G1 X127.096 Y126.026 E1.44146
G1 X126.401 Y126.437 E1.45758
G1 X126.264 Y126.76 E1.46458
G1 X124.877 Y128.651 E1.51138
G1 X123.095 Y129.837 E1.55409
G1 X120.978 Y130.684 E1.5996
G1 X120.49 Y130.697 E1.60934
G1 X120.187 Y131.047 E1.61858
G1 X118.304 Y132.366 E1.66446
G1 X116.342 Y132.909 E1.70508
G1 X114.098 Y133.068 E1.74998
G1 X113.585 Y132.922 E1.76062
G1 X113.207 Y133.151 E1.76944
G1 X110.996 Y133.837 E1.81564
G1 X108.93 Y133.742 E1.85691
G1 X106.78 Y133.204 E1.90114
G1 X106.336 Y132.908 E1.91179
G1 X105.869 Y133.017 E1.92136
G1 X104.008 Y132.981 E1.9585
G1 X102.939 Y132.763 E1.98028
G1 X101.209 Y131.968 E2.01827
G1 X100.125 Y131.281 E2.04388
G1 X99.497 Y130.764 E2.06011
G1 X99.404 Y130.661 E2.06288
G1 X98.997 Y130.627 E2.07103
G1 X96.815 Y129.883 E2.11704
G1 X95.127 Y128.528 E2.16024
G1 X93.974 Y127.096 E2.19693
G1 X93.563 Y126.401 E2.21304
G1 X93.24 Y126.264 E2.22004
G1 X91.349 Y124.877 E2.26684
G1 X90.163 Y123.095 E2.30956
G1 X89.316 Y120.978 E2.35506
G1 X89.303 Y120.49 E2.3648
G1 X88.953 Y120.187 E2.37404
G1 X87.634 Y118.304 E2.41992
G1 X87.091 Y116.342 E2.46055
G1 X86.932 Y114.098 E2.50544
G1 X87.078 Y113.585 E2.51608
G1 X86.849 Y113.207 E2.5249
G1 X86.163 Y110.996 E2.5711
G1 X86.258 Y108.93 E2.61237
G1 X86.796 Y106.78 E2.6566
G1 X87.092 Y106.336 E2.66725
G1 X86.983 Y105.869 E2.67682
G1 X87.019 Y104.008 E2.71397
G1 X87.237 Y102.939 E2.73574
G1 X88.032 Y101.209 E2.77373
G1 X88.719 Y100.125 E2.79934
G1 X89.236 Y99.497 E2.81558
G1 X89.339 Y99.404 E2.81835
G1 X89.373 Y98.997 E2.8265
G1 X90.117 Y96.815 E2.8725
G1 X91.472 Y95.127 E2.9157
G1 X92.904 Y93.974 E2.95239
G1 X93.599 Y93.563 E2.9685
G1 X93.736 Y93.24 E2.9755
G1 X95.123 Y91.349 E3.0223
G0 F6000 X95.405 Y91.642
G1 F1200 X97.094 Y90.518 E3.06279
G1 X99.103 Y89.714 E3.10597
G1 X99.696 Y89.699 E3.11781
G1 X100.082 Y89.253 E3.12958
G1 X101.868 Y88.002 E3.1731
G1 X103.729 Y87.487 E3.21163
G1 X105.86 Y87.336 E3.25426
G1 X106.473 Y87.51 E3.26698
G1 X106.957 Y87.217 E3.27827
G1 X109.055 Y86.566 E3.32211
G1 X111.014 Y86.656 E3.36124
G1 X113.055 Y87.167 E3.40323
G1 X113.586 Y87.521 E3.41597
G1 X114.168 Y87.384 E3.4279
G1 X116.359 Y87.421 E3.47163
G1 X118.241 Y88.147 E3.51188
G1 X119.731 Y89.122 E3.54742
G1 X120.229 Y89.546 E3.56047
G1 X120.374 Y89.722 E3.56502
G1 X120.923 Y89.768 E3.57602
G1 X122.991 Y90.474 E3.61962
G1 X124.587 Y91.755 E3.66046
G1 X125.714 Y93.155 E3.69633
G1 X126.078 Y93.773 E3.71064
G1 X126.134 Y93.912 E3.71363
G1 X126.523 Y94.059 E3.72193
G1 X128.358 Y95.405 E3.76735
G1 X129.482 Y97.094 E3.80783
G1 X130.286 Y99.103 E3.85102
G1 X130.301 Y99.696 E3.86286
G1 X130.747 Y100.082 E3.87463
G1 X131.998 Y101.868 E3.91814
G1 X132.513 Y103.729 E3.95668
G1 X132.664 Y105.86 E3.99931
G1 X132.49 Y106.473 E4.01202
G1 X132.783 Y106.957 E4.02332
G1 X133.434 Y109.055 E4.06715
G1 X133.344 Y111.014 E4.10629
G1 X132.833 Y113.055 E4.14828
G1 X132.479 Y113.586 E4.16101
G1 X132.616 Y114.171 E4.173
G1 X132.581 Y115.984 E4.20919
G1 X132.381 Y116.934 E4.22856
G1 X131.63 Y118.577 E4.26461
G1 X130.943 Y119.661 E4.29022
G1 X130.456 Y120.248 E4.30544
G1 X130.276 Y120.392 E4.31004
G1 X130.232 Y120.92 E4.32062
G1 X129.526 Y122.991 E4.36428
G1 X128.245 Y124.587 E4.40512
G1 X126.845 Y125.714 E4.44099
G1 X126.227 Y126.078 E4.4553
G1 X126.088 Y126.134 E4.45829
G1 X125.941 Y126.523 E4.46659
G1 X124.595 Y128.358 E4.51201
G1 X122.906 Y129.482 E4.55249
G1 X120.897 Y130.286 E4.59568
G1 X120.304 Y130.301 E4.60751
G1 X119.918 Y130.747 E4.61928
G1 X118.132 Y131.998 E4.6628
G1 X116.271 Y132.513 E4.70133
G1 X114.14 Y132.664 E4.74397
G1 X113.527 Y132.49 E4.75668
G1 X113.043 Y132.783 E4.76797
G1 X110.945 Y133.434 E4.81181
G1 X108.986 Y133.344 E4.85095
G1 X106.945 Y132.833 E4.89293
G1 X106.414 Y132.479 E4.90567
G1 X105.829 Y132.616 E4.91766
G1 X104.016 Y132.581 E4.95385
G1 X103.066 Y132.381 E4.97322
G1 X101.423 Y131.63 E5.00927
G1 X100.339 Y130.943 E5.03488
G1 X99.752 Y130.456 E5.0501
G1 X99.608 Y130.276 E5.0547
G1 X99.08 Y130.232 E5.06528
G1 X97.009 Y129.526 E5.10894
G1 X95.413 Y128.245 E5.14978
G1 X94.286 Y126.845 E5.18565
G1 X93.922 Y126.227 E5.19996
G1 X93.866 Y126.088 E5.20295
G1 X93.477 Y125.941 E5.21125
G1 X91.642 Y124.595 E5.25666
G1 X90.518 Y122.906 E5.29715
G1 X89.714 Y120.897 E5.34034
G1 X89.699 Y120.304 E5.35217
G1 X89.253 Y119.918 E5.36394
G1 X88.002 Y118.132 E5.40746
G1 X87.487 Y116.271 E5.44599
G1 X87.336 Y114.14 E5.48863
G1 X87.51 Y113.527 E5.50134
G1 X87.217 Y113.043 E5.51263
G1 X86.566 Y110.945 E5.55647
G1 X86.656 Y108.986 E5.59561
G1 X87.167 Y106.945 E5.63759
G1 X87.521 Y106.414 E5.65033
G1 X87.384 Y105.829 E5.66232
G1 X87.419 Y104.016 E5.69851
G1 X87.619 Y103.066 E5.71788
G1 X88.37 Y101.423 E5.75393
G1 X89.057 Y100.339 E5.77954
G1 X89.544 Y99.752 E5.79476
G1 X89.724 Y99.608 E5.79936
G1 X89.768 Y99.08 E5.80994
G1 X90.474 Y97.009 E5.8536
G1 X91.755 Y95.413 E5.89444
G1 X93.155 Y94.286 E5.93031
G1 X93.773 Y93.922 E5.94462
G1 X93.912 Y93.866 E5.94761
G1 X94.059 Y93.477 E5.95591
G1 X95.405 Y91.642 E6.00132
G0 F6000 X95.687 Y91.935
G1 F1200 X97.283 Y90.873 E6.03958
G1 X99.184 Y90.112 E6.08044
G1 X99.882 Y90.094 E6.09438
G1 X100.351 Y89.553 E6.10867
G1 X102.04 Y88.37 E6.14982
G1 X103.8 Y87.883 E6.18626
G1 X105.817 Y87.74 E6.22661
G1 X106.53 Y87.943 E6.24141
G1 X107.121 Y87.585 E6.2552
G1 X109.106 Y86.969 E6.29667
G1 X110.958 Y87.054 E6.33367
G1 X112.89 Y87.538 E6.37342
G1 X113.508 Y87.95 E6.38824
G1 X114.21 Y87.785 E6.40263
G1 X116.282 Y87.82 E6.44398
G1 X118.058 Y88.505 E6.48197
G1 X119.472 Y89.427 E6.51566
G1 X119.97 Y89.851 E6.52871
G1 X120.164 Y90.106 E6.5351
G1 X120.841 Y90.163 E6.54866
G1 X122.797 Y90.831 E6.58991
G1 X124.301 Y92.038 E6.62839
G1 X125.402 Y93.406 E6.66344
G1 X125.732 Y93.974 E6.67655
G1 X125.818 Y94.22 E6.68175
G1 X126.328 Y94.413 E6.69263
G1 X128.065 Y95.687 E6.73562
G1 X129.127 Y97.283 E6.77387
G1 X129.888 Y99.184 E6.81474
G1 X129.906 Y99.882 E6.82867
G1 X130.447 Y100.351 E6.84296
G1 X131.63 Y102.04 E6.88411
G1 X132.117 Y103.8 E6.92055
G1 X132.26 Y105.817 E6.96091
G1 X132.057 Y106.53 E6.9757
G1 X132.415 Y107.121 E6.98949
G1 X133.031 Y109.106 E7.03096
G1 X132.946 Y110.958 E7.06796
G1 X132.462 Y112.89 E7.10771
G1 X132.05 Y113.509 E7.12255
G1 X132.215 Y114.215 E7.13702
G1 X132.182 Y115.94 E7.17145
G1 X131.999 Y116.808 E7.18915
G1 X131.292 Y118.364 E7.22326
G1 X130.635 Y119.406 E7.24784
G1 X130.148 Y119.993 E7.26306
G1 X129.892 Y120.173 E7.26931
G1 X129.837 Y120.838 E7.28262
G1 X129.169 Y122.797 E7.32393
G1 X127.962 Y124.301 E7.36241
G1 X126.594 Y125.402 E7.39745
G1 X126.026 Y125.732 E7.41056
G1 X125.78 Y125.818 E7.41576
G1 X125.587 Y126.328 E7.42664
G1 X124.313 Y128.065 E7.46963
G1 X122.717 Y129.127 E7.50789
G1 X120.816 Y129.888 E7.54875
G1 X120.118 Y129.906 E7.56269
G1 X119.649 Y130.447 E7.57697
G1 X117.96 Y131.63 E7.61813
G1 X116.2 Y132.117 E7.65457
G1 X114.183 Y132.26 E7.69492
G1 X113.47 Y132.057 E7.70972
G1 X112.879 Y132.415 E7.7235
G1 X110.894 Y133.031 E7.76498
G1 X109.042 Y132.946 E7.80198
G1 X107.11 Y132.462 E7.84172
G1 X106.491 Y132.05 E7.85656
G1 X105.785 Y132.215 E7.87103
G1 X104.06 Y132.182 E7.90546
G1 X103.192 Y131.999 E7.92317
G1 X101.636 Y131.292 E7.95727
G1 X100.594 Y130.635 E7.98185
G1 X100.007 Y130.148 E7.99708
G1 X99.827 Y129.892 E8.00332
G1 X99.162 Y129.837 E8.01664
G1 X97.203 Y129.169 E8.05794
G1 X95.699 Y127.962 E8.09643
G1 X94.598 Y126.594 E8.13147
G1 X94.268 Y126.026 E8.14458
G1 X94.182 Y125.78 E8.14978
G1 X93.672 Y125.587 E8.16066
G1 X91.935 Y124.313 E8.20365
G1 X90.873 Y122.717 E8.2419
G1 X90.112 Y120.816 E8.28277
G1 X90.094 Y120.118 E8.2967
G1 X89.553 Y119.649 E8.31099
G1 X88.37 Y117.96 E8.35214
G1 X87.883 Y116.2 E8.38858
G1 X87.74 Y114.183 E8.42894
G1 X87.943 Y113.47 E8.44373
G1 X87.585 Y112.879 E8.45752
G1 X86.969 Y110.894 E8.499
G1 X87.054 Y109.042 E8.53599
G1 X87.538 Y107.11 E8.57574
G1 X87.95 Y106.491 E8.59058
G1 X87.785 Y105.785 E8.60505
G1 X87.818 Y104.06 E8.63948
G1 X88.001 Y103.192 E8.65718
G1 X88.708 Y101.636 E8.69129
G1 X89.365 Y100.594 E8.71587
G1 X89.852 Y100.007 E8.73109
G1 X90.108 Y99.827 E8.73734
G1 X90.163 Y99.162 E8.75065
G1 X90.831 Y97.203 E8.79196
G1 X92.038 Y95.699 E8.83044
G1 X93.406 Y94.598 E8.86548
G1 X93.974 Y94.268 E8.87859
G1 X94.22 Y94.182 E8.88379
G1 X94.413 Y93.672 E8.89468
G1 X95.687 Y91.935 E8.93766
G0 F6000 X95.969 Y92.228
G1 F1200 X97.472 Y91.228 E8.97369
G1 X99.265 Y90.51 E9.01223
G1 X100.068 Y90.49 E9.02826
G1 X100.62 Y89.853 E9.04508
G1 X102.212 Y88.738 E9.08387
G1 X103.871 Y88.279 E9.11822
G1 X105.775 Y88.144 E9.15631
G1 X106.588 Y88.375 E9.17318
G1 X107.286 Y87.952 E9.18947
G1 X109.156 Y87.372 E9.22854
G1 X110.902 Y87.452 E9.26342
G1 X112.725 Y87.909 E9.30093
G1 X113.429 Y88.379 E9.31782
G1 X114.251 Y88.186 E9.33467
G1 X116.205 Y88.219 E9.37367
G1 X117.873 Y88.862 E9.40934
G1 X119.253 Y89.762 E9.44222
G1 X119.709 Y90.154 E9.45422
G1 X119.945 Y90.489 E9.4624
G1 X120.759 Y90.558 E9.4787
G1 X122.603 Y91.188 E9.51759
G1 X124.015 Y92.321 E9.55372
G1 X125.056 Y93.607 E9.58673
G1 X125.386 Y94.175 E9.59984
G1 X125.494 Y94.525 E9.60715
G1 X126.133 Y94.767 E9.62079
G1 X127.772 Y95.969 E9.66135
G1 X128.772 Y97.472 E9.69738
G1 X129.49 Y99.265 E9.73592
G1 X129.51 Y100.068 E9.75195
G1 X130.147 Y100.62 E9.76877
G1 X131.262 Y102.212 E9.80756
G1 X131.721 Y103.871 E9.84191
G1 X131.856 Y105.775 E9.88
G1 X131.625 Y106.588 E9.89687
G1 X132.048 Y107.286 E9.91315
G1 X132.628 Y109.156 E9.95223
G1 X132.548 Y110.902 E9.98711
G1 X132.091 Y112.725 E10.02461
G1 X131.621 Y113.43 E10.04152
G1 X131.814 Y114.255 E10.05843
G1 X131.783 Y115.896 E10.09118
G1 X131.617 Y116.683 E10.10723
G1 X130.953 Y118.152 E10.1394
G1 X130.327 Y119.151 E10.16293
G1 X129.874 Y119.697 E10.17709
G1 X129.509 Y119.954 E10.186
G1 X129.442 Y120.756 E10.20206
G1 X128.812 Y122.603 E10.241
G1 X127.679 Y124.015 E10.27713
G1 X126.393 Y125.056 E10.31015
G1 X125.825 Y125.386 E10.32326
G1 X125.475 Y125.494 E10.33057
G1 X125.233 Y126.133 E10.3442
G1 X124.031 Y127.772 E10.38476
G1 X122.528 Y128.772 E10.42079
G1 X120.735 Y129.49 E10.45933
G1 X119.932 Y129.51 E10.47536
G1 X119.38 Y130.147 E10.49218
G1 X117.788 Y131.262 E10.53097
G1 X116.129 Y131.721 E10.56532
G1 X114.225 Y131.856 E10.60341
G1 X113.412 Y131.625 E10.62028
G1 X112.714 Y132.048 E10.63657
G1 X110.844 Y132.628 E10.67564
G1 X109.098 Y132.548 E10.71052
G1 X107.275 Y132.091 E10.74802
G1 X106.57 Y131.621 E10.76493
G1 X105.745 Y131.814 E10.78184
G1 X104.104 Y131.783 E10.8146
G1 X103.317 Y131.617 E10.83065
G1 X101.848 Y130.953 E10.86282
G1 X100.849 Y130.327 E10.88634
G1 X100.303 Y129.874 E10.9005
G1 X100.046 Y129.509 E10.90941
G1 X99.244 Y129.442 E10.92547
G1 X97.397 Y128.812 E10.96442
G1 X95.985 Y127.679 E11.00054
G1 X94.944 Y126.393 E11.03356
G1 X94.614 Y125.825 E11.04667
G1 X94.506 Y125.475 E11.05398
G1 X93.867 Y125.233 E11.06762
G1 X92.228 Y124.031 E11.10818
G1 X91.228 Y122.528 E11.1442
G1 X90.51 Y120.735 E11.18275
G1 X90.49 Y119.932 E11.19878
G1 X89.853 Y119.38 E11.2156
G1 X88.738 Y117.788 E11.25438
G1 X88.279 Y116.129 E11.28874
G1 X88.144 Y114.225 E11.32683
G1 X88.375 Y113.412 E11.34369
G1 X87.952 Y112.714 E11.35998
G1 X87.372 Y110.844 E11.39905
G1 X87.452 Y109.098 E11.43393
G1 X87.909 Y107.275 E11.47144
G1 X88.379 Y106.57 E11.48835
G1 X88.186 Y105.745 E11.50526
G1 X88.217 Y104.104 E11.53801
G1 X88.383 Y103.317 E11.55406
G1 X89.047 Y101.848 E11.58623
G1 X89.673 Y100.849 E11.60976
G1 X90.126 Y100.303 E11.62392
G1 X90.491 Y100.046 E11.63282
G1 X90.558 Y99.244 E11.64889
G1 X91.188 Y97.397 E11.68783
G1 X92.321 Y95.985 E11.72396
G1 X93.607 Y94.944 E11.75698
G1 X94.175 Y94.614 E11.77008
G1 X94.525 Y94.506 E11.77739
G1 X94.767 Y93.867 E11.79103
G1 X95.969 Y92.228 E11.83159
G0 F6000 X96.251 Y92.521
G1 F1200 X97.661 Y91.583 E11.86539
G1 X99.346 Y90.908 E11.90161
G1 X100.254 Y90.886 E11.91974
G1 X100.889 Y90.153 E11.93909
G1 X102.384 Y89.106 E11.97551
G1 X103.942 Y88.675 E12.00777
G1 X105.733 Y88.548 E12.0436
G1 X106.646 Y88.807 E12.06254
G1 X107.45 Y88.32 E12.0813
G1 X109.207 Y87.775 E12.11801
G1 X110.846 Y87.85 E12.15075
G1 X112.56 Y88.28 E12.18602
G1 X113.351 Y88.808 E12.205
G1 X114.292 Y88.587 E12.22429
G1 X116.128 Y88.618 E12.26093
G1 X117.691 Y89.22 E12.29436
G1 X118.992 Y90.065 E12.32531
G1 X119.409 Y90.424 E12.3363
G1 X119.725 Y90.872 E12.34724
G1 X120.676 Y90.953 E12.36628
G1 X122.409 Y91.545 E12.40283
G1 X123.73 Y92.605 E12.43663
G1 X124.745 Y93.859 E12.46882
G1 X125.018 Y94.339 E12.47984
G1 X125.17 Y94.83 E12.4901
G1 X125.937 Y95.12 E12.50646
G1 X127.479 Y96.251 E12.54463
G1 X128.417 Y97.661 E12.57842
G1 X129.092 Y99.346 E12.61465
G1 X129.114 Y100.254 E12.63277
G1 X129.847 Y100.889 E12.65212
G1 X130.894 Y102.384 E12.68855
G1 X131.325 Y103.942 E12.72081
G1 X131.452 Y105.733 E12.75664
G1 X131.193 Y106.646 E12.77558
G1 X131.68 Y107.45 E12.79434
G1 X132.225 Y109.207 E12.83105
G1 X132.15 Y110.846 E12.86379
G1 X131.72 Y112.56 E12.89905
G1 X131.192 Y113.351 E12.91803
G1 X131.413 Y114.295 E12.93738
G1 X131.384 Y115.852 E12.96846
G1 X131.235 Y116.556 E12.98282
G1 X130.613 Y117.941 E13.01312
G1 X130.019 Y118.895 E13.03554
G1 X129.598 Y119.402 E13.04869
G1 X129.125 Y119.735 E13.06024
G1 X129.047 Y120.673 E13.07902
G1 X128.455 Y122.409 E13.11562
G1 X127.395 Y123.73 E13.14942
G1 X126.141 Y124.745 E13.18162
G1 X125.661 Y125.018 E13.19264
G1 X125.17 Y125.17 E13.2029
G1 X124.88 Y125.937 E13.21926
G1 X123.749 Y127.479 E13.25742
G1 X122.339 Y128.417 E13.29122
G1 X120.654 Y129.092 E13.32744
G1 X119.746 Y129.114 E13.34557
G1 X119.111 Y129.847 E13.36492
G1 X117.616 Y130.894 E13.40134
G1 X116.058 Y131.325 E13.4336
G1 X114.267 Y131.452 E13.46943
G1 X113.354 Y131.193 E13.48837
G1 X112.55 Y131.68 E13.50713
