;FLAVOR:Marlin
;TIME:511
;Filament used: 0.153301m
;Layer height: 0.12
;MINX:93.85
;MINY:93.85
;MINZ:0.12
;MAXX:126.15
;MAXY:126.15
;MAXZ:5.04
;TARGET_MACHINE.NAME:Creality Ender-3 Pro
;Generated with Cura_SteamEngine 5.6.0
M82 ;absolute extrusion mode
; Ender 3 Custom Start G-code
G92 E0 ; Reset Extruder
G28 ; Home all axes
G1 Z5.0 F3000 ; Move Z Axis up a bit during heating to not damage bed
M104 S175 ; Start heating up the nozzle most of the way
M190 S60 ; Start heating the bed, wait until target temperature reached
M109 S200 ; Finish heating the nozzle
G1 Z2.0 F3000 ; Move Z Axis up little to prevent scratching of Heat Bed
G1 X0.1 Y20 Z0.3 F5000.0 ; Move to start position
G1 X0.1 Y200.0 Z0.3 F1500.0 E15 ; Draw the first line
G1 X0.4 Y200.0 Z0.3 F5000.0 ; Move to side a little
G1 X0.4 Y20 Z0.3 F1500.0 E30 ; Draw the second line
G92 E0 ; Reset Extruder
G1 Z2.0 F3000 ; Move Z Axis up little to prevent scratching of Heat Bed
G1 X5 Y20 Z0.3 F5000.0 ; Move over to prevent blob squish
G92 E0
G92 E0
G1 F1500 E-6.5
;LAYER_COUNT:42
;LAYER:0
M107
G0 F6000 X98.369 Y98.792 Z0.12
;TYPE:SKIRT
G1 F1500 E0
G1 F1200 X98.835 Y98.328 E0.01312
G1 X99.768 Y97.511 E0.03787
G1 X100.619 Y96.858 E0.05928
G1 X101.494 Y96.265 E0.08037
G1 X101.998 Y95.965 E0.09208
G1 X103.345 Y95.283 E0.12221
G1 X104.005 Y95 E0.13654
G1 X105.191 Y94.584 E0.16162
G1 X106.199 Y94.305 E0.18249
G1 X107.225 Y94.087 E0.20342
G1 X108.066 Y93.964 E0.22038
G1 X109.115 Y93.873 E0.2414
G1 X110.259 Y93.85 E0.26423
G1 X110.795 Y93.867 E0.27493
G1 X112.316 Y94.014 E0.30543
G1 X112.897 Y94.109 E0.31718
G1 X114.275 Y94.421 E0.34537
G1 X114.974 Y94.629 E0.35993
G1 X115.979 Y94.997 E0.38128
G1 X116.983 Y95.44 E0.40318
G1 X117.906 Y95.913 E0.42388
G1 X118.57 Y96.308 E0.4393
G1 X119.43 Y96.896 E0.46009
G1 X120.52 Y97.749 E0.48771
G1 X121.176 Y98.342 E0.50536
G1 X121.874 Y99.051 E0.52521
G1 X122.566 Y99.842 E0.54619
G1 X122.984 Y100.383 E0.55983
G1 X123.706 Y101.449 E0.58552
G1 X124.044 Y102.017 E0.59871
G1 X124.677 Y103.275 E0.62682
G1 X125.097 Y104.253 E0.64806
G1 X125.352 Y104.974 E0.66332
G1 X125.667 Y106.073 E0.68613
G1 X125.907 Y107.187 E0.70887
G1 X126.038 Y108.082 E0.72693
G1 X126.127 Y109.107 E0.74746
G1 X126.15 Y110.233 E0.76993
G1 X126.134 Y110.763 E0.78051
G1 X125.987 Y112.293 E0.81119
G1 X125.897 Y112.849 E0.82243
G1 X125.575 Y114.28 E0.8517
G1 X125.418 Y114.815 E0.86283
G1 X124.96 Y116.078 E0.88964
G1 X124.558 Y116.992 E0.90956
G1 X124.182 Y117.725 E0.926
G1 X123.531 Y118.809 E0.95124
G1 X123.008 Y119.571 E0.96968
G1 X122.382 Y120.367 E0.98989
G1 X121.631 Y121.208 E1.01239
G1 X121.165 Y121.672 E1.02551
G1 X120.232 Y122.489 E1.05026
G1 X119.381 Y123.142 E1.07167
G1 X118.506 Y123.735 E1.09276
G1 X118.002 Y124.035 E1.10447
G1 X116.655 Y124.717 E1.1346
G1 X115.995 Y125 E1.14893
G1 X114.809 Y125.416 E1.17401
G1 X113.801 Y125.695 E1.19488
G1 X112.775 Y125.913 E1.21581
G1 X111.934 Y126.036 E1.23277
G1 X110.885 Y126.127 E1.25379
G1 X109.741 Y126.15 E1.27662
G1 X109.205 Y126.133 E1.28732
G1 X107.684 Y125.986 E1.31782
G1 X107.103 Y125.891 E1.32957
G1 X105.699 Y125.573 E1.35829
G1 X105.098 Y125.395 E1.3708
G1 X103.875 Y124.948 E1.39679
G1 X103.246 Y124.673 E1.41049
G1 X102.022 Y124.048 E1.43791
G1 X101.471 Y123.72 E1.45071
G1 X100.549 Y123.09 E1.473
G1 X99.509 Y122.278 E1.49933
G1 X98.939 Y121.767 E1.5146
G1 X98.094 Y120.916 E1.53854
G1 X97.529 Y120.271 E1.55565
G1 X96.952 Y119.524 E1.57448
G1 X96.307 Y118.571 E1.59745
G1 X95.955 Y117.98 E1.61118
G1 X95.312 Y116.704 E1.63969
G1 X94.921 Y115.793 E1.65947
G1 X94.632 Y114.975 E1.67679
G1 X94.345 Y113.974 E1.69757
G1 X94.098 Y112.835 E1.72083
G1 X93.96 Y111.893 E1.73983
G1 X93.873 Y110.891 E1.7599
G1 X93.85 Y109.748 E1.78271
G1 X93.867 Y109.211 E1.79343
G1 X94.013 Y107.707 E1.82359
G1 X94.103 Y107.151 E1.83483
G1 X94.425 Y105.72 E1.8641
G1 X94.582 Y105.185 E1.87523
G1 X95.04 Y103.922 E1.90204
G1 X95.442 Y103.008 E1.92196
G1 X95.818 Y102.275 E1.9384
G1 X96.469 Y101.191 E1.96364
G1 X96.992 Y100.429 E1.98208
G1 X97.618 Y99.633 E2.00229
G1 X98.369 Y98.792 E2.02479
G0 F6000 X98.652 Y99.075
G1 F1200 X99.099 Y98.629 E2.03739
G1 X100.032 Y97.812 E2.06214
G1 X100.844 Y97.189 E2.08256
G1 X101.699 Y96.609 E2.10318
G1 X102.203 Y96.309 E2.11489
G1 X103.503 Y95.651 E2.14396
G1 X104.163 Y95.368 E2.15829
G1 X105.298 Y94.97 E2.1823
G1 X106.306 Y94.691 E2.20317
G1 X107.283 Y94.483 E2.2231
G1 X108.101 Y94.363 E2.2396
G1 X109.15 Y94.272 E2.26061
G1 X110.246 Y94.25 E2.28249
G1 X110.782 Y94.267 E2.29319
G1 X112.251 Y94.409 E2.32264
G1 X112.832 Y94.504 E2.33439
G1 X114.161 Y94.805 E2.36159
G1 X114.836 Y95.005 E2.37563
G1 X115.841 Y95.373 E2.39699
G1 X116.821 Y95.806 E2.41837
G1 X117.701 Y96.257 E2.43811
G1 X118.365 Y96.652 E2.45352
G1 X119.184 Y97.211 E2.47331
G1 X120.252 Y98.046 E2.50037
G1 X120.891 Y98.623 E2.51755
G1 X121.573 Y99.315 E2.53694
G1 X122.249 Y100.087 E2.55742
G1 X122.667 Y100.628 E2.57106
G1 X123.362 Y101.654 E2.59579
G1 X123.7 Y102.222 E2.60898
G1 X124.309 Y103.433 E2.63603
G1 X124.729 Y104.411 E2.65727
G1 X124.967 Y105.084 E2.67152
G1 X125.282 Y106.183 E2.69433
G1 X125.511 Y107.245 E2.71601
G1 X125.639 Y108.117 E2.7336
G1 X125.728 Y109.142 E2.75413
G1 X125.75 Y110.221 E2.77567
G1 X125.734 Y110.751 E2.78625
G1 X125.592 Y112.229 E2.81588
G1 X125.502 Y112.785 E2.82712
G1 X125.191 Y114.167 E2.85539
G1 X125.034 Y114.702 E2.86652
G1 X124.594 Y115.917 E2.8923
G1 X124.202 Y116.809 E2.91175
G1 X123.826 Y117.542 E2.92819
G1 X123.201 Y118.583 E2.95242
G1 X122.678 Y119.345 E2.97086
G1 X122.083 Y120.101 E2.99006
G1 X121.348 Y120.925 E3.0121
G1 X120.901 Y121.371 E3.0247
G1 X119.968 Y122.188 E3.04945
G1 X119.156 Y122.811 E3.06987
G1 X118.301 Y123.391 E3.09049
G1 X117.797 Y123.691 E3.10219
G1 X116.497 Y124.349 E3.13127
G1 X115.837 Y124.632 E3.1456
G1 X114.702 Y125.03 E3.1696
G1 X113.694 Y125.309 E3.19048
G1 X112.717 Y125.517 E3.21041
G1 X111.899 Y125.637 E3.22691
G1 X110.85 Y125.728 E3.24792
G1 X109.754 Y125.75 E3.2698
G1 X109.218 Y125.733 E3.2805
G1 X107.749 Y125.591 E3.30995
G1 X107.168 Y125.496 E3.3217
G1 X105.813 Y125.189 E3.34943
G1 X105.212 Y125.011 E3.36193
G1 X104.035 Y124.581 E3.38694
G1 X103.406 Y124.306 E3.40064
G1 X102.227 Y123.704 E3.42706
G1 X101.676 Y123.376 E3.43985
G1 X100.795 Y122.775 E3.46114
G1 X99.776 Y121.98 E3.48693
G1 X99.223 Y121.485 E3.50174
G1 X98.378 Y120.634 E3.52567
G1 X97.846 Y120.026 E3.5418
G1 X97.269 Y119.279 E3.56063
G1 X96.651 Y118.366 E3.58263
G1 X96.299 Y117.775 E3.59636
G1 X95.68 Y116.546 E3.62382
G1 X95.289 Y115.635 E3.64361
G1 X95.017 Y114.865 E3.6599
G1 X94.73 Y113.864 E3.68068
G1 X94.494 Y112.777 E3.70288
G1 X94.359 Y111.858 E3.72142
G1 X94.272 Y110.856 E3.74149
G1 X94.25 Y109.761 E3.76334
G1 X94.267 Y109.224 E3.77407
G1 X94.408 Y107.771 E3.8032
G1 X94.498 Y107.215 E3.81444
G1 X94.809 Y105.833 E3.84271
G1 X94.966 Y105.298 E3.85383
G1 X95.406 Y104.083 E3.87962
G1 X95.798 Y103.191 E3.89907
G1 X96.174 Y102.458 E3.91551
G1 X96.799 Y101.417 E3.93974
G1 X97.322 Y100.655 E3.95818
G1 X97.917 Y99.899 E3.97738
G1 X98.652 Y99.075 E3.99941
G0 F6000 X98.951 Y99.341
G1 F1200 X99.363 Y98.93 E4.01103
G1 X100.296 Y98.113 E4.03578
G1 X101.087 Y97.507 E4.05566
G1 X101.904 Y96.953 E4.07536
G1 X102.408 Y96.653 E4.08707
G1 X103.661 Y96.019 E4.11509
G1 X104.321 Y95.736 E4.12942
G1 X105.405 Y95.356 E4.15234
G1 X106.413 Y95.077 E4.17322
G1 X107.341 Y94.879 E4.19215
G1 X108.136 Y94.762 E4.20819
G1 X109.185 Y94.671 E4.2292
G1 X110.233 Y94.65 E4.25012
G1 X110.769 Y94.667 E4.26082
G1 X112.186 Y94.804 E4.28923
G1 X112.767 Y94.899 E4.30098
G1 X114.073 Y95.195 E4.3277
G1 X114.698 Y95.381 E4.34071
G1 X115.703 Y95.749 E4.36207
G1 X116.639 Y96.162 E4.38249
G1 X117.496 Y96.601 E4.4017
G1 X118.16 Y96.996 E4.41712
G1 X118.958 Y97.541 E4.43641
G1 X119.984 Y98.343 E4.4624
G1 X120.606 Y98.904 E4.47911
G1 X121.288 Y99.596 E4.4985
G1 X121.932 Y100.332 E4.51802
G1 X122.35 Y100.873 E4.53166
G1 X123.018 Y101.859 E4.55543
G1 X123.356 Y102.427 E4.56862
G1 X123.941 Y103.591 E4.59462
G1 X124.361 Y104.569 E4.61586
G1 X124.582 Y105.194 E4.62909
G1 X124.897 Y106.293 E4.6519
G1 X125.115 Y107.303 E4.67252
G1 X125.24 Y108.152 E4.68965
G1 X125.329 Y109.177 E4.71018
G1 X125.35 Y110.209 E4.73078
G1 X125.334 Y110.739 E4.74136
G1 X125.197 Y112.165 E4.76995
G1 X125.107 Y112.721 E4.78119
G1 X124.807 Y114.054 E4.80845
G1 X124.65 Y114.589 E4.81958
G1 X124.228 Y115.756 E4.84434
G1 X123.846 Y116.626 E4.86331
G1 X123.47 Y117.359 E4.87975
G1 X122.871 Y118.357 E4.90297
G1 X122.363 Y119.098 E4.9209
G1 X121.784 Y119.835 E4.93961
G1 X121.049 Y120.659 E4.96164
G1 X120.637 Y121.07 E4.97325
G1 X119.704 Y121.887 E4.998
G1 X118.913 Y122.493 E5.01789
G1 X118.096 Y123.047 E5.03759
G1 X117.592 Y123.347 E5.04929
G1 X116.339 Y123.981 E5.07732
G1 X115.679 Y124.264 E5.09165
G1 X114.595 Y124.644 E5.11457
G1 X113.587 Y124.923 E5.13544
G1 X112.659 Y125.121 E5.15438
G1 X111.864 Y125.238 E5.17041
G1 X110.815 Y125.329 E5.19143
G1 X109.767 Y125.35 E5.21234
G1 X109.231 Y125.333 E5.22305
G1 X107.814 Y125.196 E5.25146
G1 X107.233 Y125.101 E5.2632
G1 X105.927 Y124.805 E5.28993
G1 X105.326 Y124.627 E5.30244
G1 X104.195 Y124.214 E5.32646
G1 X103.566 Y123.939 E5.34016
G1 X102.432 Y123.36 E5.36557
G1 X101.881 Y123.032 E5.37837
G1 X101.021 Y122.445 E5.39915
G1 X100.043 Y121.682 E5.4239
G1 X99.507 Y121.203 E5.43825
G1 X98.679 Y120.37 E5.46169
G1 X98.163 Y119.781 E5.47731
G1 X97.586 Y119.034 E5.49615
G1 X96.995 Y118.161 E5.51719
G1 X96.643 Y117.57 E5.53092
G1 X96.048 Y116.388 E5.55732
G1 X95.657 Y115.477 E5.57711
G1 X95.402 Y114.755 E5.59239
G1 X95.115 Y113.754 E5.61317
G1 X94.89 Y112.719 E5.63431
G1 X94.758 Y111.823 E5.65238
G1 X94.671 Y110.821 E5.67245
G1 X94.65 Y109.774 E5.69335
G1 X94.667 Y109.237 E5.70407
G1 X94.803 Y107.835 E5.73218
G1 X94.893 Y107.279 E5.74342
G1 X95.193 Y105.946 E5.77069
G1 X95.35 Y105.411 E5.78181
G1 X95.772 Y104.244 E5.80658
G1 X96.154 Y103.374 E5.82554
G1 X96.53 Y102.641 E5.84198
G1 X97.129 Y101.643 E5.86521
G1 X97.637 Y100.902 E5.88314
G1 X98.216 Y100.165 E5.90184
G1 X98.951 Y99.341 E5.92388
G0 F6000 X99.234 Y99.624
G1 F1200 X99.627 Y99.231 E5.93497
G1 X100.56 Y98.414 E5.95972
G1 X101.311 Y97.838 E5.9786
G1 X102.109 Y97.297 E5.99784
G1 X102.613 Y96.997 E6.00955
G1 X103.819 Y96.387 E6.03652
G1 X104.479 Y96.104 E6.05085
G1 X105.512 Y95.742 E6.07269
G1 X106.52 Y95.463 E6.09357
G1 X107.399 Y95.275 E6.1115
G1 X108.171 Y95.161 E6.12708
G1 X109.22 Y95.07 E6.14809
G1 X110.22 Y95.05 E6.16805
G1 X110.756 Y95.067 E6.17875
G1 X112.121 Y95.199 E6.20612
G1 X112.702 Y95.294 E6.21787
G1 X113.959 Y95.579 E6.24359
G1 X114.56 Y95.757 E6.2561
G1 X115.565 Y96.125 E6.27746
G1 X116.477 Y96.528 E6.29735
G1 X117.291 Y96.945 E6.3156
G1 X117.955 Y97.34 E6.33102
G1 X118.732 Y97.871 E6.3498
G1 X119.716 Y98.64 E6.37473
G1 X120.321 Y99.185 E6.39098
G1 X120.987 Y99.86 E6.4099
G1 X121.615 Y100.577 E6.42892
G1 X122.033 Y101.118 E6.44256
G1 X122.674 Y102.064 E6.46537
G1 X123.012 Y102.632 E6.47856
G1 X123.583 Y103.77 E6.50397
G1 X123.984 Y104.702 E6.52421
G1 X124.197 Y105.304 E6.53696
G1 X124.512 Y106.403 E6.55977
G1 X124.719 Y107.362 E6.57935
G1 X124.841 Y108.187 E6.59599
G1 X124.93 Y109.212 E6.61652
G1 X124.95 Y110.197 E6.63619
G1 X124.934 Y110.727 E6.64677
G1 X124.802 Y112.101 E6.67431
G1 X124.712 Y112.657 E6.68555
G1 X124.423 Y113.941 E6.71182
G1 X124.266 Y114.476 E6.72294
G1 X123.862 Y115.595 E6.74669
G1 X123.49 Y116.443 E6.76517
G1 X123.114 Y117.176 E6.78161
G1 X122.541 Y118.131 E6.80383
G1 X122.048 Y118.851 E6.82124
G1 X121.469 Y119.588 E6.83995
G1 X120.766 Y120.376 E6.86102
G1 X120.373 Y120.769 E6.87211
G1 X119.44 Y121.586 E6.89686
G1 X118.689 Y122.162 E6.91575
G1 X117.891 Y122.703 E6.93499
G1 X117.387 Y123.003 E6.94669
G1 X116.181 Y123.613 E6.97366
G1 X115.521 Y123.896 E6.988
G1 X114.488 Y124.258 E7.00984
G1 X113.48 Y124.537 E7.03071
G1 X112.601 Y124.725 E7.04865
G1 X111.829 Y124.839 E7.06422
G1 X110.78 Y124.93 E7.08524
G1 X109.78 Y124.95 E7.1052
G1 X109.244 Y124.933 E7.1159
G1 X107.879 Y124.801 E7.14326
G1 X107.298 Y124.706 E7.15501
G1 X106.041 Y124.421 E7.18073
G1 X105.44 Y124.243 E7.19324
G1 X104.355 Y123.847 E7.21629
G1 X103.726 Y123.572 E7.22999
G1 X102.637 Y123.016 E7.25439
G1 X102.086 Y122.688 E7.26719
G1 X101.247 Y122.115 E7.28746
G1 X100.309 Y121.383 E7.31121
G1 X99.791 Y120.921 E7.32506
G1 X98.963 Y120.088 E7.3485
G1 X98.48 Y119.536 E7.36314
G1 X97.903 Y118.789 E7.38197
G1 X97.339 Y117.956 E7.40205
G1 X96.987 Y117.365 E7.41578
G1 X96.416 Y116.23 E7.44113
G1 X96.025 Y115.319 E7.46091
G1 X95.787 Y114.645 E7.47518
G1 X95.5 Y113.644 E7.49596
G1 X95.286 Y112.66 E7.51605
G1 X95.157 Y111.788 E7.53365
G1 X95.07 Y110.786 E7.55372
G1 X95.05 Y109.787 E7.57366
G1 X95.067 Y109.25 E7.58438
G1 X95.198 Y107.899 E7.61147
G1 X95.288 Y107.343 E7.62271
G1 X95.577 Y106.059 E7.64897
G1 X95.734 Y105.524 E7.6601
G1 X96.138 Y104.405 E7.68384
G1 X96.51 Y103.557 E7.70232
G1 X96.886 Y102.824 E7.71876
G1 X97.459 Y101.869 E7.74098
G1 X97.952 Y101.149 E7.7584
G1 X98.531 Y100.412 E7.7771
G1 X99.234 Y99.624 E7.79818
G0 F6000 X99.517 Y99.907
G1 F1200 X99.91 Y99.514 E7.80927
G1 X100.823 Y98.715 E7.83348
G1 X101.535 Y98.169 E7.85138
G1 X102.314 Y97.641 E7.87016
G1 X102.818 Y97.341 E7.88187
G1 X103.977 Y96.755 E7.90779
G1 X104.637 Y96.472 E7.92212
G1 X105.644 Y96.12 E7.94341
G1 X106.604 Y95.854 E7.96328
G1 X107.458 Y95.671 E7.98071
G1 X108.206 Y95.56 E7.9958
G1 X109.255 Y95.469 E8.01682
G1 X110.207 Y95.45 E8.03582
G1 X110.743 Y95.467 E8.04652
G1 X112.056 Y95.594 E8.07285
G1 X112.637 Y95.689 E8.08459
G1 X113.845 Y95.963 E8.10931
G1 X114.446 Y96.141 E8.12182
G1 X115.403 Y96.491 E8.14216
G1 X116.315 Y96.894 E8.16205
G1 X117.086 Y97.289 E8.17934
G1 X117.75 Y97.684 E8.19476
G1 X118.506 Y98.201 E8.21304
G1 X119.448 Y98.937 E8.23689
G1 X120.036 Y99.466 E8.25268
G1 X120.702 Y100.141 E8.2716
G1 X121.298 Y100.822 E8.28966
G1 X121.716 Y101.363 E8.3033
G1 X122.33 Y102.269 E8.32515
G1 X122.668 Y102.837 E8.33834
G1 X123.216 Y103.928 E8.3627
G1 X123.607 Y104.836 E8.38243
G1 X123.812 Y105.414 E8.39467
G1 X124.127 Y106.513 E8.41748
G1 X124.323 Y107.421 E8.43602
G1 X124.442 Y108.222 E8.45218
G1 X124.531 Y109.247 E8.47271
G1 X124.55 Y110.185 E8.49143
G1 X124.534 Y110.715 E8.50202
G1 X124.407 Y112.037 E8.52852
G1 X124.317 Y112.593 E8.53976
G1 X124.039 Y113.828 E8.56502
G1 X123.882 Y114.363 E8.57615
G1 X123.496 Y115.434 E8.59887
G1 X123.134 Y116.26 E8.61686
G1 X122.758 Y116.993 E8.63331
G1 X122.211 Y117.905 E8.65453
G1 X121.733 Y118.604 E8.67143
G1 X121.154 Y119.341 E8.69013
G1 X120.483 Y120.093 E8.71024
G1 X120.09 Y120.486 E8.72133
G1 X119.177 Y121.285 E8.74555
G1 X118.465 Y121.831 E8.76345
G1 X117.686 Y122.359 E8.78223
G1 X117.182 Y122.659 E8.79394
G1 X116.023 Y123.245 E8.81985
G1 X115.363 Y123.528 E8.83418
G1 X114.356 Y123.88 E8.85547
G1 X113.396 Y124.146 E8.87535
G1 X112.542 Y124.329 E8.89278
G1 X111.794 Y124.44 E8.90787
G1 X110.745 Y124.531 E8.92888
G1 X109.793 Y124.55 E8.94789
G1 X109.257 Y124.533 E8.95859
G1 X107.944 Y124.406 E8.98491
G1 X107.363 Y124.311 E8.99666
G1 X106.155 Y124.037 E9.02138
G1 X105.554 Y123.859 E9.03389
G1 X104.515 Y123.48 E9.05596
G1 X103.886 Y123.205 E9.06966
G1 X102.842 Y122.672 E9.09305
G1 X102.291 Y122.344 E9.10585
G1 X101.473 Y121.785 E9.12562
G1 X100.575 Y121.084 E9.14835
G1 X100.075 Y120.639 E9.16171
G1 X99.264 Y119.824 E9.18466
G1 X98.797 Y119.291 E9.1988
G1 X98.22 Y118.544 E9.21764
G1 X97.683 Y117.751 E9.23675
G1 X97.331 Y117.16 E9.25047
G1 X96.784 Y116.072 E9.27478
G1 X96.393 Y115.161 E9.29456
G1 X96.172 Y114.535 E9.30781
G1 X95.885 Y113.534 E9.32859
G1 X95.682 Y112.601 E9.34764
G1 X95.556 Y111.753 E9.36475
G1 X95.469 Y110.751 E9.38482
G1 X95.45 Y109.8 E9.40381
G1 X95.467 Y109.263 E9.41453
G1 X95.593 Y107.963 E9.44059
G1 X95.683 Y107.407 E9.45183
G1 X95.961 Y106.172 E9.47709
G1 X96.118 Y105.637 E9.48822
G1 X96.504 Y104.566 E9.51094
G1 X96.866 Y103.74 E9.52894
G1 X97.242 Y103.007 E9.54538
G1 X97.789 Y102.095 E9.5666
G1 X98.267 Y101.396 E9.5835
G1 X98.846 Y100.659 E9.6022
G1 X99.517 Y99.907 E9.62231
G0 F6000 X99.8 Y100.19
G1 F1200 X100.193 Y99.797 E9.63341
G1 X101.086 Y99.016 E9.65708
G1 X101.759 Y98.5 E9.674
G1 X102.519 Y97.985 E9.69233
G1 X103.023 Y97.685 E9.70403
