;FLAVOR:Marlin
;TIME:4835
;Filament used: 1.97378m
;Layer height: 0.12
;MINX:60.9
;MINY:60.9
;MINZ:0.12
;MAXX:159.1
;MAXY:159.1
;MAXZ:6.96
;TARGET_MACHINE.NAME:Creality Ender-3 Pro
;Generated with Cura_SteamEngine 5.6.0
M82 ;absolute extrusion mode
; Ender 3 Custom Start G-code
G92 E0 ; Reset Extruder
G28 ; Home all axes
G1 Z5.0 F3000 ; Move Z Axis up a bit during heating to not damage bed
M104 S175 ; Start heating up the nozzle most of the way
M190 S60 ; Start heating the bed, wait until target temperature reached
M109 S200 ; Finish heating the nozzle
G1 Z2.0 F3000 ; Move Z Axis up little to prevent scratching of Heat Bed
G1 X0.1 Y20 Z0.3 F5000.0 ; Move to start position
G1 X0.1 Y200.0 Z0.3 F1500.0 E15 ; Draw the first line
G1 X0.4 Y200.0 Z0.3 F5000.0 ; Move to side a little
G1 X0.4 Y20 Z0.3 F1500.0 E30 ; Draw the second line
G92 E0 ; Reset Extruder
G1 Z2.0 F3000 ; Move Z Axis up little to prevent scratching of Heat Bed
G1 X5 Y20 Z0.3 F5000.0 ; Move over to prevent blob squish
G92 E0
G92 E0
G1 F1500 E-6.5
;LAYER_COUNT:58
;LAYER:0
M107
G0 F6000 X76.218 Y74.367 Z0.12
;TYPE:SKIRT
G1 F1500 E0
G1 F1200 X78.896 Y72.008 E0.07122
G1 X81.189 Y70.238 E0.12903
G1 X83.808 Y68.47 E0.19209
G1 X86.55 Y66.863 E0.25551
G1 X88.985 Y65.624 E0.31003
G1 X91.947 Y64.339 E0.37446
G1 X94.836 Y63.303 E0.43571
G1 X98.031 Y62.384 E0.50206
G1 X100.803 Y61.769 E0.55872
G1 X104.1 Y61.265 E0.62528
G1 X107.184 Y60.982 E0.68708
G1 X110.275 Y60.9 E0.74879
G1 X112.858 Y60.983 E0.80036
G1 X116.426 Y61.326 E0.87189
G1 X118.98 Y61.732 E0.9235
G1 X122.468 Y62.511 E0.99482
G1 X125.158 Y63.3 E1.05077
G1 X128.319 Y64.443 E1.11785
G1 X130.919 Y65.579 E1.17447
G1 X133.77 Y67.041 E1.23841
G1 X136.517 Y68.675 E1.30219
G1 X138.674 Y70.141 E1.35424
G1 X141.371 Y72.232 E1.42234
G1 X143.781 Y74.366 E1.48658
G1 X145.633 Y76.218 E1.53885
G1 X147.992 Y78.896 E1.61007
G1 X149.762 Y81.189 E1.66787
G1 X151.53 Y83.808 E1.73093
G1 X153.137 Y86.55 E1.79436
G1 X154.376 Y88.985 E1.84888
G1 X155.661 Y91.95 E1.91337
G1 X156.769 Y95.06 E1.97925
G1 X157.615 Y98.031 E2.0409
G1 X158.235 Y100.828 E2.09807
G1 X158.735 Y104.097 E2.16406
G1 X159.019 Y107.183 E2.22591
G1 X159.1 Y110.252 E2.28718
G1 X159.018 Y112.858 E2.33921
G1 X158.677 Y116.404 E2.4103
G1 X158.268 Y118.98 E2.46235
G1 X157.495 Y122.441 E2.53312
G1 X156.699 Y125.156 E2.58958
G1 X155.557 Y128.319 E2.65669
G1 X154.476 Y130.804 E2.71077
G1 X152.9 Y133.879 E2.77972
G1 X151.325 Y136.517 E2.84104
G1 X149.859 Y138.674 E2.89308
G1 X147.768 Y141.371 E2.96119
G1 X145.634 Y143.781 E3.02542
G1 X143.782 Y145.633 E3.07769
G1 X141.104 Y147.992 E3.14891
G1 X138.811 Y149.762 E3.20672
G1 X136.192 Y151.53 E3.26978
G1 X133.45 Y153.137 E3.3332
G1 X131.015 Y154.376 E3.38772
G1 X128.053 Y155.661 E3.45216
G1 X125.164 Y156.697 E3.51341
G1 X121.969 Y157.616 E3.57975
G1 X119.197 Y158.231 E3.63641
G1 X115.9 Y158.735 E3.70297
G1 X112.816 Y159.018 E3.76478
G1 X109.725 Y159.1 E3.82648
G1 X107.142 Y159.017 E3.87805
G1 X103.574 Y158.674 E3.94959
G1 X101.02 Y158.268 E4.00119
G1 X97.532 Y157.489 E4.07252
G1 X94.842 Y156.7 E4.12846
G1 X91.681 Y155.557 E4.19554
G1 X89.081 Y154.421 E4.25216
G1 X86.23 Y152.959 E4.3161
G1 X83.483 Y151.325 E4.37988
G1 X81.325 Y149.858 E4.43196
G1 X78.628 Y147.767 E4.50006
G1 X76.218 Y145.633 E4.5643
G1 X74.366 Y143.781 E4.61657
G1 X72.01 Y141.104 E4.68773
G1 X70.225 Y138.794 E4.74599
G1 X68.668 Y136.507 E4.8012
G1 X66.85 Y133.427 E4.87258
G1 X65.634 Y131.037 E4.92609
G1 X64.339 Y128.053 E4.991
G1 X63.303 Y125.164 E5.05225
G1 X62.384 Y121.969 E5.1186
G1 X61.769 Y119.197 E5.17526
G1 X61.265 Y115.902 E5.24178
G1 X60.981 Y112.816 E5.30363
G1 X60.9 Y109.748 E5.36487
G1 X60.982 Y107.142 E5.4169
G1 X61.323 Y103.596 E5.48799
G1 X61.732 Y101.02 E5.54004
G1 X62.505 Y97.559 E5.61081
G1 X63.301 Y94.844 E5.66728
G1 X64.443 Y91.681 E5.73438
G1 X65.524 Y89.196 E5.78846
G1 X67.1 Y86.121 E5.85742
G1 X68.675 Y83.483 E5.91873
G1 X70.141 Y81.326 E5.97078
G1 X72.232 Y78.629 E6.03888
G1 X74.366 Y76.219 E6.10312
G1 X76.218 Y74.367 E6.15539
G0 F6000 X76.501 Y74.65
G1 F1200 X79.14 Y72.325 E6.22558
G1 X81.413 Y70.57 E6.28288
G1 X84.032 Y68.802 E6.34594
G1 X86.731 Y67.22 E6.40837
G1 X89.166 Y65.981 E6.4629
G1 X92.082 Y64.716 E6.52633
G1 X94.971 Y63.68 E6.58758
G1 X98.118 Y62.775 E6.65292
G1 X100.89 Y62.16 E6.70959
G1 X104.137 Y61.663 E6.77514
G1 X107.195 Y61.382 E6.83642
G1 X110.262 Y61.3 E6.89765
G1 X112.845 Y61.383 E6.94922
G1 X116.363 Y61.721 E7.01975
G1 X118.917 Y62.127 E7.07136
G1 X122.355 Y62.895 E7.14166
G1 X125.045 Y63.684 E7.1976
G1 X128.159 Y64.81 E7.26368
G1 X130.736 Y65.935 E7.3198
G1 X133.587 Y67.397 E7.38374
G1 X136.292 Y69.006 E7.44654
G1 X138.449 Y70.472 E7.49859
G1 X141.106 Y72.532 E7.56568
G1 X143.498 Y74.649 E7.62943
G1 X145.35 Y76.501 E7.6817
G1 X147.675 Y79.14 E7.75188
G1 X149.43 Y81.413 E7.80919
G1 X151.198 Y84.032 E7.87225
G1 X152.78 Y86.731 E7.93468
G1 X154.019 Y89.166 E7.9892
G1 X155.284 Y92.084 E8.05267
G1 X156.384 Y95.17 E8.11805
G1 X157.224 Y98.118 E8.17922
G1 X157.844 Y100.915 E8.2364
G1 X158.337 Y104.134 E8.30138
G1 X158.619 Y107.194 E8.36271
G1 X158.7 Y110.239 E8.4235
G1 X158.618 Y112.845 E8.47553
G1 X158.282 Y116.341 E8.54562
G1 X157.873 Y118.917 E8.59767
G1 X157.111 Y122.328 E8.66741
G1 X156.315 Y125.043 E8.72388
G1 X155.19 Y128.159 E8.78999
G1 X154.109 Y130.644 E8.84407
G1 X152.556 Y133.674 E8.91201
G1 X150.994 Y136.292 E8.97285
G1 X149.528 Y138.449 E9.0249
G1 X147.468 Y141.106 E9.09199
G1 X145.351 Y143.498 E9.15574
G1 X143.499 Y145.35 E9.208
G1 X140.86 Y147.675 E9.27819
G1 X138.587 Y149.43 E9.3355
G1 X135.968 Y151.198 E9.39856
G1 X133.269 Y152.78 E9.46099
G1 X130.834 Y154.019 E9.51551
G1 X127.918 Y155.284 E9.57894
G1 X125.029 Y156.32 E9.64019
G1 X121.882 Y157.225 E9.70554
G1 X119.11 Y157.84 E9.7622
G1 X115.863 Y158.337 E9.82775
G1 X112.805 Y158.618 E9.88904
G1 X109.738 Y158.7 E9.95026
G1 X107.155 Y158.617 E10.00184
G1 X103.637 Y158.279 E10.07237
G1 X101.083 Y157.873 E10.12397
G1 X97.645 Y157.105 E10.19427
G1 X94.955 Y156.316 E10.25022
G1 X91.841 Y155.19 E10.3163
G1 X89.264 Y154.065 E10.37241
G1 X86.413 Y152.603 E10.43635
G1 X83.708 Y150.994 E10.49916
G1 X81.55 Y149.527 E10.55123
G1 X78.893 Y147.467 E10.61833
G1 X76.501 Y145.35 E10.68207
G1 X74.649 Y143.498 E10.73434
G1 X72.327 Y140.859 E10.80449
G1 X70.542 Y138.549 E10.86274
G1 X68.999 Y136.282 E10.91747
G1 X67.207 Y133.246 E10.98782
G1 X65.991 Y130.856 E11.04134
G1 X64.716 Y127.918 E11.10525
G1 X63.68 Y125.029 E11.1665
G1 X62.775 Y121.882 E11.23185
G1 X62.16 Y119.11 E11.28851
G1 X61.663 Y115.865 E11.35402
G1 X61.381 Y112.805 E11.41535
G1 X61.3 Y109.761 E11.47611
G1 X61.382 Y107.155 E11.52815
G1 X61.718 Y103.659 E11.59823
G1 X62.127 Y101.083 E11.65028
G1 X62.889 Y97.672 E11.72003
G1 X63.685 Y94.957 E11.77649
G1 X64.81 Y91.841 E11.84261
G1 X65.891 Y89.356 E11.89668
G1 X67.444 Y86.326 E11.96463
G1 X69.006 Y83.708 E12.02547
G1 X70.472 Y81.551 E12.07751
G1 X72.532 Y78.894 E12.14461
G1 X74.649 Y76.502 E12.20835
G1 X76.501 Y74.65 E12.26062
G0 F6000 X76.784 Y74.933
G1 F1200 X79.385 Y72.642 E12.32979
G1 X81.637 Y70.902 E12.38658
G1 X84.256 Y69.134 E12.44964
G1 X86.912 Y67.577 E12.51108
G1 X89.347 Y66.338 E12.5656
G1 X92.217 Y65.093 E12.62803
G1 X95.106 Y64.057 E12.68928
G1 X98.205 Y63.166 E12.75363
G1 X100.977 Y62.551 E12.8103
G1 X104.174 Y62.061 E12.87484
G1 X107.206 Y61.782 E12.9356
G1 X110.249 Y61.7 E12.99635
G1 X112.832 Y61.783 E13.04792
G1 X116.3 Y62.116 E13.11745
G1 X118.854 Y62.522 E13.16906
G1 X122.242 Y63.279 E13.23834
G1 X124.932 Y64.068 E13.29428
G1 X127.999 Y65.177 E13.35936
G1 X130.553 Y66.291 E13.41497
G1 X133.404 Y67.753 E13.47891
G1 X136.067 Y69.337 E13.54074
G1 X138.224 Y70.803 E13.59279
G1 X140.861 Y72.848 E13.65938
G1 X143.215 Y74.932 E13.72212
G1 X145.067 Y76.784 E13.77439
G1 X147.358 Y79.385 E13.84356
G1 X149.098 Y81.637 E13.90035
G1 X150.866 Y84.256 E13.96341
G1 X152.423 Y86.912 E14.02485
G1 X153.662 Y89.347 E14.07937
G1 X154.907 Y92.218 E14.14182
G1 X155.999 Y95.28 E14.2067
G1 X156.833 Y98.205 E14.26739
G1 X157.453 Y101.002 E14.32457
G1 X157.939 Y104.171 E14.38855
G1 X158.219 Y107.205 E14.44935
G1 X158.3 Y110.226 E14.50966
G1 X158.218 Y112.832 E14.56169
G1 X157.887 Y116.278 E14.63078
G1 X157.478 Y118.854 E14.68283
G1 X156.727 Y122.215 E14.75155
G1 X155.931 Y124.93 E14.80802
G1 X154.823 Y127.999 E14.87313
G1 X153.742 Y130.484 E14.92721
G1 X152.212 Y133.469 E14.99415
G1 X150.663 Y136.067 E15.05451
G1 X149.197 Y138.224 E15.10656
G1 X147.152 Y140.861 E15.17315
G1 X145.068 Y143.215 E15.23589
G1 X143.216 Y145.067 E15.28816
G1 X140.615 Y147.358 E15.35733
G1 X138.363 Y149.098 E15.41412
G1 X135.744 Y150.866 E15.47718
G1 X133.088 Y152.423 E15.53862
G1 X130.653 Y153.662 E15.59314
G1 X127.783 Y154.907 E15.65557
G1 X124.894 Y155.943 E15.71682
G1 X121.795 Y156.834 E15.78117
G1 X119.023 Y157.449 E15.83783
G1 X115.826 Y157.939 E15.90238
G1 X112.794 Y158.218 E15.96314
G1 X109.751 Y158.3 E16.02389
G1 X107.168 Y158.217 E16.07546
G1 X103.7 Y157.884 E16.14499
G1 X101.146 Y157.478 E16.19659
G1 X97.758 Y156.721 E16.26587
G1 X95.068 Y155.932 E16.32182
G1 X92.001 Y154.823 E16.3869
G1 X89.447 Y153.709 E16.44251
G1 X86.596 Y152.247 E16.50644
G1 X83.933 Y150.663 E16.56828
G1 X81.775 Y149.196 E16.62035
G1 X79.138 Y147.151 E16.68695
G1 X76.784 Y145.067 E16.74969
G1 X74.932 Y143.215 E16.80195
G1 X72.644 Y140.614 E16.87108
G1 X70.859 Y138.304 E16.92934
G1 X69.33 Y136.057 E16.98358
G1 X67.564 Y133.065 E17.05291
G1 X66.348 Y130.675 E17.10643
G1 X65.093 Y127.783 E17.16934
G1 X64.057 Y124.894 E17.23059
G1 X63.166 Y121.795 E17.29494
G1 X62.551 Y119.023 E17.3516
G1 X62.061 Y115.828 E17.41611
G1 X61.781 Y112.794 E17.47691
G1 X61.7 Y109.774 E17.5372
G1 X61.782 Y107.168 E17.58923
G1 X62.113 Y103.722 E17.65832
G1 X62.522 Y101.146 E17.71037
G1 X63.273 Y97.785 E17.77909
G1 X64.069 Y95.07 E17.83555
G1 X65.177 Y92.001 E17.90067
G1 X66.258 Y89.516 E17.95475
G1 X67.788 Y86.531 E18.02169
G1 X69.337 Y83.933 E18.08205
G1 X70.803 Y81.776 E18.13409
G1 X72.848 Y79.139 E18.20069
G1 X74.932 Y76.785 E18.26343
G1 X76.784 Y74.933 E18.3157
G0 F6000 X77.067 Y75.216
G1 F1200 X79.63 Y72.959 E18.38385
G1 X81.882 Y71.219 E18.44064
G1 X84.458 Y69.479 E18.50268
G1 X87.093 Y67.934 E18.56363
G1 X89.528 Y66.695 E18.61816
G1 X92.352 Y65.47 E18.67959
G1 X95.241 Y64.434 E18.74083
G1 X98.292 Y63.557 E18.80419
G1 X101.064 Y62.942 E18.86085
G1 X104.211 Y62.459 E18.92439
G1 X107.217 Y62.182 E18.98463
G1 X110.236 Y62.1 E19.0449
G1 X112.819 Y62.183 E19.09647
G1 X116.237 Y62.511 E19.16499
G1 X118.791 Y62.917 E19.2166
G1 X122.129 Y63.663 E19.28486
G1 X124.819 Y64.452 E19.3408
G1 X127.839 Y65.544 E19.40489
G1 X130.37 Y66.647 E19.45998
G1 X133.221 Y68.109 E19.52392
G1 X135.842 Y69.668 E19.58478
G1 X137.999 Y71.134 E19.63683
G1 X140.616 Y73.164 E19.70292
G1 X142.932 Y75.215 E19.76466
G1 X144.784 Y77.067 E19.81693
G1 X147.041 Y79.63 E19.88508
G1 X148.781 Y81.882 E19.94187
G1 X150.521 Y84.458 E20.00391
G1 X152.066 Y87.093 E20.06486
G1 X153.305 Y89.528 E20.11939
G1 X154.53 Y92.352 E20.18082
G1 X155.614 Y95.39 E20.24519
G1 X156.442 Y98.292 E20.30541
G1 X157.062 Y101.089 E20.36258
G1 X157.541 Y104.208 E20.42556
G1 X157.819 Y107.216 E20.48584
G1 X157.9 Y110.213 E20.54567
G1 X157.818 Y112.819 E20.5977
G1 X157.492 Y116.215 E20.66578
G1 X157.083 Y118.791 E20.71783
G1 X156.343 Y122.102 E20.78554
G1 X155.547 Y124.817 E20.842
G1 X154.456 Y127.839 E20.90612
G1 X153.375 Y130.324 E20.9602
G1 X151.868 Y133.264 E21.02613
G1 X150.332 Y135.842 E21.08601
G1 X148.866 Y137.999 E21.13806
G1 X146.836 Y140.616 E21.20415
G1 X144.785 Y142.932 E21.26589
G1 X142.933 Y144.784 E21.31816
G1 X140.37 Y147.041 E21.38631
G1 X138.118 Y148.781 E21.4431
G1 X135.542 Y150.521 E21.50514
G1 X132.907 Y152.066 E21.56609
G1 X130.472 Y153.305 E21.62062
G1 X127.648 Y154.53 E21.68205
G1 X124.759 Y155.566 E21.74329
G1 X121.708 Y156.443 E21.80665
G1 X118.936 Y157.058 E21.86331
G1 X115.789 Y157.541 E21.92685
G1 X112.783 Y157.818 E21.98709
G1 X109.764 Y157.9 E22.04736
G1 X107.181 Y157.817 E22.09893
G1 X103.763 Y157.489 E22.16745
G1 X101.209 Y157.083 E22.21906
G1 X97.871 Y156.337 E22.28732
G1 X95.181 Y155.548 E22.34326
G1 X92.161 Y154.456 E22.40735
G1 X89.63 Y153.353 E22.46245
G1 X86.779 Y151.891 E22.52638
G1 X84.158 Y150.332 E22.58724
G1 X82 Y148.865 E22.63932
G1 X79.383 Y146.835 E22.70541
G1 X77.067 Y144.784 E22.76715
G1 X75.215 Y142.932 E22.81942
G1 X72.961 Y140.369 E22.88753
G1 X71.176 Y138.059 E22.94579
G1 X69.661 Y135.832 E22.99954
G1 X67.921 Y132.884 E23.06785
G1 X66.705 Y130.494 E23.12136
G1 X65.47 Y127.648 E23.18328
G1 X64.434 Y124.759 E23.24452
G1 X63.557 Y121.708 E23.30788
G1 X62.942 Y118.936 E23.36454
G1 X62.459 Y115.791 E23.42804
G1 X62.181 Y112.783 E23.48832
G1 X62.1 Y109.787 E23.54813
G1 X62.182 Y107.181 E23.60016
G1 X62.508 Y103.785 E23.66824
G1 X62.917 Y101.209 E23.7203
G1 X63.657 Y97.898 E23.788
G1 X64.453 Y95.183 E23.84446
G1 X65.544 Y92.161 E23.90858
G1 X66.625 Y89.676 E23.96266
G1 X68.132 Y86.736 E24.02859
G1 X69.668 Y84.158 E24.08847
G1 X71.134 Y82.001 E24.14052
G1 X73.164 Y79.384 E24.20662
G1 X75.215 Y77.068 E24.26835
G1 X77.067 Y75.216 E24.32062
G0 F6000 X77.35 Y75.499
G1 F1200 X79.875 Y73.276 E24.38775
G1 X82.127 Y71.536 E24.44455
G1 X84.66 Y69.824 E24.50556
G1 X87.274 Y68.291 E24.56603
G1 X89.709 Y67.052 E24.62055
G1 X92.487 Y65.847 E24.68098
G1 X95.376 Y64.811 E24.74223
G1 X98.379 Y63.948 E24.80459
G1 X101.151 Y63.333 E24.86125
G1 X104.248 Y62.857 E24.92378
G1 X107.228 Y62.582 E24.9835
G1 X110.223 Y62.5 E25.04329
G1 X112.806 Y62.583 E25.09486
G1 X116.174 Y62.906 E25.16238
G1 X118.728 Y63.312 E25.21399
G1 X122.016 Y64.047 E25.28123
G1 X124.706 Y64.836 E25.33717
G1 X127.679 Y65.911 E25.40026
G1 X130.187 Y67.003 E25.45485
G1 X133.038 Y68.465 E25.51879
G1 X135.617 Y69.999 E25.57867
G1 X137.774 Y71.465 E25.63072
G1 X140.351 Y73.464 E25.6958
G1 X142.649 Y75.498 E25.75704
G1 X144.501 Y77.35 E25.80931
G1 X146.724 Y79.875 E25.87645
G1 X148.464 Y82.127 E25.93324
G1 X150.176 Y84.66 E25.99425
G1 X151.709 Y87.274 E26.05472
G1 X152.948 Y89.709 E26.10925
G1 X154.153 Y92.487 E26.16968
G1 X155.229 Y95.5 E26.23352
G1 X156.051 Y98.379 E26.29327
G1 X156.671 Y101.176 E26.35044
G1 X157.143 Y104.245 E26.41241
G1 X157.419 Y107.227 E26.47217
G1 X157.5 Y110.2 E26.53152
G1 X157.418 Y112.806 E26.58356
G1 X157.097 Y116.152 E26.65063
G1 X156.688 Y118.728 E26.70269
G1 X155.959 Y121.989 E26.76937
G1 X155.163 Y124.704 E26.82583
G1 X154.089 Y127.679 E26.88895
G1 X153.008 Y130.164 E26.94303
G1 X151.524 Y133.059 E27.00795
G1 X150.001 Y135.617 E27.06736
G1 X148.535 Y137.774 E27.11941
G1 X146.536 Y140.351 E27.18449
G1 X144.502 Y142.649 E27.24573
G1 X142.65 Y144.501 E27.298
G1 X140.125 Y146.724 E27.36514
G1 X137.873 Y148.464 E27.42193
G1 X135.34 Y150.176 E27.48294
G1 X132.726 Y151.709 E27.54342
G1 X130.291 Y152.948 E27.59794
G1 X127.513 Y154.153 E27.65837
G1 X124.624 Y155.189 E27.71961
G1 X121.621 Y156.052 E27.78197
G1 X118.849 Y156.667 E27.83863
G1 X115.752 Y157.143 E27.90116
G1 X112.772 Y157.418 E27.96088
G1 X109.777 Y157.5 E28.02067
G1 X107.194 Y157.417 E28.07225
G1 X103.826 Y157.094 E28.13977
G1 X101.272 Y156.688 E28.19138
G1 X97.984 Y155.953 E28.25861
G1 X95.294 Y155.164 E28.31455
G1 X92.321 Y154.089 E28.37764
G1 X89.813 Y152.997 E28.43223
G1 X86.962 Y151.535 E28.49617
G1 X84.383 Y150.001 E28.55605
G1 X82.225 Y148.534 E28.60813
G1 X79.648 Y146.535 E28.67321
G1 X77.35 Y144.501 E28.73445
G1 X75.498 Y142.649 E28.78672
G1 X73.278 Y140.124 E28.85382
G1 X71.493 Y137.814 E28.91208
G1 X69.992 Y135.607 E28.96534
G1 X68.278 Y132.703 E29.03263
G1 X67.062 Y130.313 E29.08615
G1 X65.847 Y127.513 E29.14706
G1 X64.811 Y124.624 E29.20831
G1 X63.948 Y121.621 E29.27066
G1 X63.333 Y118.849 E29.32732
G1 X62.857 Y115.754 E29.38981
G1 X62.581 Y112.772 E29.44958
G1 X62.5 Y109.8 E29.50891
G1 X62.582 Y107.194 E29.56094
G1 X62.903 Y103.848 E29.62802
G1 X63.312 Y101.272 E29.68007
G1 X64.041 Y98.011 E29.74675
G1 X64.837 Y95.296 E29.80321
G1 X65.911 Y92.321 E29.86633
G1 X66.992 Y89.836 E29.92041
G1 X68.476 Y86.941 E29.98533
G1 X69.999 Y84.383 E30.04474
G1 X71.465 Y82.226 E30.09679
G1 X73.464 Y79.649 E30.16188
G1 X75.498 Y77.351 E30.22312
G1 X77.35 Y75.499 E30.27539
G0 F6000 X77.633 Y75.782
