;FLAVOR:Marlin
;TIME:749
;Filament used: 0.22937m
;Layer height: 0.12
;MINX:88.83
;MINY:92.375
;MINZ:0.12
;MAXX:131.17
;MAXY:127.625
;MAXZ:3
;TARGET_MACHINE.NAME:Creality Ender-3 Pro
;Generated with Cura_SteamEngine 5.6.0
M82 ;absolute extrusion mode
; Ender 3 Custom Start G-code
G92 E0 ; Reset Extruder
G28 ; Home all axes
G1 Z5.0 F3000 ; Move Z Axis up a bit during heating to not damage bed
M104 S175 ; Start heating up the nozzle most of the way
M190 S60 ; Start heating the bed, wait until target temperature reached
M109 S200 ; Finish heating the nozzle
G1 Z2.0 F3000 ; Move Z Axis up little to prevent scratching of Heat Bed
G1 X0.1 Y20 Z0.3 F5000.0 ; Move to start position
G1 X0.1 Y200.0 Z0.3 F1500.0 E15 ; Draw the first line
G1 X0.4 Y200.0 Z0.3 F5000.0 ; Move to side a little
G1 X0.4 Y20 Z0.3 F1500.0 E30 ; Draw the second line
G92 E0 ; Reset Extruder
G1 Z2.0 F3000 ; Move Z Axis up little to prevent scratching of Heat Bed
G1 X5 Y20 Z0.3 F5000.0 ; Move over to prevent blob squish
G92 E0
G92 E0
G1 F1500 E-6.5
;LAYER_COUNT:25
;LAYER:0
M107
G0 F6000 X95.819 Y95.398 Z0.12
;TYPE:SKIRT
G1 F1500 E0
G1 F1200 X97.38 Y93.939 E0.04264
G1 X99.403 Y92.732 E0.08965
G1 X101.121 Y92.45 E0.12439
G1 X116.748 Y92.375 E0.43625
G1 X118.65 Y92.842 E0.47533
G1 X120.677 Y93.894 E0.52091
G1 X122.145 Y95.464 E0.5638
G1 X123.226 Y97.279 E0.60596
G1 X123.364 Y97.616 E0.61323
G1 X123.65 Y99.506 E0.65137
G1 X123.68 Y104.046 E0.74198
G1 X125.189 Y104.59 E0.77399
G1 X127.389 Y105.893 E0.82501
G1 X129.249 Y108.021 E0.88142
G1 X130.634 Y110.571 E0.93933
G1 X131.17 Y113.931 E1.00723
G1 X130.729 Y116.703 E1.06324
G1 X129.856 Y118.73 E1.10728
G1 X128.799 Y120.565 E1.14954
G1 X126.722 Y122.385 E1.20465
G1 X124.043 Y123.849 E1.26558
G1 X122.467 Y124.059 E1.29731
G1 X122.186 Y124.597 E1.30942
G1 X120.62 Y126.061 E1.3522
G1 X118.597 Y127.268 E1.39921
G1 X116.879 Y127.55 E1.43395
G1 X103.255 Y127.625 E1.70584
G1 X101.349 Y127.157 E1.74501
G1 X99.317 Y126.103 E1.79069
G1 X97.861 Y124.544 E1.83326
G1 X97.592 Y124.088 E1.84382
G1 X96.768 Y123.966 E1.86044
G1 X94.811 Y123.26 E1.90196
G1 X92.611 Y121.957 E1.95299
G1 X90.751 Y119.829 E2.00939
G1 X89.366 Y117.279 E2.0673
G1 X88.83 Y113.914 E2.1353
G1 X89.27 Y111.153 E2.19109
G1 X90.189 Y109.036 E2.23715
G1 X91.203 Y107.283 E2.27756
G1 X93.278 Y105.465 E2.33262
G1 X94.31 Y104.902 E2.35608
G1 X94.3 Y99.322 E2.46743
G1 X94.766 Y97.426 E2.50639
G1 X95.819 Y95.398 E2.552
G0 F6000 X96.142 Y95.643
G1 F1200 X97.619 Y94.263 E2.59233
G1 X99.543 Y93.115 E2.63705
G1 X101.186 Y92.845 E2.67027
G1 X116.703 Y92.775 E2.97993
G1 X118.507 Y93.218 E3.01701
G1 X120.432 Y94.217 E3.06029
G1 X121.821 Y95.703 E3.10088
G1 X122.882 Y97.484 E3.14225
G1 X122.977 Y97.727 E3.14746
G1 X123.25 Y99.509 E3.18343
G1 X123.282 Y104.328 E3.2796
G1 X125.017 Y104.953 E3.3164
G1 X127.131 Y106.205 E3.36543
G1 X128.919 Y108.251 E3.41966
G1 X130.25 Y110.701 E3.4753
G1 X130.765 Y113.931 E3.54057
G1 X130.342 Y116.589 E3.59428
G1 X129.509 Y118.53 E3.63643
G1 X128.485 Y120.308 E3.67738
G1 X126.49 Y122.056 E3.73031
G1 X123.915 Y123.463 E3.78887
G1 X122.208 Y123.691 E3.82324
G1 X121.862 Y124.353 E3.83815
G1 X120.381 Y125.737 E3.8786
G1 X118.457 Y126.885 E3.92331
G1 X116.814 Y127.155 E3.95654
G1 X103.3 Y127.225 E4.22623
G1 X101.492 Y126.781 E4.26338
G1 X99.562 Y125.78 E4.30677
G1 X98.185 Y124.305 E4.34703
G1 X97.84 Y123.72 E4.36059
G1 X96.864 Y123.576 E4.38027
G1 X94.983 Y122.897 E4.42018
G1 X92.869 Y121.645 E4.46921
G1 X91.083 Y119.602 E4.52337
G1 X89.75 Y117.147 E4.57911
G1 X89.235 Y113.914 E4.64445
G1 X89.657 Y111.266 E4.69796
G1 X90.535 Y109.236 E4.74209
G1 X91.515 Y107.542 E4.78115
G1 X93.51 Y105.794 E4.83408
G1 X94.71 Y105.139 E4.86136
G1 X94.7 Y99.368 E4.97653
G1 X95.142 Y97.569 E5.0135
G1 X96.142 Y95.643 E5.05681
G0 F6000 X96.465 Y95.888
G1 F1200 X97.861 Y94.584 E5.09493
G1 X99.681 Y93.498 E5.13722
G1 X101.251 Y93.24 E5.16898
G1 X116.658 Y93.175 E5.47644
G1 X118.364 Y93.594 E5.5115
G1 X120.187 Y94.54 E5.55248
G1 X121.497 Y95.942 E5.59078
G1 X122.538 Y97.689 E5.63136
G1 X122.589 Y97.832 E5.63439
G1 X122.85 Y99.512 E5.66832
G1 X122.884 Y104.642 E5.77069
G1 X123.08 Y104.68 E5.77468
G1 X124.845 Y105.316 E5.81212
G1 X126.873 Y106.517 E5.85915
G1 X128.587 Y108.478 E5.91113
G1 X129.866 Y110.833 E5.96461
G1 X130.36 Y113.931 E6.02721
G1 X129.955 Y116.475 E6.07862
G1 X129.141 Y118.372 E6.11982
G1 X128.173 Y120.049 E6.15846
G1 X126.258 Y121.727 E6.20927
G1 X123.787 Y123.077 E6.26546
G1 X121.949 Y123.322 E6.30246
G1 X121.538 Y124.109 E6.32018
G1 X120.139 Y125.416 E6.35839
G1 X118.319 Y126.502 E6.40068
G1 X116.749 Y126.76 E6.43243
G1 X103.345 Y126.825 E6.69993
G1 X101.635 Y126.405 E6.73507
G1 X99.807 Y125.457 E6.77616
G1 X98.506 Y124.063 E6.81421
G1 X98.086 Y123.352 E6.83069
G1 X96.96 Y123.186 E6.85341
G1 X95.155 Y122.534 E6.89171
G1 X93.127 Y121.333 E6.93874
G1 X91.415 Y119.375 E6.99064
G1 X90.134 Y117.015 E7.04423
G1 X89.64 Y113.914 E7.1069
G1 X90.044 Y111.377 E7.15816
G1 X90.881 Y109.436 E7.20034
G1 X91.827 Y107.801 E7.23804
G1 X93.742 Y106.123 E7.28885
G1 X95.11 Y105.376 E7.31996
G1 X95.1 Y99.415 E7.43892
G1 X95.519 Y97.711 E7.47393
G1 X96.465 Y95.888 E7.51492
G0 F6000 X96.788 Y96.133
G1 F1200 X98.103 Y94.905 E7.55083
G1 X99.819 Y93.881 E7.5907
G1 X101.316 Y93.635 E7.62098
G1 X116.613 Y93.575 E7.92625
G1 X118.221 Y93.97 E7.95929
G1 X119.942 Y94.863 E7.99799
G1 X121.173 Y96.181 E8.03398
G1 X122.194 Y97.894 E8.07377
G1 X122.45 Y99.515 E8.10652
G1 X122.486 Y104.988 E8.21574
G1 X122.944 Y105.056 E8.22498
G1 X124.673 Y105.679 E8.26166
G1 X126.615 Y106.829 E8.3067
G1 X128.257 Y108.708 E8.3565
G1 X129.482 Y110.963 E8.40771
G1 X129.955 Y113.931 E8.46769
G1 X129.568 Y116.361 E8.51679
G1 X128.773 Y118.214 E8.55703
G1 X127.861 Y119.79 E8.59337
G1 X126.026 Y121.398 E8.64206
G1 X123.662 Y122.69 E8.69582
G1 X121.69 Y122.952 E8.73552
G1 X121.214 Y123.865 E8.75606
G1 X119.897 Y125.095 E8.79203
G1 X118.181 Y126.119 E8.8319
G1 X116.684 Y126.365 E8.86218
G1 X103.39 Y126.425 E9.12748
G1 X101.778 Y126.029 E9.1606
G1 X100.052 Y125.134 E9.1994
G1 X98.829 Y123.823 E9.23518
G1 X98.333 Y122.984 E9.25463
G1 X97.056 Y122.795 E9.28039
G1 X95.327 Y122.171 E9.31708
G1 X93.385 Y121.021 E9.36212
G1 X91.745 Y119.145 E9.41184
G1 X90.518 Y116.886 E9.46314
G1 X90.045 Y113.914 E9.5232
G1 X90.431 Y111.488 E9.57222
G1 X91.227 Y109.636 E9.61245
G1 X92.139 Y108.06 E9.64879
G1 X93.974 Y106.452 E9.69748
G1 X95.51 Y105.613 E9.73241
G1 X95.5 Y99.461 E9.85518
G1 X95.895 Y97.854 E9.8882
G1 X96.788 Y96.133 E9.92689
G0 F6000 X97.111 Y96.378
G1 F1200 X98.345 Y95.226 E9.96058
G1 X99.957 Y94.264 E9.99804
G1 X101.381 Y94.03 E10.02684
G1 X116.568 Y93.975 E10.32992
G1 X118.078 Y94.346 E10.36095
G1 X119.697 Y95.186 E10.39735
G1 X120.849 Y96.42 E10.43103
G1 X121.811 Y98.033 E10.46851
G1 X122.05 Y99.518 E10.49853
G1 X122.088 Y105.334 E10.6146
G1 X122.848 Y105.446 E10.62993
G1 X124.501 Y106.042 E10.66499
G1 X126.357 Y107.141 E10.70804
G1 X127.925 Y108.935 E10.75559
G1 X129.098 Y111.095 E10.80464
G1 X129.55 Y113.931 E10.86195
G1 X129.181 Y116.247 E10.90875
G1 X128.405 Y118.056 E10.94803
G1 X127.548 Y119.532 E10.98209
G1 X125.794 Y121.069 E11.02863
G1 X123.537 Y122.303 E11.07996
G1 X121.431 Y122.582 E11.12236
G1 X120.89 Y123.621 E11.14574
G1 X119.655 Y124.774 E11.17945
G1 X118.043 Y125.736 E11.21691
G1 X116.619 Y125.97 E11.24571
G1 X103.435 Y126.025 E11.50882
G1 X101.921 Y125.653 E11.53993
G1 X100.299 Y124.812 E11.57639
G1 X99.148 Y123.578 E11.61007
G1 X98.556 Y122.576 E11.63329
G1 X98.229 Y122.564 E11.63982
G1 X97.152 Y122.405 E11.66155
G1 X95.499 Y121.808 E11.69662
G1 X93.643 Y120.709 E11.73966
G1 X92.077 Y118.918 E11.78714
G1 X90.902 Y116.754 E11.83628
G1 X90.45 Y113.914 E11.89367
G1 X90.818 Y111.602 E11.94039
G1 X91.595 Y109.794 E11.97966
G1 X92.452 Y108.318 E12.01372
G1 X94.206 Y106.781 E12.06026
G1 X95.91 Y105.85 E12.09901
G1 X95.9 Y99.507 E12.22559
G1 X96.271 Y97.997 E12.25662
G1 X97.111 Y96.378 E12.29302
G0 F6000 X97.434 Y96.623
G1 F1200 X98.587 Y95.547 E12.32449
G1 X100.095 Y94.647 E12.35954
G1 X101.446 Y94.425 E12.38686
G1 X116.521 Y94.375 E12.6877
G1 X117.936 Y94.723 E12.71678
G1 X119.452 Y95.509 E12.75086
G1 X120.528 Y96.662 E12.78233
G1 X121.428 Y98.17 E12.81738
G1 X121.65 Y99.521 E12.8447
G1 X121.69 Y105.68 E12.96761
G1 X122.752 Y105.836 E12.98903
G1 X124.329 Y106.405 E13.02249
G1 X126.099 Y107.453 E13.06354
G1 X127.593 Y109.162 E13.10884
G1 X128.714 Y111.227 E13.15573
G1 X129.145 Y113.931 E13.21037
G1 X128.794 Y116.135 E13.25491
G1 X128.059 Y117.855 E13.29223
G1 X127.235 Y119.274 E13.32498
G1 X125.562 Y120.74 E13.36937
G1 X123.411 Y121.916 E13.41829
G1 X121.172 Y122.212 E13.46336
G1 X120.566 Y123.377 E13.48957
G1 X119.413 Y124.453 E13.52104
G1 X117.905 Y125.353 E13.55609
G1 X116.554 Y125.575 E13.58341
G1 X103.48 Y125.625 E13.84432
G1 X102.064 Y125.277 E13.87342
G1 X100.546 Y124.49 E13.90754
G1 X99.469 Y123.335 E13.93905
G1 X98.788 Y122.183 E13.96576
G1 X98.288 Y122.168 E13.97574
G1 X97.248 Y122.014 E13.99672
G1 X95.671 Y121.445 E14.03018
G1 X93.901 Y120.397 E14.07123
G1 X92.409 Y118.691 E14.11646
G1 X91.286 Y116.622 E14.16344
G1 X90.855 Y113.914 E14.21816
G1 X91.205 Y111.715 E14.26259
G1 X91.941 Y109.995 E14.29993
G1 X92.765 Y108.576 E14.33267
G1 X94.438 Y107.11 E14.37706
G1 X96.31 Y106.087 E14.41964
G1 X96.3 Y99.554 E14.55001
G1 X96.648 Y98.139 E14.57909
G1 X97.434 Y96.623 E14.61317
G0 F6000 X97.757 Y96.868
G1 F1200 X98.829 Y95.868 E14.64242
G1 X100.233 Y95.03 E14.67505
G1 X101.511 Y94.82 E14.7009
G1 X116.475 Y94.775 E14.99952
G1 X117.793 Y95.099 E15.02661
G1 X119.207 Y95.832 E15.05839
G1 X120.207 Y96.904 E15.08765
G1 X121.045 Y98.308 E15.12028
G1 X121.255 Y99.586 E15.14612
G1 X121.292 Y106.067 E15.27546
G1 X121.654 Y106.078 E15.28269
G1 X122.656 Y106.226 E15.3029
G1 X124.157 Y106.768 E15.33475
G1 X125.841 Y107.765 E15.3738
G1 X127.263 Y109.392 E15.41692
G1 X128.33 Y111.356 E15.46153
G1 X128.74 Y113.931 E15.51356
G1 X128.407 Y116.023 E15.55584
G1 X127.713 Y117.654 E15.59121
G1 X126.922 Y119.016 E15.62264
G1 X125.33 Y120.411 E15.66488
G1 X123.285 Y121.529 E15.71139
G1 X121.204 Y121.804 E15.75328
G1 X120.932 Y121.806 E15.75871
G1 X120.243 Y123.132 E15.78853
G1 X119.171 Y124.132 E15.81779
G1 X117.767 Y124.97 E15.85042
G1 X116.489 Y125.18 E15.87626
G1 X103.525 Y125.225 E16.13497
G1 X102.207 Y124.901 E16.16206
G1 X100.793 Y124.168 E16.19384
G1 X99.79 Y123.092 E16.2232
G1 X99.019 Y121.789 E16.25341
G1 X98.346 Y121.772 E16.26685
G1 X97.344 Y121.624 E16.28706
G1 X95.843 Y121.082 E16.31891
G1 X94.159 Y120.085 E16.35796
G1 X92.739 Y118.461 E16.40101
G1 X91.67 Y116.493 E16.44571
G1 X91.26 Y113.914 E16.49782
G1 X91.592 Y111.827 E16.53999
G1 X92.287 Y110.196 E16.57537
G1 X93.078 Y108.834 E16.6068
G1 X94.67 Y107.439 E16.64904
G1 X96.71 Y106.324 E16.69544
G1 X96.7 Y99.6 E16.82962
G1 X97.024 Y98.282 E16.85671
G1 X97.757 Y96.868 E16.88849
G0 F6000 X98.079 Y97.115
G1 F1200 X99.074 Y96.187 E16.91564
G1 X100.371 Y95.413 E16.94579
G1 X101.576 Y95.215 E16.97015
G1 X116.429 Y95.175 E17.26656
G1 X117.65 Y95.475 E17.29165
G1 X118.96 Y96.154 E17.3211
G1 X119.888 Y97.149 E17.34825
G1 X120.662 Y98.446 E17.37839
G1 X120.86 Y99.651 E17.40276
G1 X120.894 Y106.458 E17.53861
G1 X121.595 Y106.474 E17.5526
G1 X122.56 Y106.617 E17.57207
G1 X123.985 Y107.131 E17.6023
G1 X125.583 Y108.077 E17.63936
G1 X126.931 Y109.619 E17.68023
G1 X127.946 Y111.488 E17.72267
G1 X128.335 Y113.931 E17.77204
G1 X128.02 Y115.913 E17.81209
G1 X127.367 Y117.453 E17.84547
G1 X126.609 Y118.758 E17.87559
G1 X125.098 Y120.082 E17.91568
G1 X123.157 Y121.143 E17.95982
G1 X121.201 Y121.404 E17.9992
G1 X120.643 Y121.408 E18.01034
G1 X120.583 Y121.611 E18.01456
G1 X119.921 Y122.885 E18.04321
G1 X118.926 Y123.813 E18.07037
G1 X117.629 Y124.587 E18.10051
G1 X116.424 Y124.785 E18.12488
G1 X103.571 Y124.825 E18.38137
G1 X102.35 Y124.525 E18.40647
G1 X101.04 Y123.846 E18.43591
G1 X100.112 Y122.851 E18.46306
G1 X99.378 Y121.619 E18.49168
G1 X99.313 Y121.395 E18.49634
G1 X98.405 Y121.376 E18.51446
G1 X97.44 Y121.233 E18.53393
G1 X96.015 Y120.719 E18.56416
G1 X94.417 Y119.773 E18.60122
G1 X93.071 Y118.234 E18.64202
G1 X92.054 Y116.361 E18.68455
G1 X91.665 Y113.914 E18.734
G1 X91.979 Y111.937 E18.77394
G1 X92.633 Y110.397 E18.80733
G1 X93.391 Y109.092 E18.83745
G1 X94.902 Y107.768 E18.87754
G1 X96.78 Y106.742 E18.92025
G1 X97.11 Y106.669 E18.92699
G1 X97.1 Y99.646 E19.06714
G1 X97.4 Y98.425 E19.09224
G1 X98.079 Y97.115 E19.12168
G0 F6000 X98.401 Y97.362
G1 F1200 X99.316 Y96.509 E19.14665
G1 X100.511 Y95.796 E19.17441
G1 X101.641 Y95.61 E19.19727
G1 X116.383 Y95.575 E19.49146
G1 X117.507 Y95.851 E19.51456
G1 X118.713 Y96.476 E19.54167
G1 X119.566 Y97.391 E19.56663
G1 X120.279 Y98.586 E19.5944
G1 X120.465 Y99.716 E19.61725
G1 X120.496 Y106.851 E19.75964
G1 X121.537 Y106.87 E19.78042
G1 X122.464 Y107.007 E19.79912
G1 X123.813 Y107.494 E19.82774
G1 X125.325 Y108.389 E19.8628
G1 X126.599 Y109.846 E19.90143
G1 X127.562 Y111.62 E19.94171
G1 X127.93 Y113.931 E19.98841
G1 X127.633 Y115.801 E20.02619
G1 X127.021 Y117.252 E20.05762
G1 X126.296 Y118.5 E20.08642
G1 X124.866 Y119.753 E20.12437
G1 X123.029 Y120.757 E20.16614
G1 X121.198 Y121.004 E20.20301
G1 X120.326 Y121.01 E20.22042
G1 X120.228 Y121.427 E20.22896
G1 X119.599 Y122.638 E20.2562
G1 X118.684 Y123.491 E20.28116
G1 X117.489 Y124.204 E20.30893
G1 X116.359 Y124.39 E20.33178
G1 X103.617 Y124.425 E20.58607
G1 X102.493 Y124.149 E20.60916
G1 X101.287 Y123.524 E20.63627
G1 X100.434 Y122.609 E20.66123
G1 X99.722 Y121.414 E20.68899
G1 X99.654 Y121.001 E20.69735
G1 X98.463 Y120.98 E20.72112
G1 X97.536 Y120.843 E20.73982
G1 X96.187 Y120.356 E20.76844
G1 X94.675 Y119.461 E20.8035
G1 X93.403 Y118.007 E20.84205
G1 X92.438 Y116.229 E20.88243
G1 X92.07 Y113.914 E20.9292
G1 X92.367 Y112.047 E20.96693
G1 X92.979 Y110.598 E20.99832
G1 X93.704 Y109.35 E21.02712
G1 X95.134 Y108.097 E21.06507
G1 X96.972 Y107.093 E21.10686
G1 X97.51 Y107.016 E21.11771
G1 X97.5 Y99.692 E21.26386
G1 X97.776 Y98.568 E21.28696
G1 X98.401 Y97.362 E21.31407
G0 F6000 X98.723 Y97.609
G1 F1200 X99.558 Y96.831 E21.33684
G1 X100.651 Y96.179 E21.36224
G1 X101.706 Y96.005 E21.38358
G1 X116.336 Y95.975 E21.67554
G1 X117.365 Y96.228 E21.69668
G1 X118.466 Y96.798 E21.72143
G1 X119.244 Y97.633 E21.7442
G1 X119.896 Y98.726 E21.7696
G1 X120.07 Y99.781 E21.79094
G1 X120.097 Y107.245 E21.93989
G1 X121.479 Y107.266 E21.96747
G1 X122.368 Y107.397 E21.98541
G1 X123.641 Y107.857 E22.01242
G1 X125.067 Y108.701 E22.04549
G1 X126.269 Y110.076 E22.08193
G1 X127.178 Y111.749 E22.11993
G1 X127.525 Y113.931 E22.16402
G1 X127.246 Y115.689 E22.19954
G1 X126.675 Y117.051 E22.22901
G1 X125.983 Y118.242 E22.2565
G1 X124.634 Y119.424 E22.29229
G1 X122.901 Y120.371 E22.3317
G1 X121.195 Y120.604 E22.36607
G1 X120.01 Y120.612 E22.38971
G1 X119.85 Y121.286 E22.40354
G1 X119.277 Y122.391 E22.42838
G1 X118.442 Y123.169 E22.45115
G1 X117.349 Y123.821 E22.47655
G1 X116.294 Y123.995 E22.49789
G1 X103.664 Y124.025 E22.74994
G1 X102.635 Y123.772 E22.77108
G1 X101.534 Y123.202 E22.79582
G1 X100.756 Y122.367 E22.8186
G1 X100.105 Y121.274 E22.84399
G1 X99.994 Y120.606 E22.8575
G1 X98.521 Y120.584 E22.8869
G1 X97.632 Y120.453 E22.90483
G1 X96.359 Y119.993 E22.93184
G1 X94.933 Y119.149 E22.96491
G1 X93.733 Y117.777 E23.00129
G1 X92.822 Y116.1 E23.03937
G1 X92.475 Y113.914 E23.08354
G1 X92.754 Y112.159 E23.119
G1 X93.325 Y110.799 E23.14844
G1 X94.017 Y109.608 E23.17593
G1 X95.366 Y108.426 E23.21172
G1 X97.1 Y107.479 E23.25115
G1 X97.91 Y107.363 E23.26748
G1 X97.9 Y99.739 E23.41962
G1 X98.153 Y98.71 E23.44077
G1 X98.723 Y97.609 E23.46551
G0 F6000 X99.045 Y97.856
G1 F1200 X99.8 Y97.153 E23.4861
G1 X100.791 Y96.562 E23.50913
G1 X101.771 Y96.4 E23.52895
G1 X116.29 Y96.375 E23.81869
G1 X117.222 Y96.604 E23.83784
G1 X118.219 Y97.12 E23.86025
G1 X118.922 Y97.875 E23.88083
G1 X119.513 Y98.866 E23.90386
G1 X119.675 Y99.846 E23.92368
G1 X119.698 Y107.64 E24.07922
G1 X121.42 Y107.662 E24.11359
G1 X122.272 Y107.788 E24.13077
G1 X123.469 Y108.22 E24.15617
G1 X124.809 Y109.013 E24.18724
G1 X125.937 Y110.303 E24.22144
G1 X126.794 Y111.881 E24.25728
G1 X127.12 Y113.931 E24.2987
G1 X126.858 Y115.579 E24.332
