;FLAVOR:Marlin
;TIME:1466
;Filament used: 0.469039m
;Layer height: 0.12
;MINX:62.034
;MINY:86.991
;MINZ:0.12
;MAXX:131.17
;MAXY:129.791
;MAXZ:5.76
;TARGET_MACHINE.NAME:Creality Ender-3 Pro
;Generated with Cura_SteamEngine 5.6.0
M82 ;absolute extrusion mode
; Ender 3 Custom Start G-code
G92 E0 ; Reset Extruder
G28 ; Home all axes
G1 Z5.0 F3000 ; Move Z Axis up a bit during heating to not damage bed
M104 S175 ; Start heating up the nozzle most of the way
M190 S60 ; Start heating the bed, wait until target temperature reached
M109 S200 ; Finish heating the nozzle
G1 Z2.0 F3000 ; Move Z Axis up little to prevent scratching of Heat Bed
G1 X0.1 Y20 Z0.3 F5000.0 ; Move to start position
G1 X0.1 Y200.0 Z0.3 F1500.0 E15 ; Draw the first line
G1 X0.4 Y200.0 Z0.3 F5000.0 ; Move to side a little
G1 X0.4 Y20 Z0.3 F1500.0 E30 ; Draw the second line
G92 E0 ; Reset Extruder
G1 Z2.0 F3000 ; Move Z Axis up little to prevent scratching of Heat Bed
G1 X5 Y20 Z0.3 F5000.0 ; Move over to prevent blob squish
G92 E0
G92 E0
G1 F1500 E-6.5
;LAYER_COUNT:48
;LAYER:0
M107
G0 F6000 X70.861 Y91.068 Z0.12
;TYPE:SKIRT
G1 F1500 E0
G1 F1200 X71.791 Y90.434 E0.02246
G1 X73.282 Y89.551 E0.05704
G1 X74.355 Y89.009 E0.08103
G1 X75.594 Y88.477 E0.10794
G1 X77.032 Y87.973 E0.13835
G1 X78.355 Y87.603 E0.16576
G1 X79.551 Y87.344 E0.19018
G1 X80.804 Y87.155 E0.21547
G1 X82.383 Y87.018 E0.2471
G1 X83.687 Y86.991 E0.27313
G1 X84.553 Y87.019 E0.29042
G1 X86.384 Y87.195 E0.32713
G1 X87.272 Y87.338 E0.34508
G1 X88.977 Y87.719 E0.37994
G1 X90.074 Y88.044 E0.40277
G1 X91.555 Y88.589 E0.43427
G1 X92.397 Y88.956 E0.4526
G1 X93.959 Y89.753 E0.48759
G1 X94.808 Y90.259 E0.50732
G1 X96.025 Y91.09 E0.53672
G1 X97.181 Y91.992 E0.56598
G1 X98.173 Y92.878 E0.59253
G1 X98.539 Y93.25 E0.60294
G1 X99.405 Y92.732 E0.62308
G1 X101.121 Y92.45 E0.65778
G1 X116.748 Y92.375 E0.96964
G1 X118.65 Y92.842 E1.00872
G1 X120.677 Y93.894 E1.0543
G1 X122.145 Y95.464 E1.09719
G1 X123.226 Y97.279 E1.13935
G1 X123.364 Y97.616 E1.14662
G1 X123.65 Y99.506 E1.18476
G1 X123.68 Y104.046 E1.27537
G1 X125.189 Y104.59 E1.30738
G1 X127.389 Y105.893 E1.3584
G1 X129.249 Y108.021 E1.41481
G1 X130.634 Y110.571 E1.47271
G1 X131.17 Y113.931 E1.54061
G1 X130.729 Y116.703 E1.59663
G1 X129.856 Y118.73 E1.64067
G1 X128.799 Y120.565 E1.68293
G1 X126.722 Y122.385 E1.73804
G1 X124.043 Y123.849 E1.79897
G1 X122.467 Y124.059 E1.8307
G1 X122.186 Y124.597 E1.84281
G1 X120.62 Y126.061 E1.88559
G1 X118.597 Y127.268 E1.9326
G1 X116.879 Y127.55 E1.96734
G1 X103.255 Y127.625 E2.23923
G1 X101.349 Y127.157 E2.27839
G1 X99.317 Y126.103 E2.32408
G1 X97.893 Y124.578 E2.36571
G1 X97.726 Y124.314 E2.37195
G1 X97.014 Y124.937 E2.39083
G1 X96.037 Y125.692 E2.41547
G1 X95.056 Y126.361 E2.43916
G1 X93.517 Y127.27 E2.47483
G1 X92.742 Y127.664 E2.49218
G1 X91.073 Y128.387 E2.52848
G1 X90.256 Y128.68 E2.5458
G1 X88.7 Y129.131 E2.57813
G1 X87.189 Y129.459 E2.60899
G1 X86.087 Y129.625 E2.63123
G1 X84.485 Y129.764 E2.66332
G1 X83.181 Y129.791 E2.68935
G1 X82.316 Y129.763 E2.70662
G1 X80.494 Y129.589 E2.74314
G1 X79.601 Y129.445 E2.76119
G1 X77.885 Y129.057 E2.7963
G1 X76.862 Y128.754 E2.81759
G1 X75.394 Y128.221 E2.84876
G1 X74.212 Y127.702 E2.87452
G1 X72.977 Y127.065 E2.90225
G1 X72.061 Y126.52 E2.92352
G1 X70.825 Y125.676 E2.95339
G1 X69.618 Y124.735 E2.98393
G1 X68.884 Y124.086 E3.00349
G1 X67.649 Y122.848 E3.03838
G1 X67.055 Y122.171 E3.05636
G1 X66 Y120.795 E3.09096
G1 X65.245 Y119.666 E3.11806
G1 X64.664 Y118.673 E3.14102
G1 X63.993 Y117.331 E3.17096
G1 X63.435 Y116.019 E3.19942
G1 X63.129 Y115.162 E3.21758
G1 X62.644 Y113.47 E3.2527
G1 X62.384 Y112.267 E3.27726
G1 X62.195 Y111.006 E3.30271
G1 X62.063 Y109.486 E3.33316
G1 X62.034 Y108.129 E3.36024
G1 X62.063 Y107.263 E3.37753
G1 X62.24 Y105.431 E3.41426
G1 X62.382 Y104.55 E3.43207
G1 X62.776 Y102.799 E3.46789
G1 X63.034 Y101.92 E3.48617
G1 X63.636 Y100.257 E3.52146
G1 X63.992 Y99.439 E3.53927
G1 X64.716 Y98.019 E3.57108
G1 X65.405 Y96.864 E3.59791
G1 X66.205 Y95.693 E3.62622
G1 X66.929 Y94.764 E3.64972
G1 X67.881 Y93.693 E3.67832
G1 X68.884 Y92.696 E3.70654
G1 X69.853 Y91.847 E3.73225
G1 X70.861 Y91.068 E3.75767
G0 F6000 X71.106 Y91.385
G1 F1200 X72.016 Y90.765 E3.77965
G1 X73.463 Y89.908 E3.81321
G1 X74.513 Y89.377 E3.83669
G1 X75.752 Y88.845 E3.8636
G1 X77.14 Y88.358 E3.89295
G1 X78.44 Y87.994 E3.91989
G1 X79.611 Y87.74 E3.9438
G1 X80.864 Y87.551 E3.96909
G1 X82.391 Y87.418 E3.99968
G1 X83.674 Y87.391 E4.02529
G1 X84.54 Y87.419 E4.04258
G1 X86.32 Y87.59 E4.07826
G1 X87.208 Y87.733 E4.09621
G1 X88.863 Y88.103 E4.13006
G1 X89.96 Y88.428 E4.15289
G1 X91.395 Y88.956 E4.1834
G1 X92.237 Y89.323 E4.20173
G1 X93.754 Y90.097 E4.23572
G1 X94.603 Y90.603 E4.25544
G1 X95.799 Y91.42 E4.28435
G1 X96.935 Y92.307 E4.31311
G1 X97.888 Y93.158 E4.33861
G1 X98.474 Y93.754 E4.35529
G1 X99.543 Y93.115 E4.38014
G1 X101.186 Y92.845 E4.41337
G1 X116.703 Y92.775 E4.72303
G1 X118.507 Y93.218 E4.7601
G1 X120.432 Y94.217 E4.80338
G1 X121.821 Y95.703 E4.84397
G1 X122.882 Y97.484 E4.88534
G1 X122.977 Y97.727 E4.89055
G1 X123.25 Y99.509 E4.92653
G1 X123.282 Y104.328 E5.0227
G1 X125.017 Y104.953 E5.0595
G1 X127.131 Y106.205 E5.10853
G1 X128.919 Y108.251 E5.16275
G1 X130.25 Y110.701 E5.2184
G1 X130.765 Y113.931 E5.28367
G1 X130.342 Y116.589 E5.33738
G1 X129.509 Y118.53 E5.37953
G1 X128.485 Y120.308 E5.42048
G1 X126.49 Y122.056 E5.47341
G1 X123.915 Y123.463 E5.53197
G1 X122.208 Y123.691 E5.56633
G1 X121.862 Y124.353 E5.58124
G1 X120.381 Y125.737 E5.62169
G1 X118.457 Y126.885 E5.6664
G1 X116.814 Y127.155 E5.69963
G1 X103.3 Y127.225 E5.96932
G1 X101.492 Y126.781 E6.00647
G1 X99.562 Y125.78 E6.04986
G1 X98.185 Y124.305 E6.09013
G1 X97.84 Y123.721 E6.10366
G1 X97.801 Y123.716 E6.10445
G1 X96.769 Y124.62 E6.13183
G1 X95.792 Y125.375 E6.15647
G1 X94.831 Y126.03 E6.17968
G1 X93.336 Y126.913 E6.21433
G1 X92.561 Y127.307 E6.23168
G1 X90.938 Y128.01 E6.26697
G1 X90.121 Y128.303 E6.28429
G1 X88.615 Y128.74 E6.31559
G1 X87.129 Y129.063 E6.34593
G1 X86.027 Y129.229 E6.36817
G1 X84.477 Y129.364 E6.39922
G1 X83.194 Y129.391 E6.42483
G1 X82.329 Y129.363 E6.4421
G1 X80.558 Y129.194 E6.47761
G1 X79.665 Y129.05 E6.49566
G1 X77.973 Y128.667 E6.53028
G1 X76.999 Y128.378 E6.55055
G1 X75.531 Y127.845 E6.58172
G1 X74.395 Y127.346 E6.60648
G1 X73.182 Y126.721 E6.63371
G1 X72.266 Y126.176 E6.65498
G1 X71.051 Y125.346 E6.68435
G1 X69.883 Y124.435 E6.71391
G1 X69.149 Y123.786 E6.73346
G1 X67.95 Y122.584 E6.76734
G1 X67.356 Y121.907 E6.78531
G1 X66.333 Y120.573 E6.81886
G1 X65.578 Y119.444 E6.84596
G1 X65.022 Y118.494 E6.86793
G1 X64.351 Y117.152 E6.89787
G1 X63.812 Y115.884 E6.92537
G1 X63.514 Y115.052 E6.94301
G1 X63.029 Y113.36 E6.97813
G1 X62.78 Y112.208 E7.00165
G1 X62.594 Y110.971 E7.02661
G1 X62.462 Y109.451 E7.05706
G1 X62.434 Y108.142 E7.08319
G1 X62.463 Y107.276 E7.10048
G1 X62.635 Y105.495 E7.13619
G1 X62.777 Y104.614 E7.154
G1 X63.16 Y102.912 E7.18881
G1 X63.418 Y102.033 E7.20709
G1 X64.003 Y100.417 E7.24139
G1 X64.359 Y99.599 E7.25919
G1 X65.06 Y98.224 E7.28999
G1 X65.749 Y97.069 E7.31683
G1 X66.521 Y95.939 E7.34414
G1 X67.245 Y95.01 E7.36765
G1 X68.163 Y93.977 E7.39523
G1 X69.166 Y92.98 E7.42345
G1 X70.098 Y92.164 E7.44817
G1 X71.106 Y91.385 E7.47359
G0 F6000 X71.351 Y91.702
G1 F1200 X72.241 Y91.096 E7.49508
G1 X73.644 Y90.265 E7.52762
G1 X74.671 Y89.745 E7.55059
G1 X75.91 Y89.213 E7.5775
G1 X77.272 Y88.736 E7.6063
G1 X78.525 Y88.385 E7.63227
G1 X79.671 Y88.136 E7.65567
G1 X80.924 Y87.947 E7.68096
G1 X82.4 Y87.818 E7.71052
G1 X83.661 Y87.791 E7.73569
G1 X84.527 Y87.819 E7.75299
G1 X86.256 Y87.985 E7.78765
G1 X87.144 Y88.128 E7.8056
G1 X88.749 Y88.487 E7.83842
G1 X89.846 Y88.812 E7.86125
G1 X91.235 Y89.323 E7.89079
G1 X92.077 Y89.69 E7.90912
G1 X93.549 Y90.441 E7.94209
G1 X94.398 Y90.947 E7.96182
G1 X95.573 Y91.75 E7.99022
G1 X96.669 Y92.606 E8.01797
G1 X97.603 Y93.439 E8.04295
G1 X98.409 Y94.258 E8.06588
G1 X99.681 Y93.498 E8.09545
G1 X101.251 Y93.24 E8.1272
G1 X116.658 Y93.175 E8.43466
G1 X118.364 Y93.594 E8.46972
G1 X120.187 Y94.54 E8.51071
G1 X121.497 Y95.942 E8.549
G1 X122.538 Y97.689 E8.58958
G1 X122.589 Y97.832 E8.59261
G1 X122.85 Y99.512 E8.62654
G1 X122.884 Y104.642 E8.72892
G1 X123.08 Y104.68 E8.7329
G1 X124.845 Y105.316 E8.77034
G1 X126.873 Y106.517 E8.81738
G1 X128.587 Y108.478 E8.86935
G1 X129.866 Y110.833 E8.92283
G1 X130.36 Y113.931 E8.98544
G1 X129.955 Y116.475 E9.03684
G1 X129.141 Y118.372 E9.07804
G1 X128.173 Y120.049 E9.11668
G1 X126.258 Y121.727 E9.16749
G1 X123.787 Y123.077 E9.22368
G1 X121.949 Y123.322 E9.26069
G1 X121.538 Y124.109 E9.2784
G1 X120.139 Y125.416 E9.31661
G1 X118.319 Y126.502 E9.35891
G1 X116.749 Y126.76 E9.39066
G1 X103.345 Y126.825 E9.65815
G1 X101.635 Y126.405 E9.69329
G1 X99.807 Y125.457 E9.73438
G1 X98.508 Y124.065 E9.77238
G1 X98.087 Y123.353 E9.78889
G1 X97.65 Y123.288 E9.7977
G1 X97.399 Y123.537 E9.80476
G1 X96.524 Y124.303 E9.82797
G1 X95.547 Y125.058 E9.85261
G1 X94.606 Y125.699 E9.87533
G1 X93.155 Y126.556 E9.90896
G1 X92.38 Y126.95 E9.92631
G1 X90.803 Y127.633 E9.9606
G1 X89.986 Y127.926 E9.97792
G1 X88.53 Y128.349 E10.00818
G1 X87.069 Y128.667 E10.03802
G1 X85.967 Y128.833 E10.06026
G1 X84.468 Y128.964 E10.09029
G1 X83.207 Y128.991 E10.11546
G1 X82.342 Y128.963 E10.13273
G1 X80.622 Y128.799 E10.16721
G1 X79.729 Y128.655 E10.18526
G1 X78.086 Y128.283 E10.21888
G1 X77.136 Y128.002 E10.23865
G1 X75.668 Y127.469 E10.26982
G1 X74.556 Y126.98 E10.29406
G1 X73.387 Y126.377 E10.32031
G1 X72.471 Y125.832 E10.34158
G1 X71.297 Y125.031 E10.36994
G1 X70.148 Y124.135 E10.39902
G1 X69.414 Y123.486 E10.41857
G1 X68.251 Y122.32 E10.45143
G1 X67.657 Y121.643 E10.46941
G1 X66.651 Y120.33 E10.50242
G1 X65.923 Y119.242 E10.52854
G1 X65.38 Y118.315 E10.54998
G1 X64.719 Y116.995 E10.57944
G1 X64.189 Y115.749 E10.60646
G1 X63.891 Y114.917 E10.6241
G1 X63.42 Y113.275 E10.65819
G1 X63.176 Y112.148 E10.6812
G1 X62.993 Y110.936 E10.70566
G1 X62.861 Y109.416 E10.73611
G1 X62.834 Y108.155 E10.76128
G1 X62.863 Y107.289 E10.77857
G1 X63.03 Y105.559 E10.81325
G1 X63.172 Y104.678 E10.83106
G1 X63.544 Y103.025 E10.86487
G1 X63.802 Y102.146 E10.88316
G1 X64.37 Y100.577 E10.91646
G1 X64.726 Y99.759 E10.93426
G1 X65.404 Y98.429 E10.96405
G1 X66.093 Y97.274 E10.99089
G1 X66.837 Y96.185 E11.01721
G1 X67.561 Y95.256 E11.04071
G1 X68.445 Y94.261 E11.06727
G1 X69.43 Y93.281 E11.095
G1 X70.343 Y92.481 E11.11923
G1 X71.351 Y91.702 E11.14465
G0 F6000 X71.596 Y92.019
G1 F1200 X72.445 Y91.44 E11.16516
G1 X73.848 Y90.609 E11.1977
G1 X74.829 Y90.113 E11.21964
G1 X76.068 Y89.581 E11.24654
G1 X77.38 Y89.121 E11.27429
G1 X78.61 Y88.776 E11.29978
G1 X79.731 Y88.532 E11.32268
G1 X80.984 Y88.343 E11.34796
G1 X82.409 Y88.218 E11.37651
G1 X83.648 Y88.191 E11.40124
G1 X84.514 Y88.219 E11.41853
G1 X86.192 Y88.38 E11.45217
G1 X87.08 Y88.523 E11.47012
G1 X88.635 Y88.871 E11.50192
G1 X89.732 Y89.196 E11.52475
G1 X91.075 Y89.69 E11.55331
G1 X91.917 Y90.057 E11.57164
G1 X93.344 Y90.785 E11.60361
G1 X94.193 Y91.291 E11.62333
G1 X95.327 Y92.065 E11.65073
G1 X96.403 Y92.905 E11.67797
G1 X97.337 Y93.738 E11.70295
G1 X98.344 Y94.762 E11.73161
G1 X99.819 Y93.881 E11.7659
G1 X101.316 Y93.635 E11.79617
G1 X116.613 Y93.575 E12.10144
G1 X118.221 Y93.97 E12.13448
G1 X119.942 Y94.863 E12.17318
G1 X121.173 Y96.181 E12.20917
G1 X122.194 Y97.894 E12.24896
G1 X122.45 Y99.515 E12.28171
G1 X122.486 Y104.988 E12.39094
G1 X122.944 Y105.056 E12.40018
G1 X124.673 Y105.679 E12.43685
G1 X126.615 Y106.829 E12.48189
G1 X128.257 Y108.708 E12.53169
G1 X129.482 Y110.963 E12.5829
G1 X129.955 Y113.931 E12.64288
G1 X129.568 Y116.361 E12.69198
G1 X128.773 Y118.214 E12.73222
G1 X127.861 Y119.79 E12.76856
G1 X126.026 Y121.398 E12.81725
G1 X123.662 Y122.69 E12.87101
G1 X121.69 Y122.952 E12.91071
G1 X121.214 Y123.865 E12.93126
G1 X119.897 Y125.095 E12.96722
G1 X118.181 Y126.119 E13.0071
G1 X116.684 Y126.365 E13.03737
G1 X103.39 Y126.425 E13.30267
G1 X101.778 Y126.029 E13.3358
G1 X100.052 Y125.134 E13.3746
G1 X98.829 Y123.823 E13.41037
G1 X98.334 Y122.985 E13.4298
G1 X97.511 Y122.862 E13.4464
G1 X97.136 Y123.236 E13.45697
G1 X96.279 Y123.986 E13.4797
G1 X95.302 Y124.741 E13.50434
G1 X94.381 Y125.368 E13.52657
G1 X92.974 Y126.199 E13.55918
G1 X92.199 Y126.593 E13.57653
G1 X90.668 Y127.256 E13.60983
G1 X89.851 Y127.549 E13.62715
G1 X88.445 Y127.958 E13.65637
G1 X87.009 Y128.271 E13.6857
G1 X85.907 Y128.437 E13.70794
G1 X84.459 Y128.564 E13.73695
G1 X83.22 Y128.591 E13.76168
G1 X82.355 Y128.563 E13.77895
G1 X80.686 Y128.404 E13.81241
G1 X79.793 Y128.26 E13.83046
G1 X78.199 Y127.899 E13.86307
G1 X77.273 Y127.626 E13.88234
G1 X75.805 Y127.093 E13.91351
G1 X74.739 Y126.624 E13.93675
G1 X73.592 Y126.033 E13.9625
G1 X72.676 Y125.488 E13.98377
G1 X71.523 Y124.701 E14.01163
G1 X70.413 Y123.835 E14.03972
G1 X69.679 Y123.186 E14.05927
G1 X68.552 Y122.056 E14.09112
G1 X67.958 Y121.379 E14.1091
G1 X66.969 Y120.087 E14.14157
G1 X66.268 Y119.04 E14.16671
G1 X65.738 Y118.136 E14.18762
G1 X65.077 Y116.816 E14.21708
G1 X64.566 Y115.614 E14.24315
G1 X64.268 Y114.782 E14.26078
G1 X63.811 Y113.19 E14.29384
G1 X63.572 Y112.088 E14.31634
G1 X63.389 Y110.876 E14.3408
G1 X63.261 Y109.407 E14.37023
G1 X63.234 Y108.168 E14.39496
G1 X63.263 Y107.302 E14.41225
G1 X63.425 Y105.623 E14.44591
G1 X63.567 Y104.742 E14.46372
G1 X63.928 Y103.138 E14.49653
G1 X64.186 Y102.259 E14.51481
G1 X64.737 Y100.737 E14.54711
G1 X65.093 Y99.919 E14.56492
G1 X65.748 Y98.634 E14.5937
G1 X66.437 Y97.479 E14.62054
G1 X67.153 Y96.431 E14.64587
G1 X67.877 Y95.502 E14.66937
G1 X68.727 Y94.545 E14.69492
G1 X69.712 Y93.565 E14.72264
G1 X70.588 Y92.798 E14.74588
G1 X71.596 Y92.019 E14.7713
G0 F6000 X71.841 Y92.336
G1 F1200 X72.67 Y91.771 E14.79132
G1 X74.029 Y90.966 E14.82284
G1 X74.987 Y90.481 E14.84427
G1 X76.226 Y89.949 E14.87118
G1 X77.488 Y89.506 E14.89787
G1 X78.695 Y89.167 E14.92289
G1 X79.791 Y88.928 E14.94528
G1 X81.044 Y88.739 E14.97057
G1 X82.418 Y88.618 E14.99809
G1 X83.635 Y88.591 E15.02238
G1 X84.501 Y88.619 E15.03967
G1 X86.128 Y88.775 E15.07229
G1 X87.016 Y88.918 E15.09024
G1 X88.521 Y89.255 E15.12102
G1 X89.618 Y89.58 E15.14385
G1 X90.915 Y90.057 E15.17143
G1 X91.757 Y90.424 E15.18976
G1 X93.139 Y91.129 E15.22072
G1 X93.988 Y91.635 E15.24044
G1 X95.101 Y92.395 E15.26734
G1 X96.157 Y93.22 E15.29408
G1 X97.053 Y94.02 E15.31805
G1 X97.984 Y94.959 E15.34444
G1 X98.262 Y95.276 E15.35285
G1 X99.957 Y94.264 E15.39225
G1 X101.381 Y94.03 E15.42105
G1 X116.568 Y93.975 E15.72412
G1 X118.078 Y94.346 E15.75515
G1 X119.697 Y95.186 E15.79155
G1 X120.849 Y96.42 E15.82524
G1 X121.811 Y98.033 E15.86272
G1 X122.05 Y99.518 E15.89274
G1 X122.088 Y105.334 E16.0088
G1 X122.848 Y105.446 E16.02413
G1 X124.501 Y106.042 E16.0592
G1 X126.357 Y107.141 E16.10224
G1 X127.925 Y108.935 E16.14979
G1 X129.098 Y111.095 E16.19884
G1 X129.55 Y113.931 E16.25615
G1 X129.181 Y116.247 E16.30295
G1 X128.405 Y118.056 E16.34224
G1 X127.548 Y119.532 E16.3763
G1 X125.794 Y121.069 E16.42284
G1 X123.537 Y122.303 E16.47417
G1 X121.431 Y122.582 E16.51657
G1 X120.89 Y123.621 E16.53994
G1 X119.655 Y124.774 E16.57366
G1 X118.043 Y125.736 E16.61112
G1 X116.619 Y125.97 E16.63992
G1 X103.435 Y126.025 E16.90302
G1 X101.921 Y125.653 E16.93414
G1 X100.299 Y124.812 E16.9706
G1 X99.148 Y123.578 E17.00427
G1 X98.556 Y122.576 E17.0275
G1 X98.227 Y122.564 E17.03407
G1 X97.372 Y122.437 E17.05132
G1 X96.872 Y122.935 E17.0654
G1 X96.034 Y123.669 E17.08763
G1 X95.057 Y124.424 E17.11227
G1 X94.177 Y125.024 E17.13353
G1 X92.793 Y125.842 E17.16561
G1 X92.018 Y126.236 E17.18296
G1 X90.533 Y126.879 E17.21525
G1 X89.716 Y127.172 E17.23257
G1 X88.36 Y127.567 E17.26076
G1 X86.949 Y127.875 E17.28958
G1 X85.847 Y128.041 E17.31182
G1 X84.45 Y128.164 E17.33981
G1 X83.233 Y128.191 E17.3641
G1 X82.368 Y128.163 E17.38137
G1 X80.75 Y128.009 E17.4138
G1 X79.857 Y127.865 E17.43185
G1 X78.312 Y127.515 E17.46347
G1 X77.41 Y127.25 E17.48223
G1 X75.942 Y126.717 E17.5134
G1 X74.9 Y126.258 E17.53612
G1 X73.797 Y125.689 E17.56089
G1 X72.881 Y125.144 E17.58216
G1 X71.769 Y124.385 E17.60902
G1 X70.678 Y123.535 E17.63662
G1 X69.944 Y122.886 E17.65618
G1 X68.853 Y121.792 E17.68701
