;FLAVOR:Marlin
;TIME:1338
;Filament used: 0.435146m
;Layer height: 0.12
;MINX:87.2
;MINY:94.7
;MINZ:0.12
;MAXX:132.8
;MAXY:125.3
;MAXZ:5.88
;TARGET_MACHINE.NAME:Creality Ender-3 Pro
;Generated with Cura_SteamEngine 5.6.0
M82 ;absolute extrusion mode
; Ender 3 Custom Start G-code
G92 E0 ; Reset Extruder
G28 ; Home all axes
G1 Z5.0 F3000 ; Move Z Axis up a bit during heating to not damage bed
M104 S175 ; Start heating up the nozzle most of the way
M190 S60 ; Start heating the bed, wait until target temperature reached
M109 S200 ; Finish heating the nozzle
G1 Z2.0 F3000 ; Move Z Axis up little to prevent scratching of Heat Bed
G1 X0.1 Y20 Z0.3 F5000.0 ; Move to start position
G1 X0.1 Y200.0 Z0.3 F1500.0 E15 ; Draw the first line
G1 X0.4 Y200.0 Z0.3 F5000.0 ; Move to side a little
G1 X0.4 Y20 Z0.3 F1500.0 E30 ; Draw the second line
G92 E0 ; Reset Extruder
G1 Z2.0 F3000 ; Move Z Axis up little to prevent scratching of Heat Bed
G1 X5 Y20 Z0.3 F5000.0 ; Move over to prevent blob squish
G92 E0
G92 E0
G1 F1500 E-6.5
;LAYER_COUNT:49
;LAYER:0
M107
G0 F6000 X90.28 Y96.264 Z0.12
;TYPE:SKIRT
G1 F1500 E0
G1 F1200 X92.303 Y95.057 E0.04701
G1 X94.021 Y94.775 E0.08175
G1 X125.853 Y94.7 E0.717
G1 X127.749 Y95.166 E0.75596
G1 X129.777 Y96.219 E0.80156
G1 X131.236 Y97.78 E0.8442
G1 X132.443 Y99.803 E0.89121
G1 X132.725 Y101.521 E0.92596
G1 X132.8 Y118.348 E1.26176
G1 X132.333 Y120.25 E1.30084
G1 X131.281 Y122.277 E1.34642
G1 X129.72 Y123.736 E1.38906
G1 X127.697 Y124.943 E1.43607
G1 X125.979 Y125.225 E1.47081
G1 X94.147 Y125.3 E2.10606
G1 X92.251 Y124.834 E2.14502
G1 X90.223 Y123.781 E2.19062
G1 X88.764 Y122.22 E2.23326
G1 X87.557 Y120.197 E2.28027
G1 X87.275 Y118.479 E2.31501
G1 X87.2 Y101.652 E2.65082
G1 X87.667 Y99.75 E2.6899
G1 X88.719 Y97.723 E2.73548
G1 X90.28 Y96.264 E2.77812
G0 F6000 X90.519 Y96.588
G1 F1200 X92.443 Y95.44 E2.82283
G1 X94.086 Y95.17 E2.85605
G1 X125.807 Y95.1 E3.48908
G1 X127.606 Y95.542 E3.52605
G1 X129.532 Y96.542 E3.56936
G1 X130.912 Y98.019 E3.6097
G1 X132.06 Y99.943 E3.65441
G1 X132.33 Y101.586 E3.68764
G1 X132.4 Y118.303 E4.02124
G1 X131.957 Y120.107 E4.05832
G1 X130.958 Y122.032 E4.1016
G1 X129.481 Y123.412 E4.14193
G1 X127.557 Y124.56 E4.18665
G1 X125.914 Y124.83 E4.21987
G1 X94.193 Y124.9 E4.8529
G1 X92.394 Y124.458 E4.88987
G1 X90.468 Y123.458 E4.93318
G1 X89.088 Y121.981 E4.97352
G1 X87.94 Y120.057 E5.01823
G1 X87.67 Y118.414 E5.05145
G1 X87.6 Y101.697 E5.38506
G1 X88.043 Y99.893 E5.42213
G1 X89.042 Y97.968 E5.46541
G1 X90.519 Y96.588 E5.50575
G0 F6000 X90.761 Y96.909
G1 F1200 X92.581 Y95.823 E5.54805
G1 X94.151 Y95.565 E5.5798
G1 X125.76 Y95.5 E6.21059
G1 X127.464 Y95.919 E6.24561
G1 X129.287 Y96.865 E6.2866
G1 X130.591 Y98.261 E6.32472
G1 X131.677 Y100.081 E6.36701
G1 X131.935 Y101.651 E6.39876
G1 X132 Y118.258 E6.73018
G1 X131.581 Y119.964 E6.76523
G1 X130.635 Y121.787 E6.80622
G1 X129.239 Y123.091 E6.84434
G1 X127.419 Y124.177 E6.88664
G1 X125.849 Y124.435 E6.91839
G1 X94.24 Y124.5 E7.54918
G1 X92.536 Y124.081 E7.5842
G1 X90.713 Y123.135 E7.62519
G1 X89.409 Y121.739 E7.66331
G1 X88.323 Y119.919 E7.7056
G1 X88.065 Y118.349 E7.73735
G1 X88 Y101.742 E8.06877
G1 X88.419 Y100.036 E8.10382
G1 X89.365 Y98.213 E8.14481
G1 X90.761 Y96.909 E8.18293
G0 F6000 X91.003 Y97.23
G1 F1200 X92.719 Y96.206 E8.22281
G1 X94.216 Y95.96 E8.25309
G1 X125.714 Y95.9 E8.88166
G1 X127.321 Y96.295 E8.91469
G1 X129.042 Y97.188 E8.95338
G1 X130.27 Y98.503 E8.98929
G1 X131.294 Y100.219 E9.02916
G1 X131.54 Y101.716 E9.05944
G1 X131.6 Y118.213 E9.38866
G1 X131.205 Y119.821 E9.4217
G1 X130.312 Y121.542 E9.46039
G1 X128.997 Y122.77 E9.4963
G1 X127.281 Y123.794 E9.53618
G1 X125.784 Y124.04 E9.56645
G1 X94.286 Y124.1 E10.19503
G1 X92.679 Y123.705 E10.22805
G1 X90.958 Y122.812 E10.26675
G1 X89.73 Y121.497 E10.30265
G1 X88.706 Y119.781 E10.34253
G1 X88.46 Y118.284 E10.3728
G1 X88.4 Y101.787 E10.70202
G1 X88.795 Y100.179 E10.73507
G1 X89.688 Y98.458 E10.77376
G1 X91.003 Y97.23 E10.80966
G0 F6000 X91.245 Y97.551
G1 F1200 X92.857 Y96.589 E10.84713
G1 X94.281 Y96.355 E10.87592
G1 X125.668 Y96.3 E11.50229
G1 X127.178 Y96.671 E11.53332
G1 X128.797 Y97.511 E11.56972
G1 X129.949 Y98.745 E11.6034
G1 X130.911 Y100.357 E11.64087
G1 X131.145 Y101.781 E11.66967
G1 X131.2 Y118.168 E11.99669
G1 X130.829 Y119.678 E12.02772
G1 X129.989 Y121.297 E12.06412
G1 X128.755 Y122.449 E12.0978
G1 X127.143 Y123.411 E12.13527
G1 X125.719 Y123.645 E12.16407
G1 X94.332 Y123.7 E12.79043
G1 X92.822 Y123.329 E12.82146
G1 X91.203 Y122.489 E12.85786
G1 X90.051 Y121.255 E12.89155
G1 X89.089 Y119.643 E12.92901
G1 X88.855 Y118.219 E12.95781
G1 X88.8 Y101.832 E13.28483
G1 X89.171 Y100.322 E13.31586
G1 X90.011 Y98.703 E13.35226
G1 X91.245 Y97.551 E13.38595
G0 F6000 X91.487 Y97.872
G1 F1200 X92.995 Y96.972 E13.42099
G1 X94.346 Y96.75 E13.44831
G1 X125.621 Y96.7 E14.07244
G1 X127.036 Y97.048 E14.10152
G1 X128.552 Y97.834 E14.1356
G1 X129.628 Y98.987 E14.16707
G1 X130.528 Y100.495 E14.20212
G1 X130.75 Y101.846 E14.22944
G1 X130.8 Y118.121 E14.55423
G1 X130.452 Y119.536 E14.58331
G1 X129.666 Y121.052 E14.61738
G1 X128.513 Y122.128 E14.64886
G1 X127.005 Y123.028 E14.6839
G1 X125.654 Y123.25 E14.71122
G1 X94.379 Y123.3 E15.33535
G1 X92.964 Y122.952 E15.36443
G1 X91.448 Y122.166 E15.39851
G1 X90.372 Y121.013 E15.42998
G1 X89.472 Y119.505 E15.46503
G1 X89.25 Y118.154 E15.49235
G1 X89.2 Y101.879 E15.81714
G1 X89.548 Y100.464 E15.84621
G1 X90.334 Y98.948 E15.88029
G1 X91.487 Y97.872 E15.91176
G0 F6000 X91.729 Y98.193
G1 F1200 X93.133 Y97.355 E15.94439
G1 X94.411 Y97.145 E15.97024
G1 X125.575 Y97.1 E16.59215
G1 X126.893 Y97.424 E16.61924
G1 X128.307 Y98.157 E16.65102
G1 X129.307 Y99.229 E16.68028
G1 X130.145 Y100.633 E16.71291
G1 X130.355 Y101.911 E16.73875
G1 X130.4 Y118.075 E17.06132
G1 X130.076 Y119.393 E17.08841
G1 X129.343 Y120.807 E17.12019
G1 X128.271 Y121.807 E17.14945
G1 X126.867 Y122.645 E17.18208
G1 X125.589 Y122.855 E17.20792
G1 X94.425 Y122.9 E17.82984
G1 X93.107 Y122.576 E17.85692
G1 X91.693 Y121.843 E17.88871
G1 X90.693 Y120.771 E17.91796
G1 X89.855 Y119.367 E17.95059
G1 X89.645 Y118.089 E17.97644
G1 X89.6 Y101.925 E18.29901
G1 X89.924 Y100.607 E18.32609
G1 X90.657 Y99.193 E18.35788
G1 X91.729 Y98.193 E18.38713
G0 F6000 X91.974 Y98.512
G1 F1200 X93.271 Y97.738 E18.41727
G1 X94.476 Y97.54 E18.44164
G1 X125.529 Y97.5 E19.06134
G1 X126.75 Y97.8 E19.08643
G1 X128.06 Y98.479 E19.11588
G1 X128.988 Y99.474 E19.14303
G1 X129.762 Y100.771 E19.17317
G1 X129.96 Y101.976 E19.19754
G1 X130 Y118.029 E19.5179
G1 X129.7 Y119.25 E19.54299
G1 X129.021 Y120.56 E19.57243
G1 X128.026 Y121.488 E19.59959
G1 X126.729 Y122.262 E19.62973
G1 X125.524 Y122.46 E19.6541
G1 X94.471 Y122.5 E20.27379
G1 X93.25 Y122.2 E20.29888
G1 X91.94 Y121.521 E20.32833
G1 X91.012 Y120.526 E20.35548
G1 X90.238 Y119.229 E20.38562
G1 X90.04 Y118.024 E20.40999
G1 X90 Y101.971 E20.73035
G1 X90.3 Y100.75 E20.75544
G1 X90.979 Y99.44 E20.78489
G1 X91.974 Y98.512 E20.81204
G0 F6000 X92.216 Y98.834
G1 F1200 X93.411 Y98.121 E20.83981
G1 X94.541 Y97.935 E20.86266
G1 X125.483 Y97.9 E21.48014
G1 X126.607 Y98.176 E21.50324
G1 X127.813 Y98.801 E21.53035
G1 X128.666 Y99.716 E21.55531
G1 X129.379 Y100.911 E21.58308
G1 X129.565 Y102.041 E21.60593
G1 X129.6 Y117.983 E21.92407
G1 X129.324 Y119.107 E21.94717
G1 X128.699 Y120.313 E21.97428
G1 X127.784 Y121.166 E21.99924
G1 X126.589 Y121.879 E22.02701
G1 X125.459 Y122.065 E22.04987
G1 X94.517 Y122.1 E22.66735
G1 X93.393 Y121.824 E22.69044
G1 X92.187 Y121.199 E22.71755
G1 X91.334 Y120.284 E22.74251
G1 X90.621 Y119.089 E22.77028
G1 X90.435 Y117.959 E22.79314
G1 X90.4 Y102.017 E23.11128
G1 X90.676 Y100.893 E23.13438
G1 X91.301 Y99.687 E23.16148
G1 X92.216 Y98.834 E23.18645
G0 F6000 X92.458 Y99.156
G1 F1200 X93.551 Y98.504 E23.21184
G1 X94.606 Y98.33 E23.23318
G1 X125.436 Y98.3 E23.84843
G1 X126.465 Y98.553 E23.86958
G1 X127.566 Y99.123 E23.89432
G1 X128.344 Y99.958 E23.91709
G1 X128.996 Y101.051 E23.94249
G1 X129.17 Y102.106 E23.96383
G1 X129.2 Y117.936 E24.27973
G1 X128.947 Y118.965 E24.30088
G1 X128.377 Y120.066 E24.32562
G1 X127.542 Y120.844 E24.3484
G1 X126.449 Y121.496 E24.37379
G1 X125.394 Y121.67 E24.39513
G1 X94.564 Y121.7 E25.01038
G1 X93.535 Y121.447 E25.03153
G1 X92.434 Y120.877 E25.05627
G1 X91.656 Y120.042 E25.07904
G1 X91.004 Y118.949 E25.10444
G1 X90.83 Y117.894 E25.12578
G1 X90.8 Y102.064 E25.44168
G1 X91.053 Y101.035 E25.46283
G1 X91.623 Y99.934 E25.48757
G1 X92.458 Y99.156 E25.51035
G0 F6000 X92.7 Y99.478
G1 F1200 X93.691 Y98.887 E25.53337
G1 X94.671 Y98.725 E25.5532
G1 X125.39 Y98.7 E26.16623
G1 X126.322 Y98.929 E26.18538
G1 X127.319 Y99.445 E26.20778
G1 X128.022 Y100.2 E26.22837
G1 X128.613 Y101.191 E26.2514
G1 X128.775 Y102.171 E26.27122
G1 X128.8 Y117.89 E26.58491
G1 X128.571 Y118.822 E26.60406
G1 X128.055 Y119.819 E26.62646
G1 X127.3 Y120.522 E26.64705
G1 X126.309 Y121.113 E26.67008
G1 X125.329 Y121.275 E26.6899
G1 X94.61 Y121.3 E27.30293
G1 X93.678 Y121.071 E27.32208
G1 X92.681 Y120.555 E27.34449
G1 X91.978 Y119.8 E27.36507
G1 X91.387 Y118.809 E27.3881
G1 X91.225 Y117.829 E27.40792
G1 X91.2 Y102.11 E27.72161
G1 X91.429 Y101.178 E27.74076
G1 X91.945 Y100.181 E27.76317
G1 X92.7 Y99.478 E27.78375
G0 F6000 X92.939 Y99.802
G1 F1200 X93.831 Y99.27 E27.80448
G1 X94.736 Y99.12 E27.82279
G1 X125.344 Y99.1 E28.4336
G1 X126.179 Y99.305 E28.45076
G1 X127.074 Y99.768 E28.47087
G1 X127.698 Y100.439 E28.48916
G1 X128.23 Y101.331 E28.50988
G1 X128.38 Y102.236 E28.52819
G1 X128.4 Y117.844 E28.83966
G1 X128.195 Y118.679 E28.85682
G1 X127.732 Y119.574 E28.87693
G1 X127.061 Y120.198 E28.89522
G1 X126.169 Y120.73 E28.91594
G1 X125.264 Y120.88 E28.93425
G1 X94.656 Y120.9 E29.54506
G1 X93.821 Y120.695 E29.56222
G1 X92.926 Y120.232 E29.58233
G1 X92.302 Y119.561 E29.60062
G1 X91.77 Y118.669 E29.62134
G1 X91.62 Y117.764 E29.63965
G1 X91.6 Y102.156 E29.95113
G1 X91.805 Y101.321 E29.96828
G1 X92.268 Y100.426 E29.98839
G1 X92.939 Y99.802 E30.00668
G0 F6000 X93.178 Y100.126
G1 F1200 X93.971 Y99.653 E30.02511
G1 X94.802 Y99.515 E30.04192
G1 X125.298 Y99.5 E30.6505
G1 X126.036 Y99.681 E30.66566
G1 X126.829 Y100.091 E30.68348
G1 X127.374 Y100.678 E30.69946
G1 X127.847 Y101.471 E30.71789
G1 X127.985 Y102.302 E30.7347
G1 X128 Y117.798 E31.04394
G1 X127.819 Y118.536 E31.0591
G1 X127.409 Y119.329 E31.07692
G1 X126.822 Y119.874 E31.0929
G1 X126.029 Y120.347 E31.11133
G1 X125.198 Y120.485 E31.12814
G1 X94.702 Y120.5 E31.73672
G1 X93.964 Y120.319 E31.75188
G1 X93.171 Y119.909 E31.7697
G1 X92.626 Y119.322 E31.78568
G1 X92.153 Y118.529 E31.80411
G1 X92.015 Y117.698 E31.82092
G1 X92 Y102.202 E32.13016
G1 X92.181 Y101.464 E32.14532
G1 X92.591 Y100.671 E32.16314
G1 X93.178 Y100.126 E32.17912
G0 F6000 X93.417 Y100.45
G1 F1200 X94.111 Y100.036 E32.19525
G1 X94.868 Y99.91 E32.21057
G1 X125.248 Y99.9 E32.81683
G1 X125.897 Y100.059 E32.83017
G1 X126.584 Y100.414 E32.8456
G1 X127.05 Y100.917 E32.85928
G1 X127.464 Y101.611 E32.87541
G1 X127.59 Y102.368 E32.89072
G1 X127.6 Y117.748 E33.19765
G1 X127.441 Y118.397 E33.21098
G1 X127.086 Y119.084 E33.22641
G1 X126.583 Y119.55 E33.2401
G1 X125.889 Y119.964 E33.25622
G1 X125.132 Y120.09 E33.27154
G1 X94.752 Y120.1 E33.8778
G1 X94.103 Y119.941 E33.89114
G1 X93.416 Y119.586 E33.90657
G1 X92.95 Y119.083 E33.92025
G1 X92.536 Y118.389 E33.93638
G1 X92.41 Y117.632 E33.9517
G1 X92.4 Y102.252 E34.25862
G1 X92.559 Y101.603 E34.27195
G1 X92.914 Y100.916 E34.28739
G1 X93.417 Y100.45 E34.30107
G0 F6000 X93.656 Y100.774
G1 F1200 X94.251 Y100.419 E34.3149
G1 X94.934 Y100.305 E34.32872
G1 X125.198 Y100.3 E34.93267
G1 X125.758 Y100.437 E34.94417
G1 X126.338 Y100.737 E34.9572
G1 X126.726 Y101.156 E34.9686
G1 X127.081 Y101.751 E34.98242
G1 X127.195 Y102.434 E34.99624
G1 X127.2 Y117.698 E35.30085
G1 X127.063 Y118.258 E35.31236
G1 X126.763 Y118.838 E35.32539
G1 X126.344 Y119.226 E35.33679
G1 X125.749 Y119.581 E35.35061
G1 X125.066 Y119.695 E35.36443
G1 X94.802 Y119.7 E35.96838
G1 X94.242 Y119.563 E35.97989
G1 X93.662 Y119.263 E35.99292
G1 X93.274 Y118.844 E36.00431
G1 X92.919 Y118.249 E36.01814
G1 X92.805 Y117.566 E36.03196
G1 X92.8 Y102.302 E36.33657
G1 X92.937 Y101.742 E36.34807
G1 X93.237 Y101.162 E36.3611
G1 X93.656 Y100.774 E36.3725
G0 F6000 X93.898 Y101.095
G1 F1200 X94.389 Y100.802 E36.38391
G1 X95 Y100.7 E36.39627
G1 X125.148 Y100.7 E36.99791
G1 X125.619 Y100.815 E37.00758
G1 X126.092 Y101.06 E37.01821
G1 X126.405 Y101.398 E37.02741
G1 X126.698 Y101.889 E37.03882
G1 X126.8 Y102.5 E37.05118
G1 X126.8 Y117.648 E37.35347
G1 X126.685 Y118.119 E37.36315
G1 X126.44 Y118.592 E37.37378
G1 X126.102 Y118.905 E37.38297
G1 X125.611 Y119.198 E37.39438
G1 X125 Y119.3 E37.40675
G1 X94.852 Y119.3 E38.00838
G1 X94.381 Y119.185 E38.01806
G1 X93.908 Y118.94 E38.02869
G1 X93.595 Y118.602 E38.03788
G1 X93.302 Y118.111 E38.04929
G1 X93.2 Y117.5 E38.06165
G1 X93.2 Y102.352 E38.36395
G1 X93.315 Y101.881 E38.37362
G1 X93.56 Y101.408 E38.38425
G1 X93.898 Y101.095 E38.39345
G0 F6000 X94.14 Y101.416
G1 F1200 X93.883 Y101.654 E38.40044
G1 X93.693 Y102.02 E38.40867
G1 X93.6 Y102.402 E38.41651
G1 X93.6 Y117.5 E38.71781
G1 X93.685 Y117.973 E38.7274
G1 X93.916 Y118.36 E38.73639
G1 X94.154 Y118.617 E38.74338
G1 X94.52 Y118.807 E38.75161
G1 X94.902 Y118.9 E38.75946
G1 X125 Y118.9 E39.3601
G1 X125.473 Y118.815 E39.36969
G1 X125.86 Y118.584 E39.37868
G1 X126.117 Y118.346 E39.38567
G1 X126.307 Y117.98 E39.3939
G1 X126.4 Y117.598 E39.40175
G1 X126.4 Y102.5 E39.70304
G1 X126.315 Y102.027 E39.71263
G1 X126.084 Y101.64 E39.72163
G1 X125.846 Y101.383 E39.72862
G1 X125.48 Y101.193 E39.73685
G1 X125.098 Y101.1 E39.74469
G1 X95 Y101.1 E40.34533
G1 X94.527 Y101.185 E40.35492
G1 X94.14 Y101.416 E40.36392
G0 F6000 X94.345 Y101.76
G1 F1200 X94.672 Y101.565 E40.37152
G1 X95 Y101.5 E40.37819
G1 X125.049 Y101.5 E40.97785
G1 X125.338 Y101.57 E40.98378
G1 X125.601 Y101.707 E40.9897
G1 X125.74 Y101.845 E40.99361
G1 X125.935 Y102.172 E41.00121
G1 X126 Y102.5 E41.00788
G1 X126 Y117.549 E41.3082
G1 X125.93 Y117.838 E41.31413
G1 X125.793 Y118.101 E41.32005
G1 X125.655 Y118.24 E41.32396
G1 X125.328 Y118.435 E41.33156
G1 X125 Y118.5 E41.33823
G1 X94.951 Y118.5 E41.93789
G1 X94.662 Y118.43 E41.94382
G1 X94.399 Y118.293 E41.94974
G1 X94.26 Y118.155 E41.95365
G1 X94.065 Y117.828 E41.96125
G1 X94 Y117.5 E41.96792
G1 X94 Y102.451 E42.26824
G1 X94.07 Y102.162 E42.27418
G1 X94.207 Y101.899 E42.28009
G1 X94.345 Y101.76 E42.284
G0 F6000 X94.839 Y102.381
G1 F1200 X95 Y102.3 E42.2876
G1 X125 Y102.3 E42.88628
G1 X125.119 Y102.339 E42.88878
G1 X125.2 Y102.5 E42.89238
G1 X125.2 Y117.5 E43.19172
G1 X125.161 Y117.619 E43.19422
G1 X125 Y117.7 E43.19781
G1 X95 Y117.7 E43.7965
G1 X94.881 Y117.661 E43.79899
G1 X94.8 Y117.5 E43.80259
G1 X94.8 Y102.5 E44.10193
G1 X94.839 Y102.381 E44.10443
G0 F6000 X94.55 Y102.104
G1 F1200 X94.82 Y101.943 E44.11071
G1 X95 Y101.9 E44.1144
G1 X125 Y101.9 E44.71308
G1 X125.244 Y101.959 E44.71809
G1 X125.396 Y102.05 E44.72163
G1 X125.557 Y102.32 E44.7279
G1 X125.6 Y102.5 E44.73159
G1 X125.6 Y117.5 E45.03093
G1 X125.541 Y117.744 E45.03594
G1 X125.45 Y117.896 E45.03948
G1 X125.18 Y118.057 E45.04575
G1 X125 Y118.1 E45.04944
G1 X95 Y118.1 E45.64813
G1 X94.756 Y118.041 E45.65314
G1 X94.604 Y117.95 E45.65667
G1 X94.443 Y117.68 E45.66295
G1 X94.4 Y117.5 E45.66664
G1 X94.4 Y102.5 E45.96598
G1 X94.459 Y102.256 E45.97099
G1 X94.55 Y102.104 E45.97453
G1 F1500 E39.47453
;MESH:V2_cam_holder_test.stl
G0 F6000 X96.2 Y103.7
G0 X96.172 Y116.328
G0 X124 Y116.5
;TYPE:WALL-INNER
G1 F1500 E45.97453
G1 F1200 X124 Y103.5 E46.23395
G1 X96 Y103.5 E46.79272
G1 X96 Y116.5 E47.05215
G1 X124 Y116.5 E47.61092
G0 F6000 X124.4 Y116.9
G1 F1200 X124.4 Y103.1 E47.88632
G1 X95.6 Y103.1 E48.46105
G1 X95.6 Y116.9 E48.73645
G1 X124.4 Y116.9 E49.31118
G0 F6000 X124.8 Y117.3
;TYPE:WALL-OUTER
G1 F1200 X124.8 Y102.7 E49.60254
G1 X95.2 Y102.7 E50.19324
G1 X95.2 Y117.3 E50.4846
G1 X124.8 Y117.3 E51.0753
G0 F6000 X124.53 Y117.03
G0 X123.9 Y116.14
G0 X123.64 Y116.14
;TYPE:SKIN
G1 F1200 X96.36 Y116.14 E51.6197
G1 X96.36 Y103.86 E51.86476
G1 X123.64 Y103.86 E52.40916
G1 X123.64 Y116.14 E52.65422
G0 F6000 X123.9 Y116.14
G0 X123.828 Y103.672
G0 X123.293 Y103.6
