;FLAVOR:Marlin
;TIME:781
;Filament used: 0.256697m
;Layer height: 0.12
;MINX:88.6
;MINY:88.6
;MINZ:0.12
;MAXX:131.4
;MAXY:131.4
;MAXZ:5.76
;TARGET_MACHINE.NAME:Creality Ender-3 Pro
;Generated with Cura_SteamEngine 5.6.0
M82 ;absolute extrusion mode
; Ender 3 Custom Start G-code
G92 E0 ; Reset Extruder
G28 ; Home all axes
G1 Z5.0 F3000 ; Move Z Axis up a bit during heating to not damage bed
M104 S175 ; Start heating up the nozzle most of the way
M190 S60 ; Start heating the bed, wait until target temperature reached
M109 S200 ; Finish heating the nozzle
G1 Z2.0 F3000 ; Move Z Axis up little to prevent scratching of Heat Bed
G1 X0.1 Y20 Z0.3 F5000.0 ; Move to start position
G1 X0.1 Y200.0 Z0.3 F1500.0 E15 ; Draw the first line
G1 X0.4 Y200.0 Z0.3 F5000.0 ; Move to side a little
G1 X0.4 Y20 Z0.3 F1500.0 E30 ; Draw the second line
G92 E0 ; Reset Extruder
G1 Z2.0 F3000 ; Move Z Axis up little to prevent scratching of Heat Bed
G1 X5 Y20 Z0.3 F5000.0 ; Move over to prevent blob squish
G92 E0
G92 E0
G1 F1500 E-6.5
;LAYER_COUNT:48
;LAYER:0
M107
G0 F6000 X94.34 Y95.413 Z0.12
;TYPE:SKIRT
G1 F1500 E0
G1 F1200 X95.509 Y94.25 E0.03291
G1 X96.357 Y93.51 E0.05537
G1 X97.616 Y92.541 E0.08707
G1 X98.428 Y91.993 E0.10662
G1 X99.93 Y91.117 E0.14132
G1 X100.875 Y90.64 E0.16245
G1 X102.209 Y90.067 E0.19142
G1 X103.565 Y89.591 E0.2201
G1 X104.929 Y89.206 E0.24838
G1 X105.872 Y88.997 E0.26766
G1 X107.076 Y88.803 E0.29199
G1 X108.958 Y88.627 E0.32972
G1 X110.263 Y88.6 E0.35576
G1 X111.128 Y88.629 E0.37304
G1 X112.961 Y88.806 E0.40978
G1 X113.891 Y88.958 E0.42859
G1 X115.577 Y89.342 E0.4631
G1 X116.477 Y89.606 E0.48181
G1 X118.132 Y90.201 E0.51691
G1 X118.952 Y90.558 E0.53476
G1 X120.511 Y91.354 E0.56969
G1 X121.381 Y91.873 E0.58991
G1 X122.598 Y92.704 E0.61932
G1 X123.785 Y93.631 E0.64937
G1 X124.681 Y94.43 E0.67333
G1 X125.695 Y95.45 E0.70203
G1 X126.544 Y96.419 E0.72774
G1 X127.323 Y97.427 E0.75316
G1 X127.957 Y98.357 E0.77563
G1 X128.84 Y99.848 E0.81021
G1 X129.382 Y100.921 E0.8342
G1 X129.914 Y102.16 E0.8611
G1 X130.417 Y103.595 E0.89145
G1 X130.788 Y104.921 E0.91893
G1 X131.047 Y106.117 E0.94335
G1 X131.236 Y107.369 E0.96862
G1 X131.373 Y108.948 E1.00025
G1 X131.4 Y110.252 E1.02627
G1 X131.372 Y111.119 E1.04358
G1 X131.196 Y112.954 E1.08037
G1 X131.038 Y113.916 E1.09983
G1 X130.66 Y115.567 E1.13363
G1 X130.404 Y116.444 E1.15186
G1 X129.802 Y118.12 E1.1874
G1 X129.426 Y118.984 E1.2062
G1 X128.735 Y120.34 E1.23657
G1 X128.006 Y121.562 E1.26497
G1 X127.303 Y122.591 E1.28984
G1 X126.377 Y123.779 E1.3199
G1 X125.696 Y124.549 E1.34041
G1 X124.453 Y125.789 E1.37545
G1 X123.802 Y126.36 E1.39273
G1 X122.331 Y127.489 E1.42973
G1 X121.448 Y128.079 E1.45093
G1 X120.072 Y128.883 E1.48273
G1 X119.163 Y129.342 E1.50305
G1 X117.768 Y129.941 E1.53335
G1 X116.428 Y130.411 E1.56169
G1 X115.071 Y130.794 E1.58983
G1 X114.128 Y131.003 E1.6091
G1 X112.924 Y131.197 E1.63344
G1 X111.042 Y131.373 E1.67116
G1 X109.737 Y131.4 E1.69721
G1 X108.872 Y131.371 E1.71448
G1 X107.058 Y131.194 E1.75085
G1 X106.203 Y131.057 E1.76813
G1 X104.406 Y130.658 E1.80487
G1 X103.549 Y130.406 E1.82269
G1 X102.006 Y129.848 E1.85544
G1 X100.698 Y129.273 E1.88395
G1 X99.597 Y128.704 E1.90868
G1 X98.575 Y128.096 E1.93241
G1 X97.399 Y127.293 E1.96083
G1 X96.206 Y126.361 E1.99104
G1 X95.318 Y125.569 E2.01479
G1 X94.304 Y124.549 E2.04349
G1 X93.455 Y123.58 E2.0692
G1 X92.676 Y122.572 E2.09462
G1 X92.043 Y121.643 E2.11706
G1 X91.146 Y120.128 E2.15219
G1 X90.639 Y119.125 E2.17462
G1 X90.077 Y117.816 E2.20305
G1 X89.591 Y116.429 E2.23238
G1 X89.208 Y115.06 E2.26075
G1 X88.953 Y113.882 E2.2848
G1 X88.764 Y112.63 E2.31007
G1 X88.627 Y111.051 E2.3417
G1 X88.6 Y109.748 E2.3677
G1 X88.628 Y108.882 E2.38499
G1 X88.802 Y107.058 E2.42156
G1 X88.956 Y106.117 E2.44059
G1 X89.34 Y104.433 E2.47506
G1 X89.596 Y103.556 E2.49329
G1 X90.198 Y101.88 E2.52883
G1 X90.574 Y101.016 E2.54763
G1 X91.265 Y99.66 E2.578
G1 X91.994 Y98.438 E2.6064
G1 X92.697 Y97.409 E2.63127
G1 X93.624 Y96.221 E2.66134
G1 X94.34 Y95.413 E2.68288
G0 F6000 X94.622 Y95.697
G1 F1200 X95.791 Y94.534 E2.71579
G1 X96.601 Y93.827 E2.73725
G1 X97.84 Y92.873 E2.76845
G1 X98.652 Y92.325 E2.788
G1 X100.11 Y91.474 E2.82169
G1 X101.033 Y91.008 E2.84233
G1 X102.367 Y90.435 E2.8713
G1 X103.674 Y89.976 E2.89894
G1 X105.016 Y89.597 E2.92677
G1 X105.959 Y89.388 E2.94605
G1 X107.14 Y89.198 E2.96992
G1 X108.966 Y89.027 E3.00652
G1 X110.25 Y89 E3.03215
G1 X111.115 Y89.029 E3.04942
G1 X112.896 Y89.201 E3.08513
G1 X113.826 Y89.353 E3.10393
G1 X115.464 Y89.726 E3.13746
G1 X116.364 Y89.99 E3.15617
G1 X117.972 Y90.568 E3.19027
G1 X118.792 Y90.925 E3.20812
G1 X120.306 Y91.698 E3.24204
G1 X121.176 Y92.217 E3.26226
G1 X122.372 Y93.034 E3.29117
G1 X123.519 Y93.93 E3.32021
G1 X124.397 Y94.712 E3.34367
G1 X125.411 Y95.732 E3.37238
G1 X126.227 Y96.664 E3.3971
G1 X127.006 Y97.672 E3.42252
G1 X127.626 Y98.582 E3.44449
G1 X128.483 Y100.029 E3.47805
G1 X129.014 Y101.079 E3.50154
G1 X129.546 Y102.318 E3.52844
G1 X130.032 Y103.703 E3.55774
G1 X130.397 Y105.006 E3.58474
G1 X130.651 Y106.177 E3.60865
G1 X130.84 Y107.429 E3.63392
G1 X130.973 Y108.956 E3.66451
G1 X131 Y110.239 E3.69012
G1 X130.972 Y111.106 E3.70743
G1 X130.801 Y112.889 E3.74317
G1 X130.643 Y113.851 E3.76263
G1 X130.276 Y115.455 E3.79546
G1 X130.02 Y116.332 E3.8137
G1 X129.435 Y117.96 E3.84822
G1 X129.059 Y118.824 E3.86702
G1 X128.391 Y120.135 E3.89639
G1 X127.662 Y121.357 E3.92478
G1 X126.973 Y122.365 E3.94915
G1 X126.077 Y123.514 E3.97823
G1 X125.396 Y124.284 E3.99874
G1 X124.189 Y125.488 E4.03276
G1 X123.538 Y126.059 E4.05004
G1 X122.109 Y127.156 E4.08599
G1 X121.226 Y127.746 E4.10719
G1 X119.892 Y128.526 E4.13802
G1 X119.005 Y128.974 E4.15785
G1 X117.61 Y129.573 E4.18815
G1 X116.319 Y130.026 E4.21545
G1 X114.984 Y130.403 E4.24314
G1 X114.041 Y130.612 E4.26241
G1 X112.86 Y130.802 E4.28628
G1 X111.034 Y130.973 E4.32288
G1 X109.75 Y131 E4.34851
G1 X108.885 Y130.971 E4.36578
G1 X107.121 Y130.799 E4.40115
G1 X106.266 Y130.662 E4.41843
G1 X104.519 Y130.274 E4.45415
G1 X103.662 Y130.022 E4.47197
G1 X102.167 Y129.482 E4.50369
G1 X100.882 Y128.918 E4.5317
G1 X99.802 Y128.36 E4.55596
G1 X98.78 Y127.752 E4.57969
G1 X97.625 Y126.963 E4.6076
G1 X96.472 Y126.062 E4.6368
G1 X95.602 Y125.287 E4.66006
G1 X94.588 Y124.267 E4.68876
G1 X93.772 Y123.335 E4.71348
G1 X92.993 Y122.327 E4.7389
G1 X92.374 Y121.418 E4.76085
G1 X91.503 Y119.947 E4.79496
G1 X91.007 Y118.967 E4.81688
G1 X90.445 Y117.658 E4.84531
G1 X89.976 Y116.321 E4.87359
G1 X89.599 Y114.975 E4.90148
G1 X89.349 Y113.822 E4.92502
G1 X89.16 Y112.57 E4.95029
G1 X89.027 Y111.043 E4.98088
G1 X89 Y109.761 E5.00647
G1 X89.028 Y108.895 E5.02376
G1 X89.197 Y107.123 E5.05928
G1 X89.351 Y106.182 E5.07831
G1 X89.724 Y104.545 E5.11182
G1 X89.98 Y103.668 E5.13005
G1 X90.565 Y102.04 E5.16457
G1 X90.941 Y101.176 E5.18338
G1 X91.609 Y99.865 E5.21274
G1 X92.338 Y98.643 E5.24113
G1 X93.027 Y97.635 E5.2655
G1 X93.923 Y96.486 E5.29458
G1 X94.622 Y95.697 E5.31561
G0 F6000 X94.904 Y95.981
G1 F1200 X96.073 Y94.818 E5.34852
G1 X96.845 Y94.144 E5.36897
G1 X98.064 Y93.205 E5.39968
G1 X98.876 Y92.657 E5.41923
G1 X100.29 Y91.831 E5.45191
G1 X101.191 Y91.376 E5.47205
G1 X102.525 Y90.803 E5.50102
G1 X103.783 Y90.361 E5.52763
G1 X105.103 Y89.988 E5.55501
G1 X106.046 Y89.779 E5.57428
G1 X107.203 Y89.593 E5.59767
G1 X108.975 Y89.427 E5.63319
G1 X110.237 Y89.4 E5.65838
G1 X111.102 Y89.429 E5.67565
G1 X112.832 Y89.596 E5.71033
G1 X113.737 Y89.743 E5.72863
G1 X115.351 Y90.11 E5.76166
G1 X116.251 Y90.374 E5.78038
G1 X117.812 Y90.935 E5.81348
G1 X118.632 Y91.292 E5.83133
G1 X120.101 Y92.042 E5.86424
G1 X120.971 Y92.561 E5.88446
G1 X122.146 Y93.364 E5.91286
G1 X123.253 Y94.229 E5.9409
G1 X124.113 Y94.994 E5.96387
G1 X125.11 Y95.996 E5.99207
G1 X125.91 Y96.909 E6.0163
G1 X126.689 Y97.917 E6.04172
G1 X127.295 Y98.807 E6.06321
G1 X128.126 Y100.21 E6.09575
G1 X128.646 Y101.237 E6.11872
G1 X129.178 Y102.476 E6.14563
G1 X129.654 Y103.835 E6.17437
G1 X130.006 Y105.091 E6.2004
G1 X130.255 Y106.237 E6.2238
G1 X130.444 Y107.489 E6.24907
G1 X130.573 Y108.965 E6.27863
G1 X130.6 Y110.226 E6.30381
G1 X130.572 Y111.093 E6.32112
G1 X130.406 Y112.824 E6.35582
G1 X130.248 Y113.786 E6.37527
G1 X129.892 Y115.343 E6.40715
G1 X129.643 Y116.197 E6.4249
G1 X129.068 Y117.8 E6.45888
G1 X128.692 Y118.664 E6.47769
G1 X128.047 Y119.93 E6.50604
G1 X127.318 Y121.152 E6.53444
G1 X126.658 Y122.119 E6.5578
G1 X125.777 Y123.249 E6.5864
G1 X125.096 Y124.019 E6.60691
G1 X123.925 Y125.187 E6.63992
G1 X123.274 Y125.758 E6.6572
G1 X121.887 Y126.823 E6.69209
G1 X121.004 Y127.413 E6.71329
G1 X119.712 Y128.169 E6.74316
G1 X118.847 Y128.606 E6.7625
G1 X117.452 Y129.205 E6.7928
G1 X116.21 Y129.641 E6.81907
G1 X114.897 Y130.012 E6.84629
G1 X113.954 Y130.221 E6.86557
G1 X112.797 Y130.407 E6.88895
G1 X111.025 Y130.573 E6.92447
G1 X109.763 Y130.6 E6.94966
G1 X108.898 Y130.571 E6.96693
G1 X107.184 Y130.404 E7.0013
G1 X106.329 Y130.267 E7.01858
G1 X104.632 Y129.89 E7.05327
G1 X103.775 Y129.638 E7.0711
G1 X102.328 Y129.116 E7.1018
G1 X101.066 Y128.563 E7.12929
G1 X100.007 Y128.016 E7.15308
G1 X98.985 Y127.408 E7.17681
G1 X97.851 Y126.633 E7.20422
G1 X96.738 Y125.763 E7.23241
G1 X95.886 Y125.005 E7.25517
G1 X94.889 Y124.003 E7.28338
G1 X94.089 Y123.09 E7.3076
G1 X93.31 Y122.082 E7.33302
G1 X92.718 Y121.214 E7.35399
G1 X91.847 Y119.743 E7.38811
G1 X91.375 Y118.809 E7.40899
G1 X90.813 Y117.5 E7.43742
G1 X90.354 Y116.189 E7.46514
G1 X89.99 Y114.89 E7.49206
G1 X89.745 Y113.762 E7.5151
G1 X89.556 Y112.51 E7.54036
G1 X89.427 Y111.034 E7.56993
G1 X89.4 Y109.774 E7.59508
G1 X89.428 Y108.908 E7.61237
G1 X89.592 Y107.187 E7.64687
G1 X89.741 Y106.271 E7.66539
G1 X90.108 Y104.657 E7.69842
G1 X90.357 Y103.803 E7.71618
G1 X90.932 Y102.2 E7.75016
G1 X91.308 Y101.336 E7.76897
G1 X91.953 Y100.07 E7.79732
G1 X92.682 Y98.848 E7.82572
G1 X93.342 Y97.881 E7.84908
G1 X94.223 Y96.751 E7.87767
G1 X94.904 Y95.981 E7.89819
G0 F6000 X95.204 Y96.246
G1 F1200 X96.336 Y95.119 E7.93006
G1 X97.089 Y94.461 E7.95002
G1 X98.288 Y93.537 E7.98023
G1 X99.1 Y92.989 E7.99978
G1 X100.47 Y92.188 E8.03145
G1 X101.349 Y91.744 E8.0511
G1 X102.683 Y91.171 E8.08007
G1 X103.892 Y90.746 E8.10565
G1 X105.19 Y90.379 E8.13257
G1 X106.133 Y90.17 E8.15184
G1 X107.266 Y89.988 E8.17474
G1 X108.984 Y89.827 E8.20918
G1 X110.224 Y89.8 E8.23393
G1 X111.089 Y89.829 E8.2512
G1 X112.768 Y89.991 E8.28486
G1 X113.648 Y90.133 E8.30265
G1 X115.239 Y90.494 E8.33521
G1 X116.116 Y90.751 E8.35344
G1 X117.652 Y91.302 E8.38601
G1 X118.472 Y91.659 E8.40386
G1 X119.896 Y92.386 E8.43576
G1 X120.766 Y92.905 E8.45598
G1 X121.9 Y93.679 E8.48338
G1 X122.987 Y94.528 E8.5109
G1 X123.829 Y95.276 E8.53338
G1 X124.826 Y96.278 E8.56159
G1 X125.593 Y97.154 E8.58482
G1 X126.372 Y98.162 E8.61025
G1 X126.951 Y99.011 E8.63075
G1 X127.782 Y100.414 E8.66329
G1 X128.278 Y101.395 E8.68523
G1 X128.81 Y102.634 E8.71214
G1 X129.269 Y103.943 E8.73982
G1 X129.615 Y105.176 E8.76538
G1 X129.859 Y106.297 E8.78827
G1 X130.048 Y107.549 E8.81354
G1 X130.173 Y108.974 E8.84209
G1 X130.2 Y110.213 E8.86682
G1 X130.172 Y111.08 E8.88413
G1 X130.011 Y112.759 E8.91779
G1 X129.853 Y113.721 E8.93724
G1 X129.508 Y115.231 E8.96815
G1 X129.259 Y116.085 E8.98591
G1 X128.701 Y117.64 E9.01888
G1 X128.325 Y118.504 E9.03768
G1 X127.703 Y119.725 E9.06503
G1 X126.974 Y120.947 E9.09342
G1 X126.328 Y121.893 E9.11628
G1 X125.477 Y122.984 E9.14389
G1 X124.796 Y123.754 E9.16441
G1 X123.661 Y124.886 E9.1964
G1 X123.01 Y125.457 E9.21368
G1 X121.665 Y126.49 E9.24752
G1 X120.782 Y127.08 E9.26872
G1 X119.532 Y127.812 E9.29762
G1 X118.689 Y128.238 E9.31647
G1 X117.294 Y128.837 E9.34677
G1 X116.101 Y129.256 E9.372
G1 X114.81 Y129.621 E9.39877
G1 X113.867 Y129.83 E9.41805
G1 X112.734 Y130.012 E9.44095
G1 X111.016 Y130.173 E9.47538
G1 X109.776 Y130.2 E9.50014
G1 X108.911 Y130.171 E9.51741
G1 X107.247 Y130.009 E9.55077
G1 X106.392 Y129.872 E9.56805
G1 X104.745 Y129.506 E9.60172
G1 X103.888 Y129.254 E9.61955
G1 X102.488 Y128.75 E9.64924
G1 X101.25 Y128.208 E9.67621
G1 X100.212 Y127.672 E9.69952
G1 X99.19 Y127.064 E9.72326
G1 X98.097 Y126.318 E9.74966
G1 X97.004 Y125.464 E9.77734
G1 X96.17 Y124.723 E9.79961
G1 X95.173 Y123.721 E9.82782
G1 X94.406 Y122.845 E9.85105
G1 X93.627 Y121.837 E9.87647
G1 X93.049 Y120.989 E9.89695
G1 X92.204 Y119.562 E9.93005
G1 X91.743 Y118.651 E9.95042
G1 X91.181 Y117.342 E9.97885
G1 X90.739 Y116.081 E10.00552
G1 X90.381 Y114.805 E10.03197
G1 X90.141 Y113.702 E10.05449
G1 X89.952 Y112.45 E10.07976
G1 X89.827 Y111.025 E10.10831
G1 X89.8 Y109.787 E10.13302
G1 X89.828 Y108.921 E10.15031
G1 X89.987 Y107.251 E10.18379
G1 X90.131 Y106.36 E10.2018
G1 X90.492 Y104.769 E10.23436
G1 X90.741 Y103.915 E10.25211
G1 X91.299 Y102.36 E10.28508
G1 X91.675 Y101.496 E10.30388
G1 X92.297 Y100.275 E10.33123
G1 X93.026 Y99.053 E10.35962
G1 X93.672 Y98.107 E10.38248
G1 X94.523 Y97.016 E10.4101
G1 X95.204 Y96.246 E10.43061
G0 F6000 X95.504 Y96.511
G1 F1200 X96.599 Y95.42 E10.46146
G1 X97.333 Y94.778 E10.48092
G1 X98.512 Y93.869 E10.51063
G1 X99.324 Y93.321 E10.53018
G1 X100.651 Y92.545 E10.56085
G1 X101.507 Y92.112 E10.58
G1 X102.841 Y91.539 E10.60897
G1 X104.001 Y91.131 E10.63351
G1 X105.277 Y90.77 E10.65997
G1 X106.22 Y90.561 E10.67925
G1 X107.329 Y90.383 E10.70166
G1 X108.993 Y90.227 E10.73501
G1 X110.211 Y90.2 E10.75933
G1 X111.076 Y90.229 E10.7766
G1 X112.704 Y90.386 E10.80924
G1 X113.584 Y90.528 E10.82703
G1 X115.127 Y90.878 E10.8586
G1 X116.004 Y91.135 E10.87684
G1 X117.492 Y91.669 E10.90839
G1 X118.312 Y92.026 E10.92623
G1 X119.691 Y92.73 E10.95713
G1 X120.561 Y93.249 E10.97735
G1 X121.674 Y94.009 E11.00424
G1 X122.721 Y94.827 E11.03076
G1 X123.563 Y95.575 E11.05324
G1 X124.525 Y96.541 E11.08044
G1 X125.276 Y97.399 E11.1032
G1 X126.055 Y98.407 E11.12862
G1 X126.62 Y99.236 E11.14864
G1 X127.425 Y100.595 E11.18016
G1 X127.91 Y101.553 E11.20159
G1 X128.442 Y102.792 E11.2285
G1 X128.884 Y104.051 E11.25513
G1 X129.224 Y105.261 E11.28021
G1 X129.463 Y106.357 E11.30259
G1 X129.652 Y107.609 E11.32786
G1 X129.773 Y108.983 E11.35539
G1 X129.8 Y110.2 E11.37968
G1 X129.772 Y111.067 E11.39699
G1 X129.616 Y112.695 E11.42963
G1 X129.463 Y113.632 E11.44857
G1 X129.124 Y115.119 E11.47901
G1 X128.875 Y115.973 E11.49676
G1 X128.334 Y117.48 E11.52872
G1 X127.958 Y118.344 E11.54752
G1 X127.359 Y119.52 E11.57386
G1 X126.63 Y120.742 E11.60225
G1 X125.998 Y121.667 E11.62461
G1 X125.177 Y122.719 E11.65124
G1 X124.496 Y123.489 E11.67175
G1 X123.397 Y124.585 E11.70273
G1 X122.746 Y125.156 E11.72001
G1 X121.443 Y126.157 E11.7528
G1 X120.56 Y126.747 E11.77399
G1 X119.351 Y127.455 E11.80195
G1 X118.531 Y127.87 E11.82029
G1 X117.136 Y128.469 E11.85059
G1 X115.992 Y128.871 E11.87479
G1 X114.723 Y129.23 E11.9011
G1 X113.78 Y129.439 E11.92038
G1 X112.671 Y129.617 E11.94279
G1 X111.007 Y129.773 E11.97615
G1 X109.789 Y129.8 E12.00046
G1 X108.924 Y129.771 E12.01773
G1 X107.31 Y129.614 E12.05009
G1 X106.455 Y129.477 E12.06737
G1 X104.858 Y129.122 E12.10002
G1 X104.001 Y128.87 E12.11785
G1 X102.648 Y128.383 E12.14654
G1 X101.433 Y127.852 E12.173
G1 X100.417 Y127.328 E12.19582
G1 X99.395 Y126.72 E12.21955
G1 X98.323 Y125.988 E12.24545
G1 X97.27 Y125.165 E12.27212
G1 X96.436 Y124.424 E12.29439
G1 X95.474 Y123.458 E12.32159
G1 X94.723 Y122.6 E12.34435
G1 X93.944 Y121.592 E12.36977
G1 X93.38 Y120.764 E12.38976
G1 X92.548 Y119.358 E12.42237
G1 X92.111 Y118.493 E12.44171
G1 X91.549 Y117.184 E12.47013
G1 X91.124 Y115.973 E12.49575
G1 X90.772 Y114.72 E12.52172
G1 X90.537 Y113.642 E12.54374
G1 X90.348 Y112.39 E12.569
G1 X90.227 Y111.016 E12.59653
G1 X90.2 Y109.8 E12.6208
G1 X90.228 Y108.934 E12.63809
G1 X90.382 Y107.315 E12.67055
G1 X90.526 Y106.424 E12.68856
G1 X90.876 Y104.881 E12.72013
G1 X91.125 Y104.027 E12.73789
G1 X91.666 Y102.52 E12.76984
G1 X92.042 Y101.656 E12.78864
G1 X92.641 Y100.48 E12.81498
G1 X93.37 Y99.258 E12.84338
G1 X94.002 Y98.333 E12.86573
G1 X94.823 Y97.281 E12.89236
G1 X95.504 Y96.511 E12.91288
G0 F6000 X95.804 Y96.776
G1 F1200 X96.862 Y95.721 E12.94269
G1 X97.577 Y95.095 E12.96166
G1 X98.736 Y94.201 E12.99087
G1 X99.548 Y93.653 E13.01042
G1 X100.832 Y92.902 E13.0401
